%
(1001)
(Machine)
(  vendor: CNC-Step)
(  model: High-Z S1400T)
(  description: Generic 3-axis)
(T1 D=6 CR=0 - ZMIN=0 - flat end mill)
N10 G90 G94
N15 G17
N20 G21
N25 G28 G91 Z0
N30 G90

(Bore1)
N35 T1 M6
N40 S18000 M3
N45 G54
N48 G0 Z33
N50 G0 X135.4 Y55.5
N55 G0 G43 Z33 H1
N60 G0 Z20
N65 G1 Z18.6 F2286
N70 G18 G3 X134.8 Z18 I-0.6 K0
N75 G1 X134.5
N80 G17 G3 X134 Y55 I0 J-0.5
N85 G3 X136 Z17.5 I1 J0
N90 G3 X134 Z17 I-1 J0
N95 G3 X136 Z16.5 I1 J0
N100 G3 X134 Z16 I-1 J0
N105 G3 X136 Z15.5 I1 J0
N110 G3 X134 Z15 I-1 J0
N115 G3 X136 Z14.5 I1 J0
N120 G3 X134 Z14 I-1 J0
N125 G3 X136 Z13.5 I1 J0
N130 G3 X134 Z13 I-1 J0
N135 G3 X136 Z12.5 I1 J0
N140 G3 X134 Z12 I-1 J0
N145 G3 X136 Z11.5 I1 J0
N150 G3 X134 Z11 I-1 J0
N155 G3 X136 Z10.5 I1 J0
N160 G3 X134 Z10 I-1 J0
N165 G3 X136 Z9.5 I1 J0
N170 G3 X134 Z9 I-1 J0
N175 G3 X136 Z8.5 I1 J0
N180 G3 X134 Z8 I-1 J0
N185 G3 X136 Z7.5 I1 J0
N190 G3 X134 Z7 I-1 J0
N195 G3 X136 Z6.5 I1 J0
N200 G3 X134 Z6 I-1 J0
N205 G3 X136 Z5.5 I1 J0
N210 G3 X134 Z5 I-1 J0
N215 G3 X136 Z4.5 I1 J0
N220 G3 X134 Z4 I-1 J0
N225 G3 X136 Z3.5 I1 J0
N230 G3 X134 Z3 I-1 J0
N235 G3 X136 Z2.5 I1 J0
N240 G3 X134 Z2 I-1 J0
N245 G3 X136 Z1.5 I1 J0
N250 G3 X134 Z1 I-1 J0
N255 G3 X136 Z0.5 I1 J0
N260 G3 X134 Z0 I-1 J0
N265 G3 X136 I1 J0
N270 G3 X134 I-1 J0
N275 G3 X134.5 Y54.5 I0.5 J0
N280 G1 X134.8
N285 G18 G2 X135.4 Z0.6 I0 K0.6
N290 G0 Z33
N295 G17

(2D Pocket5)
N300 G0 X133.866 Y113.378
N305 G0 Z33
N310 G0 Z23
N315 G1 Z21.1 F2286
N320 S5000
N325 G1 X133.892 Y113.389 Z20.918 F333.3
N330 G1 X133.966 Y113.423 Z20.754
N335 G1 X134.081 Y113.48 Z20.622
N340 G1 X134.221 Y113.559 Z20.534
N345 G1 X134.373 Y113.657 Z20.5
N350 G3 X131.127 Y118.343 Z20.187 I-1.623 J2.343
N355 G3 X134.373 Y113.657 Z19.875 I1.623 J-2.343
N360 G3 X131.127 Y118.343 Z19.562 I-1.623 J2.343
N365 G3 X134.373 Y113.657 Z19.249 I1.623 J-2.343
N370 G3 X131.127 Y118.343 Z18.937 I-1.623 J2.343
N375 G3 X134.373 Y113.657 Z18.624 I1.623 J-2.343
N380 G3 X131.127 Y118.343 Z18.311 I-1.623 J2.343
N385 G3 X134.373 Y113.657 Z17.999 I1.623 J-2.343
N390 G3 X131.127 Y118.343 Z17.686 I-1.623 J2.343
N395 G3 X134.373 Y113.657 Z17.373 I1.623 J-2.343
N400 G3 X131.127 Y118.343 Z17.061 I-1.623 J2.343
N405 G3 X134.373 Y113.657 Z16.748 I1.623 J-2.343
N410 G3 X131.127 Y118.343 Z16.435 I-1.623 J2.343
N415 G3 X134.373 Y113.657 Z16.123 I1.623 J-2.343
N420 G3 X131.127 Y118.343 Z15.81 I-1.623 J2.343
N425 G3 X134.373 Y113.657 Z15.497 I1.623 J-2.343
N430 G3 X131.127 Y118.343 Z15.185 I-1.623 J2.343
N435 G3 X134.373 Y113.657 Z14.872 I1.623 J-2.343
N440 G3 X131.127 Y118.343 Z14.559 I-1.623 J2.343
N445 G3 X134.373 Y113.657 Z14.247 I1.623 J-2.343
N450 G3 X131.127 Y118.343 Z13.934 I-1.623 J2.343
N455 G3 X134.373 Y113.657 Z13.621 I1.623 J-2.343
N460 G3 X131.127 Y118.343 Z13.309 I-1.623 J2.343
N465 G3 X134.373 Y113.657 Z12.996 I1.623 J-2.343
N470 G3 X135.6 Y116 Z12.9 I-1.623 J2.343
N475 S18000
N480 G3 X134.4 I-0.6 J0 F2286
N485 G3 X141.3 I3.45 J0
N490 G3 X128.7 I-6.3 J0
N495 G3 X147 I9.15 J0
N500 G3 X123 I-12 J0
N505 G3 X147 I12 J0
N510 G1 X146.993 Y116.092 Z12.915
N515 G1 X146.972 Y116.182 Z12.929
N520 G1 X146.941 Y116.26 Z12.972
N525 G1 X146.899 Y116.333 Z13.015
N530 G1 X146.86 Y116.386 Z13.081
N535 G1 X146.814 Y116.434 Z13.147
N540 G1 X146.748 Y116.488 Z13.315
N545 G1 X146.724 Y116.505 Z13.5
N550 G0 Z33

(2D Adaptive1)
N555 S5000 M3
N560 G0 X82.752 Y39.839
N565 G0 Z33
N570 G0 Z23
N575 G0 Z20.55
N580 G3 X77.651 Y42.384 Z20.237 I-2.55 J1.272 F333.3
N585 G3 X82.752 Y39.839 Z19.925 I2.55 J-1.272
N590 G3 X77.651 Y42.384 Z19.612 I-2.55 J1.272
N595 G3 X82.752 Y39.839 Z19.299 I2.55 J-1.272
N600 G3 X77.651 Y42.384 Z18.987 I-2.55 J1.272
N605 G3 X82.752 Y39.839 Z18.674 I2.55 J-1.272
N610 G3 X77.651 Y42.384 Z18.361 I-2.55 J1.272
N615 G3 X82.752 Y39.839 Z18.049 I2.55 J-1.272
N620 G3 X77.651 Y42.384 Z17.736 I-2.55 J1.272
N625 G3 X82.752 Y39.839 Z17.423 I2.55 J-1.272
N630 G3 X77.651 Y42.384 Z17.111 I-2.55 J1.272
N635 G3 X82.752 Y39.839 Z16.798 I2.55 J-1.272
N640 G3 X77.651 Y42.384 Z16.485 I-2.55 J1.272
N645 G3 X82.752 Y39.839 Z16.173 I2.55 J-1.272
N650 G3 X77.651 Y42.384 Z15.86 I-2.55 J1.272
N655 G3 X82.752 Y39.839 Z15.547 I2.55 J-1.272
N660 G3 X77.651 Y42.384 Z15.235 I-2.55 J1.272
N665 G3 X82.752 Y39.839 Z14.922 I2.55 J-1.272
N670 G3 X77.651 Y42.384 Z14.609 I-2.55 J1.272
N675 G3 X82.752 Y39.839 Z14.297 I2.55 J-1.272
N680 G3 X77.651 Y42.384 Z13.984 I-2.55 J1.272
N685 G3 X82.752 Y39.839 Z13.671 I2.55 J-1.272
N690 G3 X77.651 Y42.384 Z13.359 I-2.55 J1.272
N695 G3 X82.752 Y39.839 Z13.046 I2.55 J-1.272
N700 G3 X83.051 Y41.111 Z13 I-2.55 J1.272
N705 G3 X77.351 I-2.85 J0
N710 G3 X83.051 I2.85 J0
N715 S18000
N720 G1 X83.055 Y41.333 F2286
N725 G1 X83.207 Y42.206
N730 G1 X83.258 Y42.347
N735 G1 X83.291 Y42.493
N740 G1 X83.31 Y42.642
N745 G1 X83.314 Y42.792
N750 G1 X83.306 Y42.946
N755 G1 X83.284 Y43.109
N760 G1 X83.246 Y43.281
N765 G1 X83.192 Y43.46
N770 G1 X83.119 Y43.644
N775 G1 X83.027 Y43.832
N780 G1 X82.915 Y44.02
N785 G1 X82.782 Y44.208
N790 G1 X82.628 Y44.392
N795 G1 X82.452 Y44.57
N800 G1 X82.256 Y44.74
N805 G1 X82.04 Y44.898
N810 G1 X81.804 Y45.044
N815 G1 X81.55 Y45.173
N820 G1 X81.279 Y45.285
N825 G1 X80.994 Y45.377
N830 G1 X80.695 Y45.447
N835 G1 X80.386 Y45.494
N840 G1 X80.068 Y45.516
N845 G1 X79.745 Y45.513
N850 G1 X79.418 Y45.483
N855 G1 X79.09 Y45.426
N860 G1 X78.764 Y45.343
N865 G1 X78.443 Y45.232
N870 G1 X78.129 Y45.095
N875 G1 X77.824 Y44.931
N880 G1 X77.531 Y44.743
N885 G1 X77.253 Y44.53
N890 G1 X76.991 Y44.294
N895 G1 X76.748 Y44.037
N900 G1 X76.525 Y43.759
N905 G1 X76.492 Y43.71
N910 G1 X76.359 Y43.466
N915 G1 X76.278 Y43.2
N920 G1 X76.25 Y42.924
N925 G1 Y41.111
N930 G1 X76.273 Y40.709
N935 G1 X76.341 Y40.307
N940 G1 X76.455 Y39.904
N945 G1 X76.577 Y39.589
N950 G1 X76.615 Y39.502
N955 G1 X76.845 Y39.1
N960 G1 X76.98 Y38.889
N965 G1 X77.133 Y38.697
N970 G1 X77.382 Y38.426
N975 G1 X77.524 Y38.295
N980 G1 X77.785 Y38.094
N985 G1 X78.086 Y37.893
N990 G1 X78.188 Y37.837
N995 G1 X78.591 Y37.643
N1000 G1 X78.993 Y37.504
N1005 G1 X79.048 Y37.49
N1010 G1 X79.396 Y37.413
N1015 G1 X79.799 Y37.367
N1020 G1 X80.201
N1025 G1 X80.604 Y37.413
N1030 G1 X80.952 Y37.49
N1035 G1 X81.007 Y37.504
N1040 G1 X81.409 Y37.643
N1045 G1 X81.812 Y37.837
N1050 G1 X81.914 Y37.893
N1055 G1 X82.215 Y38.094
N1060 G1 X82.476 Y38.295
N1065 G1 X82.618 Y38.426
N1070 G1 X82.867 Y38.697
N1075 G1 X83.02 Y38.889
N1080 G1 X83.155 Y39.1
N1085 G1 X83.385 Y39.502
N1090 G1 X83.423 Y39.589
N1095 G1 X83.545 Y39.904
N1100 G1 X83.659 Y40.307
N1105 G1 X83.727 Y40.709
N1110 G1 X83.75 Y41.111
N1115 G1 Y44.049
N1120 G1 X83.741 Y44.222
N1125 G1 X83.717 Y44.404
N1130 G1 X83.678 Y44.59
N1135 G1 X83.618 Y44.788
N1140 G1 X83.537 Y44.997
N1145 G1 X83.436 Y45.205
N1150 G1 X83.31 Y45.418
N1155 G1 X83.157 Y45.637
N1160 G1 X82.98 Y45.85
N1165 G1 X82.778 Y46.057
N1170 G1 X82.546 Y46.26
N1175 G1 X82.284 Y46.453
N1180 G1 X81.999 Y46.631
N1185 G1 X81.692 Y46.789
N1190 G1 X81.357 Y46.929
N1195 G1 X80.997 Y47.047
N1200 G1 X80.615 Y47.138
N1205 G1 X80.216 Y47.201
N1210 G1 X79.805 Y47.231
N1215 G1 X79.384 Y47.229
N1220 G1 X78.954 Y47.192
N1225 G1 X78.518 Y47.119
N1230 G1 X78.081 Y47.008
N1235 G1 X77.645 Y46.861
N1240 G1 X77.217 Y46.676
N1245 G1 X76.994 Y46.557
N1250 G1 X76.743 Y46.388
N1255 G1 X76.535 Y46.168
N1260 G1 X76.379 Y45.908
N1265 G1 X76.283 Y45.622
N1270 G1 X76.25 Y45.321
N1275 G1 Y42.924
N1280 G3 X76.955 Y42.354 I0.6 J0.021
N1285 G1 X83.256 Y43.48
N1290 G3 X83.75 Y44.049 I-0.106 J0.591
N1295 G1 Y45.758
N1300 G1 X83.74 Y45.954
N1305 G1 X83.72 Y46.111
N1310 G1 X83.682 Y46.289
N1315 G1 X83.627 Y46.472
N1320 G1 X83.55 Y46.668
N1325 G1 X83.45 Y46.875
N1330 G1 X83.328 Y47.083
N1335 G1 X83.172 Y47.304
N1340 G1 X82.993 Y47.519
N1345 G1 X82.782 Y47.736
N1350 G1 X82.532 Y47.954
N1355 G1 X82.258 Y48.157
N1360 G1 X81.949 Y48.349
N1365 G1 X81.599 Y48.53
N1370 G1 X81.218 Y48.689
N1375 G1 X80.814 Y48.821
N1380 G1 X80.377 Y48.926
N1385 G1 X79.907 Y48.999
N1390 G1 X79.41 Y49.036
N1395 G1 X78.895 Y49.033
N1400 G1 X78.391 Y48.99
N1405 G1 X77.924 Y48.911
N1410 G1 X77.527 Y48.811
N1415 G1 X77.152 Y48.684
N1420 G1 X77.095 Y48.66
N1425 G1 X76.814 Y48.497
N1430 G1 X76.577 Y48.274
N1435 G1 X76.399 Y48.003
N1440 G1 X76.288 Y47.697
N1445 G1 X76.25 Y47.374
N1450 G1 Y45.321
N1455 G3 X76.891 Y44.743 I0.6 J0.021
N1460 G1 X83.192 Y45.181
N1465 G3 X83.75 Y45.758 I-0.042 J0.599
N1470 G1 Y47.467
N1475 G1 X83.741 Y47.639
N1480 G1 X83.721 Y47.798
N1485 G1 X83.682 Y47.98
N1490 G1 X83.626 Y48.165
N1495 G1 X83.546 Y48.371
N1500 G1 X83.445 Y48.58
N1505 G1 X83.314 Y48.802
N1510 G1 X83.153 Y49.03
N1515 G1 X82.966 Y49.256
N1520 G1 X82.735 Y49.493
N1525 G1 X82.479 Y49.717
N1530 G1 X82.179 Y49.938
N1535 G1 X81.832 Y50.154
N1540 G1 X81.459 Y50.347
N1545 G1 X81.04 Y50.522
N1550 G1 X80.575 Y50.674
N1555 G1 X80.079 Y50.792
N1560 G1 X79.568 Y50.872
N1565 G1 X79.045 Y50.911
N1570 G1 X78.568 Y50.909
N1575 G1 X78.12 Y50.87
N1580 G1 X77.743 Y50.807
N1585 G1 X77.377 Y50.714
N1590 G1 X77.2 Y50.654
N1595 G1 X76.937 Y50.534
N1600 G1 X76.704 Y50.361
N1605 G1 X76.512 Y50.144
N1610 G1 X76.369 Y49.893
N1615 G1 X76.28 Y49.617
N1620 G1 X76.25 Y49.329
N1625 G1 Y47.374
N1630 G3 X76.858 Y46.795 I0.6 J0.021
N1635 G1 X83.159 Y46.888
N1640 G3 X83.75 Y47.467 I-0.009 J0.6
N1645 G1 Y49.158
N1650 G1 X83.74 Y49.366
N1655 G1 X83.718 Y49.532
N1660 G1 X83.678 Y49.718
N1665 G1 X83.62 Y49.913
N1670 G1 X83.536 Y50.127
N1675 G1 X83.431 Y50.344
N1680 G1 X83.291 Y50.581
N1685 G1 X83.128 Y50.813
N1690 G1 X82.922 Y51.062
N1695 G1 X82.685 Y51.305
N1700 G1 X82.406 Y51.548
N1705 G1 X82.077 Y51.792
N1710 G1 X81.72 Y52.014
N1715 G1 X81.314 Y52.223
N1720 G1 X80.866 Y52.41
N1725 G1 X80.386 Y52.567
N1730 G1 X79.891 Y52.686
N1735 G1 X79.383 Y52.765
N1740 G1 X78.899 Y52.801
N1745 G1 X78.438 Y52.799
N1750 G1 X78.049 Y52.765
N1755 G1 X77.665 Y52.701
N1760 G1 X77.339 Y52.618
N1765 G1 X77.2 Y52.571
N1770 G1 X76.937 Y52.45
N1775 G1 X76.704 Y52.278
N1780 G1 X76.512 Y52.061
N1785 G1 X76.369 Y51.809
N1790 G1 X76.28 Y51.534
N1795 G1 X76.25 Y51.246
N1800 G1 Y49.329
N1805 G3 X76.833 Y48.75 I0.6 J0.021
N1810 G1 X83.134 Y48.579
N1815 G3 X83.75 Y49.158 I0.016 J0.6
N1820 G1 Y50.989
N1825 G1 X83.742 Y51.141
N1830 G1 X83.719 Y51.321
N1835 G1 X83.679 Y51.507
N1840 G1 X83.616 Y51.716
N1845 G1 X83.533 Y51.931
N1850 G1 X83.42 Y52.164
N1855 G1 X83.278 Y52.405
N1860 G1 X83.104 Y52.653
N1865 G1 X82.888 Y52.913
N1870 G1 X82.644 Y53.163
N1875 G1 X82.348 Y53.421
N1880 G1 X82.014 Y53.668
N1885 G1 X81.644 Y53.898
N1890 G1 X81.228 Y54.113
N1895 G1 X80.773 Y54.303
N1900 G1 X80.296 Y54.459
N1905 G1 X79.802 Y54.577
N1910 G1 X79.302 Y54.655
N1915 G1 X78.838 Y54.69
N1920 G1 X78.39 Y54.688
N1925 G1 X78.013 Y54.655
N1930 G1 X77.638 Y54.592
N1935 G1 X77.318 Y54.511
N1940 G1 X77.2 Y54.471
N1945 G1 X76.937 Y54.35
N1950 G1 X76.704 Y54.178
N1955 G1 X76.512 Y53.961
N1960 G1 X76.369 Y53.71
N1965 G1 X76.28 Y53.434
N1970 G1 X76.25 Y53.146
N1975 G1 Y51.246
N1980 G3 X76.825 Y50.667 I0.6 J0.021
N1985 G1 X83.126 Y50.41
N1990 G3 X83.75 Y50.989 I0.024 J0.599
N1995 G1 Y52.779
N2000 G1 X83.74 Y52.973
N2005 G1 X83.716 Y53.158
N2010 G1 X83.676 Y53.347
N2015 G1 X83.611 Y53.563
N2020 G1 X83.526 Y53.78
N2025 G1 X83.409 Y54.022
N2030 G1 X83.267 Y54.263
N2035 G1 X83.086 Y54.521
N2040 G1 X82.869 Y54.782
N2045 G1 X82.618 Y55.039
N2050 G1 X82.315 Y55.304
N2055 G1 X81.98 Y55.551
N2060 G1 X81.604 Y55.786
N2065 G1 X81.184 Y56.002
N2070 G1 X80.728 Y56.193
N2075 G1 X80.253 Y56.348
N2080 G1 X79.762 Y56.466
N2085 G1 X79.265 Y56.543
N2090 G1 X78.81 Y56.577
N2095 G1 X78.368 Y56.575
N2100 G1 X77.996 Y56.543
N2105 G1 X77.626 Y56.48
N2110 G1 X77.308 Y56.4
N2115 G1 X77.2 Y56.364
N2120 G1 X76.937 Y56.243
N2125 G1 X76.704 Y56.07
N2130 G1 X76.512 Y55.854
N2135 G1 X76.369 Y55.602
N2140 G1 X76.28 Y55.326
N2145 G1 X76.25 Y55.038
N2150 G1 Y53.146
N2155 G3 X76.815 Y52.568 I0.6 J0.021
N2160 G1 X83.115 Y52.201
N2165 G3 X83.75 Y52.779 I0.035 J0.599
N2170 G1 Y54.609
N2175 G1 X83.739 Y54.832
N2180 G1 X83.714 Y55.019
N2185 G1 X83.673 Y55.211
N2190 G1 X83.608 Y55.429
N2195 G1 X83.522 Y55.649
N2200 G1 X83.403 Y55.894
N2205 G1 X83.26 Y56.137
N2210 G1 X83.076 Y56.399
N2215 G1 X82.86 Y56.66
N2220 G1 X82.605 Y56.921
N2225 G1 X82.299 Y57.188
N2230 G1 X81.964 Y57.436
N2235 G1 X81.584 Y57.672
N2240 G1 X81.163 Y57.889
N2245 G1 X80.707 Y58.08
N2250 G1 X80.233 Y58.235
N2255 G1 X79.743 Y58.352
N2260 G1 X79.248 Y58.43
N2265 G1 X78.796 Y58.463
N2270 G1 X78.358 Y58.461
N2275 G1 X77.988 Y58.429
N2280 G1 X77.62 Y58.367
N2285 G1 X77.303 Y58.287
N2290 G1 X77.2 Y58.252
N2295 G1 X76.937 Y58.131
N2300 G1 X76.704 Y57.959
N2305 G1 X76.512 Y57.742
N2310 G1 X76.369 Y57.491
N2315 G1 X76.28 Y57.215
N2320 G1 X76.25 Y56.927
N2325 G1 Y55.038
N2330 G3 X76.809 Y54.46 I0.6 J0.021
N2335 G1 X83.11 Y54.032
N2340 G3 X83.75 Y54.609 I0.041 J0.599
N2345 G1 Y56.522
N2350 G1 X83.741 Y56.703
N2355 G1 X83.716 Y56.891
N2360 G1 X83.675 Y57.084
N2365 G1 X83.609 Y57.303
N2370 G1 X83.523 Y57.525
N2375 G1 X83.403 Y57.772
N2380 G1 X83.26 Y58.016
N2385 G1 X83.074 Y58.28
N2390 G1 X82.857 Y58.541
N2395 G1 X82.6 Y58.804
N2400 G1 X82.294 Y59.072
N2405 G1 X81.957 Y59.321
N2410 G1 X81.576 Y59.558
N2415 G1 X81.154 Y59.775
N2420 G1 X80.698 Y59.966
N2425 G1 X80.224 Y60.121
N2430 G1 X79.734 Y60.239
N2435 G1 X79.24 Y60.316
N2440 G1 X78.79 Y60.349
N2445 G1 X78.354 Y60.347
N2450 G1 X77.984 Y60.315
N2455 G1 X77.617 Y60.253
N2460 G1 X77.301 Y60.174
N2465 G1 X77.2 Y60.139
N2470 G1 X76.937 Y60.018
N2475 G1 X76.704 Y59.846
N2480 G1 X76.512 Y59.629
N2485 G1 X76.369 Y59.377
N2490 G1 X76.28 Y59.102
N2495 G1 X76.25 Y58.814
N2500 G1 Y56.927
N2505 G3 X76.811 Y56.349 I0.6 J0.021
N2510 G1 X83.112 Y55.944
N2515 G3 X83.75 Y56.522 I0.038 J0.599
N2520 G1 Y58.411
N2525 G1 X83.741 Y58.583
N2530 G1 X83.717 Y58.771
N2535 G1 X83.675 Y58.964
N2540 G1 X83.609 Y59.184
N2545 G1 X83.523 Y59.406
N2550 G1 X83.403 Y59.654
N2555 G1 X83.259 Y59.898
N2560 G1 X83.072 Y60.164
N2565 G1 X82.856 Y60.425
N2570 G1 X82.598 Y60.689
N2575 G1 X82.291 Y60.957
N2580 G1 X81.954 Y61.206
N2585 G1 X81.573 Y61.443
N2590 G1 X81.15 Y61.661
N2595 G1 X80.694 Y61.852
N2600 G1 X80.22 Y62.007
N2605 G1 X79.73 Y62.124
N2610 G1 X79.237 Y62.201
N2615 G1 X78.788 Y62.235
N2620 G1 X78.352 Y62.232
N2625 G1 X77.983 Y62.201
N2630 G1 X77.616 Y62.139
N2635 G1 X77.3 Y62.06
N2640 G1 X77.2 Y62.026
N2645 G1 X76.937 Y61.905
N2650 G1 X76.704 Y61.732
N2655 G1 X76.512 Y61.515
N2660 G1 X76.369 Y61.264
N2665 G1 X76.28 Y60.988
N2670 G1 X76.25 Y60.7
N2675 G1 Y58.814
N2680 G3 X76.811 Y58.236 I0.6 J0.021
N2685 G1 X83.112 Y57.834
N2690 G3 X83.75 Y58.411 I0.038 J0.599
N2695 G1 Y60.242
N2700 G1 X83.739 Y60.468
N2705 G1 X83.714 Y60.656
N2710 G1 X83.673 Y60.849
N2715 G1 X83.607 Y61.069
N2720 G1 X83.52 Y61.291
N2725 G1 X83.4 Y61.539
N2730 G1 X83.256 Y61.784
N2735 G1 X83.069 Y62.049
N2740 G1 X82.853 Y62.31
N2745 G1 X82.595 Y62.575
N2750 G1 X82.288 Y62.843
N2755 G1 X81.951 Y63.092
N2760 G1 X81.57 Y63.329
N2765 G1 X81.147 Y63.547
N2770 G1 X80.691 Y63.738
N2775 G1 X80.217 Y63.893
N2780 G1 X79.728 Y64.01
N2785 G1 X79.234 Y64.087
N2790 G1 X78.786 Y64.12
N2795 G1 X78.35 Y64.118
N2800 G1 X77.982 Y64.086
N2805 G1 X77.615 Y64.025
N2810 G1 X77.3 Y63.945
N2815 G1 X77.2 Y63.911
N2820 G1 X76.937 Y63.79
N2825 G1 X76.704 Y63.618
N2830 G1 X76.512 Y63.401
N2835 G1 X76.369 Y63.149
N2840 G1 X76.28 Y62.874
N2845 G1 X76.25 Y62.586
N2850 G1 Y60.7
N2855 G3 X76.806 Y60.122 I0.6 J0.021
N2860 G1 X83.107 Y59.665
N2865 G3 X83.75 Y60.242 I0.043 J0.598
N2870 G1 Y62.154
N2875 G1 X83.74 Y62.35
N2880 G1 X83.716 Y62.538
N2885 G1 X83.674 Y62.732
N2890 G1 X83.608 Y62.952
N2895 G1 X83.521 Y63.175
N2900 G1 X83.401 Y63.423
N2905 G1 X83.257 Y63.668
N2910 G1 X83.07 Y63.934
N2915 G1 X82.853 Y64.195
N2920 G1 X82.595 Y64.459
N2925 G1 X82.288 Y64.728
N2930 G1 X81.951 Y64.977
N2935 G1 X81.569 Y65.215
N2940 G1 X81.147 Y65.432
N2945 G1 X80.69 Y65.623
N2950 G1 X80.216 Y65.778
N2955 G1 X79.727 Y65.895
N2960 G1 X79.234 Y65.972
N2965 G1 X78.785 Y66.006
N2970 G1 X78.35 Y66.003
N2975 G1 X77.981 Y65.972
N2980 G1 X77.615 Y65.91
N2985 G1 X77.299 Y65.831
N2990 G1 X77.2 Y65.797
N2995 G1 X76.937 Y65.676
N3000 G1 X76.704 Y65.503
N3005 G1 X76.512 Y65.287
N3010 G1 X76.369 Y65.035
N3015 G1 X76.28 Y64.759
N3020 G1 X76.25 Y64.471
N3025 G1 Y62.586
N3030 G3 X76.809 Y62.008 I0.6 J0.021
N3035 G1 X83.109 Y61.576
N3040 G3 X83.75 Y62.154 I0.041 J0.599
N3045 G1 Y64.044
N3050 G1 X83.74 Y64.235
N3055 G1 X83.716 Y64.423
N3060 G1 X83.674 Y64.617
N3065 G1 X83.608 Y64.837
N3070 G1 X83.522 Y65.06
N3075 G1 X83.401 Y65.308
N3080 G1 X83.257 Y65.553
N3085 G1 X83.07 Y65.819
N3090 G1 X82.854 Y66.08
N3095 G1 X82.595 Y66.345
N3100 G1 X82.288 Y66.613
N3105 G1 X81.951 Y66.862
N3110 G1 X81.569 Y67.1
N3115 G1 X81.146 Y67.318
N3120 G1 X80.69 Y67.509
N3125 G1 X80.216 Y67.664
N3130 G1 X79.727 Y67.781
N3135 G1 X79.233 Y67.858
N3140 G1 X78.785 Y67.891
N3145 G1 X78.35 Y67.889
N3150 G1 X77.981 Y67.857
N3155 G1 X77.615 Y67.796
N3160 G1 X77.299 Y67.716
N3165 G1 X77.2 Y67.682
N3170 G1 X76.937 Y67.561
N3175 G1 X76.704 Y67.389
N3180 G1 X76.512 Y67.172
N3185 G1 X76.369 Y66.921
N3190 G1 X76.28 Y66.645
N3195 G1 X76.25 Y66.357
N3200 G1 Y64.471
N3205 G3 X76.809 Y63.893 I0.6 J0.021
N3210 G1 X83.11 Y63.466
N3215 G3 X83.75 Y64.044 I0.041 J0.599
N3220 G1 Y65.875
N3225 G1 X83.738 Y66.122
N3230 G1 X83.713 Y66.31
N3235 G1 X83.671 Y66.504
N3240 G1 X83.606 Y66.724
N3245 G1 X83.519 Y66.947
N3250 G1 X83.399 Y67.195
N3255 G1 X83.255 Y67.439
N3260 G1 X83.068 Y67.705
N3265 G1 X82.851 Y67.966
N3270 G1 X82.593 Y68.231
N3275 G1 X82.286 Y68.499
N3280 G1 X81.949 Y68.748
N3285 G1 X81.567 Y68.986
N3290 G1 X81.145 Y69.203
N3295 G1 X80.689 Y69.394
N3300 G1 X80.215 Y69.549
N3305 G1 X79.726 Y69.666
N3310 G1 X79.233 Y69.743
N3315 G1 X78.785 Y69.777
N3320 G1 X78.349 Y69.774
N3325 G1 X77.981 Y69.742
N3330 G1 X77.615 Y69.681
N3335 G1 X77.299 Y69.601
N3340 G1 X77.2 Y69.568
N3345 G1 X76.937 Y69.447
N3350 G1 X76.704 Y69.274
N3355 G1 X76.512 Y69.057
N3360 G1 X76.369 Y68.806
N3365 G1 X76.28 Y68.53
N3370 G1 X76.25 Y68.242
N3375 G1 Y66.357
N3380 G3 X76.804 Y65.779 I0.6 J0.021
N3385 G1 X83.105 Y65.297
N3390 G3 X83.75 Y65.875 I0.046 J0.598
N3395 G1 Y67.886
N3400 G1 X83.743 Y68.036
N3405 G1 X83.714 Y68.229
N3410 G1 X83.669 Y68.426
N3415 G1 X83.597 Y68.65
N3420 G1 X83.505 Y68.875
N3425 G1 X83.379 Y69.126
N3430 G1 X83.227 Y69.374
N3435 G1 X83.035 Y69.639
N3440 G1 X82.805 Y69.907
N3445 G1 X82.542 Y70.167
N3450 G1 X82.227 Y70.433
N3455 G1 X81.874 Y70.686
N3460 G1 X81.487 Y70.917
N3465 G1 X81.061 Y71.129
N3470 G1 X80.6 Y71.312
N3475 G1 X80.122 Y71.46
N3480 G1 X79.63 Y71.569
N3485 G1 X79.135 Y71.638
N3490 G1 X78.694 Y71.664
N3495 G1 X78.271 Y71.655
N3500 G1 X77.902 Y71.617
N3505 G1 X77.549 Y71.552
N3510 G1 X77.231 Y71.466
N3515 G1 X77.179 Y71.447
N3520 G1 X76.921 Y71.324
N3525 G1 X76.693 Y71.151
N3530 G1 X76.505 Y70.935
N3535 G1 X76.366 Y70.686
N3540 G1 X76.279 Y70.413
N3545 G1 X76.25 Y70.129
N3550 G1 Y68.242
N3555 G3 X76.816 Y67.664 I0.6 J0.021
N3560 G1 X83.117 Y67.308
N3565 G3 X83.75 Y67.886 I0.034 J0.599
N3570 G1 Y69.677
N3575 G1 X83.739 Y69.895
N3580 G1 X83.715 Y70.077
N3585 G1 X83.672 Y70.278
N3590 G1 X83.608 Y70.491
N3595 G1 X83.519 Y70.721
N3600 G1 X83.402 Y70.962
N3605 G1 X83.255 Y71.211
N3610 G1 X83.069 Y71.477
N3615 G1 X82.855 Y71.734
N3620 G1 X82.591 Y72.005
N3625 G1 X82.291 Y72.266
N3630 G1 X81.954 Y72.516
N3635 G1 X81.566 Y72.757
N3640 G1 X81.141 Y72.977
N3645 G1 X80.688 Y73.166
N3650 G1 X80.214 Y73.321
N3655 G1 X79.727 Y73.438
N3660 G1 X79.232 Y73.515
N3665 G1 X78.781 Y73.549
N3670 G1 X78.348 Y73.546
N3675 G1 X77.981 Y73.514
N3680 G1 X77.614 Y73.453
N3685 G1 X77.299 Y73.373
N3690 G1 X77.2 Y73.34
N3695 G1 X76.937 Y73.219
N3700 G1 X76.704 Y73.046
N3705 G1 X76.512 Y72.83
N3710 G1 X76.369 Y72.578
N3715 G1 X76.28 Y72.302
N3720 G1 X76.25 Y72.014
N3725 G1 Y70.129
N3730 G3 X76.807 Y69.552 I0.6 J0.021
N3735 G1 X83.107 Y69.099
N3740 G3 X83.75 Y69.677 I0.043 J0.598
N3745 G1 Y71.607
N3750 G1 X83.742 Y71.775
N3755 G1 X83.717 Y71.964
N3760 G1 X83.675 Y72.157
N3765 G1 X83.609 Y72.378
N3770 G1 X83.523 Y72.601
N3775 G1 X83.402 Y72.849
N3780 G1 X83.258 Y73.094
N3785 G1 X83.07 Y73.361
N3790 G1 X82.854 Y73.622
N3795 G1 X82.595 Y73.887
N3800 G1 X82.288 Y74.155
N3805 G1 X81.951 Y74.404
N3810 G1 X81.568 Y74.642
N3815 G1 X81.145 Y74.861
N3820 G1 X80.689 Y75.051
N3825 G1 X80.215 Y75.206
N3830 G1 X79.726 Y75.324
N3835 G1 X79.232 Y75.401
N3840 G1 X78.784 Y75.434
N3845 G1 X78.349 Y75.432
N3850 G1 X77.981 Y75.4
N3855 G1 X77.615 Y75.338
N3860 G1 X77.299 Y75.259
N3865 G1 X77.2 Y75.225
N3870 G1 X76.937 Y75.104
N3875 G1 X76.704 Y74.932
N3880 G1 X76.512 Y74.715
N3885 G1 X76.369 Y74.463
N3890 G1 X76.28 Y74.188
N3895 G1 X76.25 Y73.899
N3900 G1 Y72.014
N3905 G3 X76.811 Y71.436 I0.6 J0.021
N3910 G1 X83.112 Y71.029
N3915 G3 X83.75 Y71.607 I0.039 J0.599
N3920 G1 Y73.519
N3925 G1 X83.743 Y73.669
N3930 G1 X83.717 Y73.858
N3935 G1 X83.674 Y74.053
N3940 G1 X83.607 Y74.274
N3945 G1 X83.519 Y74.498
N3950 G1 X83.397 Y74.747
N3955 G1 X83.251 Y74.992
N3960 G1 X83.063 Y75.258
N3965 G1 X82.843 Y75.521
N3970 G1 X82.583 Y75.785
N3975 G1 X82.274 Y76.053
N3980 G1 X81.933 Y76.303
N3985 G1 X81.55 Y76.539
N3990 G1 X81.126 Y76.756
N3995 G1 X80.669 Y76.945
N4000 G1 X80.193 Y77.098
N4005 G1 X79.703 Y77.213
N4010 G1 X79.21 Y77.289
N4015 G1 X78.763 Y77.32
N4020 G1 X78.33 Y77.316
N4025 G1 X77.962 Y77.283
N4030 G1 X77.599 Y77.22
N4035 G1 X77.283 Y77.139
N4040 G1 X77.195 Y77.109
N4045 G1 X76.933 Y76.988
N4050 G1 X76.702 Y76.815
N4055 G1 X76.51 Y76.598
N4060 G1 X76.368 Y76.347
N4065 G1 X76.28 Y76.072
N4070 G1 X76.25 Y75.785
N4075 G1 Y73.899
N4080 G3 X76.813 Y73.321 I0.6 J0.021
N4085 G1 X83.114 Y72.941
N4090 G3 X83.75 Y73.519 I0.036 J0.599
N4095 G1 Y75.309
N4100 G1 X83.738 Y75.551
N4105 G1 X83.713 Y75.738
N4110 G1 X83.672 Y75.933
N4115 G1 X83.606 Y76.152
N4120 G1 X83.519 Y76.375
N4125 G1 X83.399 Y76.623
N4130 G1 X83.255 Y76.867
N4135 G1 X83.068 Y77.134
N4140 G1 X82.853 Y77.393
N4145 G1 X82.593 Y77.659
N4150 G1 X82.286 Y77.927
N4155 G1 X81.951 Y78.175
N4160 G1 X81.567 Y78.414
N4165 G1 X81.144 Y78.632
N4170 G1 X80.688 Y78.823
N4175 G1 X80.214 Y78.978
N4180 G1 X79.726 Y79.095
N4185 G1 X79.232 Y79.172
N4190 G1 X78.784 Y79.205
N4195 G1 X78.349 Y79.203
N4200 G1 X77.981 Y79.171
N4205 G1 X77.615 Y79.109
N4210 G1 X77.299 Y79.03
N4215 G1 X77.2 Y78.996
N4220 G1 X76.937 Y78.875
N4225 G1 X76.704 Y78.703
N4230 G1 X76.512 Y78.486
N4235 G1 X76.369 Y78.234
N4240 G1 X76.28 Y77.959
N4245 G1 X76.25 Y77.671
N4250 G1 Y75.785
N4255 G3 X76.804 Y75.208 I0.6 J0.021
N4260 G1 X83.105 Y74.732
N4265 G3 X83.75 Y75.309 I0.045 J0.598
N4270 G1 Y77.321
N4275 G1 X83.743 Y77.471
N4280 G1 X83.713 Y77.664
N4285 G1 X83.667 Y77.861
N4290 G1 X83.595 Y78.086
N4295 G1 X83.502 Y78.312
N4300 G1 X83.374 Y78.563
N4305 G1 X83.221 Y78.812
N4310 G1 X83.028 Y79.076
N4315 G1 X82.796 Y79.345
N4320 G1 X82.532 Y79.606
N4325 G1 X82.216 Y79.871
N4330 G1 X81.859 Y80.124
N4335 G1 X81.472 Y80.355
N4340 G1 X81.044 Y80.565
N4345 G1 X80.584 Y80.747
N4350 G1 X80.105 Y80.893
N4355 G1 X79.612 Y81.001
N4360 G1 X79.118 Y81.069
N4365 G1 X78.677 Y81.093
N4370 G1 X78.257 Y81.083
N4375 G1 X77.887 Y81.043
N4380 G1 X77.537 Y80.978
N4385 G1 X77.219 Y80.891
N4390 G1 X77.175 Y80.875
N4395 G1 X76.918 Y80.751
N4400 G1 X76.691 Y80.578
N4405 G1 X76.504 Y80.363
N4410 G1 X76.365 Y80.114
N4415 G1 X76.279 Y79.842
N4420 G1 X76.25 Y79.558
N4425 G1 Y77.671
N4430 G3 X76.816 Y77.092 I0.6 J0.021
N4435 G1 X83.117 Y76.743
N4440 G3 X83.75 Y77.321 I0.033 J0.599
N4445 G1 Y79.151
N4450 G1 X83.741 Y79.323
N4455 G1 X83.718 Y79.503
N4460 G1 X83.674 Y79.707
N4465 G1 X83.611 Y79.918
N4470 G1 X83.521 Y80.149
N4475 G1 X83.405 Y80.389
N4480 G1 X83.257 Y80.64
N4485 G1 X83.071 Y80.904
N4490 G1 X82.857 Y81.162
N4495 G1 X82.592 Y81.434
N4500 G1 X82.294 Y81.694
N4505 G1 X81.956 Y81.944
N4510 G1 X81.567 Y82.186
N4515 G1 X81.141 Y82.406
N4520 G1 X80.689 Y82.595
N4525 G1 X80.216 Y82.749
N4530 G1 X79.728 Y82.866
N4535 G1 X79.232 Y82.944
N4540 G1 X78.78 Y82.977
N4545 G1 X78.348 Y82.975
N4550 G1 X77.98 Y82.943
N4555 G1 X77.614 Y82.882
N4560 G1 X77.299 Y82.802
N4565 G1 X77.2 Y82.769
N4570 G1 X76.937 Y82.648
N4575 G1 X76.704 Y82.475
N4580 G1 X76.512 Y82.259
N4585 G1 X76.369 Y82.007
N4590 G1 X76.28 Y81.731
N4595 G1 X76.25 Y81.443
N4600 G1 Y79.558
N4605 G3 X76.811 Y78.98 I0.6 J0.021
N4610 G1 X83.112 Y78.574
N4615 G3 X83.75 Y79.151 I0.039 J0.599
N4620 G1 Y81.064
N4625 G1 X83.743 Y81.213
N4630 G1 X83.717 Y81.403
N4635 G1 X83.674 Y81.597
N4640 G1 X83.607 Y81.819
N4645 G1 X83.519 Y82.042
N4650 G1 X83.396 Y82.292
N4655 G1 X83.25 Y82.538
N4660 G1 X83.061 Y82.804
N4665 G1 X82.841 Y83.067
N4670 G1 X82.581 Y83.33
N4675 G1 X82.271 Y83.598
N4680 G1 X81.93 Y83.848
N4685 G1 X81.547 Y84.084
N4690 G1 X81.122 Y84.301
N4695 G1 X80.664 Y84.49
N4700 G1 X80.189 Y84.643
N4705 G1 X79.698 Y84.758
N4710 G1 X79.205 Y84.832
N4715 G1 X78.759 Y84.864
N4720 G1 X78.326 Y84.859
N4725 G1 X77.958 Y84.826
N4730 G1 X77.596 Y84.763
N4735 G1 X77.28 Y84.682
N4740 G1 X77.194 Y84.652
N4745 G1 X76.932 Y84.531
N4750 G1 X76.701 Y84.358
N4755 G1 X76.51 Y84.142
N4760 G1 X76.368 Y83.891
N4765 G1 X76.28 Y83.616
N4770 G1 X76.25 Y83.329
N4775 G1 Y81.443
N4780 G3 X76.814 Y80.865 I0.6 J0.021
N4785 G1 X83.114 Y80.486
N4790 G3 X83.75 Y81.064 I0.036 J0.599
N4795 G1 Y82.953
N4800 G1 X83.743 Y83.103
N4805 G1 X83.716 Y83.293
N4810 G1 X83.673 Y83.489
N4815 G1 X83.606 Y83.71
N4820 G1 X83.517 Y83.934
N4825 G1 X83.394 Y84.183
N4830 G1 X83.247 Y84.428
N4835 G1 X83.057 Y84.696
N4840 G1 X82.838 Y84.956
N4845 G1 X82.576 Y85.222
N4850 G1 X82.265 Y85.489
N4855 G1 X81.925 Y85.738
N4860 G1 X81.539 Y85.974
N4865 G1 X81.114 Y86.191
N4870 G1 X80.655 Y86.379
N4875 G1 X80.179 Y86.531
N4880 G1 X79.689 Y86.645
N4885 G1 X79.195 Y86.719
N4890 G1 X78.75 Y86.75
N4895 G1 X78.319 Y86.745
N4900 G1 X77.952 Y86.711
N4905 G1 X77.589 Y86.647
N4910 G1 X77.274 Y86.566
N4915 G1 X77.192 Y86.538
N4920 G1 X76.931 Y86.416
N4925 G1 X76.7 Y86.243
N4930 G1 X76.51 Y86.027
N4935 G1 X76.367 Y85.776
N4940 G1 X76.28 Y85.501
N4945 G1 X76.25 Y85.215
N4950 G1 Y83.329
N4955 G3 X76.814 Y82.751 I0.6 J0.021
N4960 G1 X83.115 Y82.375
N4965 G3 X83.75 Y82.953 I0.036 J0.599
N4970 G1 Y84.784
N4975 G1 X83.74 Y84.979
N4980 G1 X83.716 Y85.165
N4985 G1 X83.674 Y85.361
N4990 G1 X83.609 Y85.579
N4995 G1 X83.521 Y85.804
N5000 G1 X83.402 Y86.05
N5005 G1 X83.257 Y86.296
N5010 G1 X83.069 Y86.563
N5015 G1 X82.855 Y86.821
N5020 G1 X82.594 Y87.089
N5025 G1 X82.288 Y87.356
N5030 G1 X81.953 Y87.604
N5035 G1 X81.568 Y87.843
N5040 G1 X81.144 Y88.062
N5045 G1 X80.688 Y88.252
N5050 G1 X80.214 Y88.407
N5055 G1 X79.726 Y88.524
N5060 G1 X79.232 Y88.601
N5065 G1 X78.784 Y88.635
N5070 G1 X78.349 Y88.632
N5075 G1 X77.981 Y88.601
N5080 G1 X77.615 Y88.539
N5085 G1 X77.3 Y88.46
N5090 G1 X77.2 Y88.426
N5095 G1 X76.937 Y88.305
N5100 G1 X76.704 Y88.132
N5105 G1 X76.512 Y87.916
N5110 G1 X76.369 Y87.664
N5115 G1 X76.28 Y87.388
N5120 G1 X76.25 Y87.1
N5125 G1 Y85.215
N5130 G3 X76.809 Y84.637 I0.6 J0.021
N5135 G1 X83.109 Y84.206
N5140 G3 X83.75 Y84.784 I0.041 J0.599
N5145 G1 Y86.696
N5150 G1 X83.742 Y86.862
N5155 G1 X83.717 Y87.05
N5160 G1 X83.676 Y87.244
N5165 G1 X83.61 Y87.465
N5170 G1 X83.523 Y87.687
N5175 G1 X83.402 Y87.936
N5180 G1 X83.258 Y88.181
N5185 G1 X83.071 Y88.447
N5190 G1 X82.854 Y88.708
N5195 G1 X82.596 Y88.973
N5200 G1 X82.288 Y89.242
N5205 G1 X81.951 Y89.491
N5210 G1 X81.569 Y89.729
N5215 G1 X81.146 Y89.947
N5220 G1 X80.69 Y90.138
N5225 G1 X80.216 Y90.292
N5230 G1 X79.726 Y90.41
N5235 G1 X79.233 Y90.487
N5240 G1 X78.785 Y90.52
N5245 G1 X78.35 Y90.518
N5250 G1 X77.981 Y90.486
N5255 G1 X77.615 Y90.424
N5260 G1 X77.299 Y90.345
N5265 G1 X77.2 Y90.311
N5270 G1 X76.937 Y90.19
N5275 G1 X76.704 Y90.018
N5280 G1 X76.512 Y89.801
N5285 G1 X76.369 Y89.549
N5290 G1 X76.28 Y89.274
N5295 G1 X76.25 Y88.986
N5300 G1 Y87.1
N5305 G3 X76.811 Y86.522 I0.6 J0.021
N5310 G1 X83.112 Y86.118
N5315 G3 X83.75 Y86.696 I0.038 J0.599
N5320 G1 Y88.586
N5325 G1 X83.742 Y88.748
N5330 G1 X83.717 Y88.936
N5335 G1 X83.676 Y89.13
N5340 G1 X83.61 Y89.351
N5345 G1 X83.523 Y89.573
N5350 G1 X83.403 Y89.822
N5355 G1 X83.258 Y90.066
N5360 G1 X83.071 Y90.333
N5365 G1 X82.855 Y90.594
N5370 G1 X82.596 Y90.859
N5375 G1 X82.289 Y91.127
N5380 G1 X81.952 Y91.376
N5385 G1 X81.569 Y91.614
N5390 G1 X81.147 Y91.832
N5395 G1 X80.69 Y92.023
N5400 G1 X80.216 Y92.178
N5405 G1 X79.727 Y92.295
N5410 G1 X79.233 Y92.372
N5415 G1 X78.785 Y92.406
N5420 G1 X78.35 Y92.403
N5425 G1 X77.981 Y92.372
N5430 G1 X77.615 Y92.31
N5435 G1 X77.299 Y92.23
N5440 G1 X77.2 Y92.197
N5445 G1 X76.937 Y92.076
N5450 G1 X76.704 Y91.903
N5455 G1 X76.512 Y91.687
N5460 G1 X76.369 Y91.435
N5465 G1 X76.28 Y91.159
N5470 G1 X76.25 Y90.871
N5475 G1 Y88.986
N5480 G3 X76.812 Y88.408 I0.6 J0.021
N5485 G1 X83.112 Y88.008
N5490 G3 X83.75 Y88.586 I0.038 J0.599
N5495 G1 Y90.417
N5500 G1 X83.739 Y90.636
N5505 G1 X83.714 Y90.824
N5510 G1 X83.673 Y91.018
N5515 G1 X83.607 Y91.238
N5520 G1 X83.52 Y91.46
N5525 G1 X83.4 Y91.709
N5530 G1 X83.256 Y91.953
N5535 G1 X83.069 Y92.219
N5540 G1 X82.852 Y92.48
N5545 G1 X82.594 Y92.745
N5550 G1 X82.287 Y93.013
N5555 G1 X81.95 Y93.262
N5560 G1 X81.568 Y93.5
N5565 G1 X81.146 Y93.718
N5570 G1 X80.69 Y93.909
N5575 G1 X80.215 Y94.063
N5580 G1 X79.726 Y94.181
N5585 G1 X79.233 Y94.258
N5590 G1 X78.785 Y94.291
N5595 G1 X78.35 Y94.289
N5600 G1 X77.981 Y94.257
N5605 G1 X77.615 Y94.195
N5610 G1 X77.299 Y94.116
N5615 G1 X77.2 Y94.082
N5620 G1 X76.937 Y93.961
N5625 G1 X76.704 Y93.789
N5630 G1 X76.512 Y93.572
N5635 G1 X76.369 Y93.32
N5640 G1 X76.28 Y93.045
N5645 G1 X76.25 Y92.756
N5650 G1 Y90.871
N5655 G3 X76.806 Y90.294 I0.6 J0.021
N5660 G1 X83.107 Y89.839
N5665 G3 X83.75 Y90.417 I0.043 J0.598
N5670 G1 Y92.329
N5675 G1 X83.74 Y92.519
N5680 G1 X83.716 Y92.708
N5685 G1 X83.674 Y92.902
N5690 G1 X83.608 Y93.122
N5695 G1 X83.522 Y93.345
N5700 G1 X83.401 Y93.593
N5705 G1 X83.257 Y93.838
N5710 G1 X83.07 Y94.104
N5715 G1 X82.853 Y94.365
N5720 G1 X82.595 Y94.63
N5725 G1 X82.287 Y94.898
N5730 G1 X81.951 Y95.147
N5735 G1 X81.568 Y95.385
N5740 G1 X81.146 Y95.603
N5745 G1 X80.69 Y95.794
N5750 G1 X80.215 Y95.949
N5755 G1 X79.726 Y96.066
N5760 G1 X79.233 Y96.143
N5765 G1 X78.785 Y96.177
N5770 G1 X78.35 Y96.174
N5775 G1 X77.981 Y96.142
N5780 G1 X77.615 Y96.081
N5785 G1 X77.299 Y96.001
N5790 G1 X77.2 Y95.968
N5795 G1 X76.937 Y95.847
N5800 G1 X76.704 Y95.674
N5805 G1 X76.512 Y95.457
N5810 G1 X76.369 Y95.206
N5815 G1 X76.28 Y94.93
N5820 G1 X76.25 Y94.642
N5825 G1 Y92.756
N5830 G3 X76.809 Y92.179 I0.6 J0.021
N5835 G1 X83.11 Y91.751
N5840 G3 X83.75 Y92.329 I0.041 J0.599
N5845 G1 Y94.219
N5850 G1 X83.741 Y94.405
N5855 G1 X83.716 Y94.593
N5860 G1 X83.674 Y94.787
N5865 G1 X83.609 Y95.008
N5870 G1 X83.522 Y95.23
N5875 G1 X83.401 Y95.478
N5880 G1 X83.257 Y95.723
N5885 G1 X83.07 Y95.99
N5890 G1 X82.854 Y96.25
N5895 G1 X82.595 Y96.515
N5900 G1 X82.288 Y96.784
N5905 G1 X81.951 Y97.033
N5910 G1 X81.569 Y97.271
N5915 G1 X81.146 Y97.489
N5920 G1 X80.69 Y97.679
N5925 G1 X80.215 Y97.834
N5930 G1 X79.726 Y97.952
N5935 G1 X79.233 Y98.029
N5940 G1 X78.785 Y98.062
N5945 G1 X78.35 Y98.06
N5950 G1 X77.981 Y98.028
N5955 G1 X77.615 Y97.966
N5960 G1 X77.299 Y97.887
N5965 G1 X77.2 Y97.853
N5970 G1 X76.937 Y97.732
N5975 G1 X76.704 Y97.56
N5980 G1 X76.512 Y97.343
N5985 G1 X76.369 Y97.091
N5990 G1 X76.28 Y96.815
N5995 G1 X76.25 Y96.527
N6000 G1 Y94.642
N6005 G3 X76.809 Y94.064 I0.6 J0.021
N6010 G1 X83.11 Y93.641
N6015 G3 X83.75 Y94.219 I0.04 J0.599
N6020 G1 Y96.049
N6025 G1 X83.738 Y96.293
N6030 G1 X83.713 Y96.481
N6035 G1 X83.672 Y96.675
N6040 G1 X83.606 Y96.895
N6045 G1 X83.519 Y97.117
N6050 G1 X83.399 Y97.365
N6055 G1 X83.255 Y97.61
N6060 G1 X83.068 Y97.876
N6065 G1 X82.851 Y98.137
N6070 G1 X82.593 Y98.401
N6075 G1 X82.286 Y98.669
N6080 G1 X81.949 Y98.919
N6085 G1 X81.567 Y99.156
N6090 G1 X81.145 Y99.374
N6095 G1 X80.689 Y99.565
N6100 G1 X80.215 Y99.72
N6105 G1 X79.726 Y99.837
N6110 G1 X79.233 Y99.914
N6115 G1 X78.785 Y99.947
N6120 G1 X78.349 Y99.945
N6125 G1 X77.981 Y99.913
N6130 G1 X77.615 Y99.852
N6135 G1 X77.299 Y99.772
N6140 G1 X77.2 Y99.738
N6145 G1 X76.937 Y99.618
N6150 G1 X76.704 Y99.445
N6155 G1 X76.512 Y99.228
N6160 G1 X76.369 Y98.977
N6165 G1 X76.28 Y98.701
N6170 G1 X76.25 Y98.413
N6175 G1 Y96.527
N6180 G3 X76.804 Y95.95 I0.6 J0.021
N6185 G1 X83.105 Y95.472
N6190 G3 X83.75 Y96.049 I0.045 J0.598
N6195 G1 Y98.061
N6200 G1 X83.743 Y98.211
N6205 G1 X83.714 Y98.404
N6210 G1 X83.668 Y98.601
N6215 G1 X83.596 Y98.826
N6220 G1 X83.503 Y99.052
N6225 G1 X83.376 Y99.302
N6230 G1 X83.223 Y99.551
N6235 G1 X83.03 Y99.815
N6240 G1 X82.799 Y100.084
N6245 G1 X82.535 Y100.344
N6250 G1 X82.22 Y100.61
N6255 G1 X81.865 Y100.862
N6260 G1 X81.478 Y101.094
N6265 G1 X81.051 Y101.304
N6270 G1 X80.59 Y101.487
N6275 G1 X80.111 Y101.634
N6280 G1 X79.619 Y101.742
N6285 G1 X79.124 Y101.81
N6290 G1 X78.683 Y101.835
N6295 G1 X78.262 Y101.825
N6300 G1 X77.893 Y101.786
N6305 G1 X77.541 Y101.721
N6310 G1 X77.224 Y101.635
N6315 G1 X77.176 Y101.617
N6320 G1 X76.919 Y101.494
N6325 G1 X76.692 Y101.321
N6330 G1 X76.505 Y101.105
N6335 G1 X76.365 Y100.856
N6340 G1 X76.279 Y100.584
N6345 G1 X76.25 Y100.3
N6350 G1 Y98.413
N6355 G3 X76.816 Y97.835 I0.6 J0.021
N6360 G1 X83.117 Y97.483
N6365 G3 X83.75 Y98.061 I0.033 J0.599
N6370 G1 Y99.851
N6375 G1 X83.739 Y100.067
N6380 G1 X83.715 Y100.247
N6385 G1 X83.672 Y100.45
N6390 G1 X83.609 Y100.662
N6395 G1 X83.519 Y100.892
N6400 G1 X83.402 Y101.132
N6405 G1 X83.255 Y101.383
N6410 G1 X83.069 Y101.647
N6415 G1 X82.855 Y101.905
N6420 G1 X82.591 Y102.176
N6425 G1 X82.292 Y102.437
N6430 G1 X81.954 Y102.686
N6435 G1 X81.566 Y102.928
N6440 G1 X81.14 Y103.148
N6445 G1 X80.688 Y103.337
N6450 G1 X80.215 Y103.491
N6455 G1 X79.727 Y103.608
N6460 G1 X79.232 Y103.686
N6465 G1 X78.78 Y103.719
N6470 G1 X78.348 Y103.717
N6475 G1 X77.98 Y103.685
N6480 G1 X77.614 Y103.624
N6485 G1 X77.299 Y103.544
N6490 G1 X77.2 Y103.511
N6495 G1 X76.937 Y103.39
N6500 G1 X76.704 Y103.217
N6505 G1 X76.512 Y103.001
N6510 G1 X76.369 Y102.749
N6515 G1 X76.28 Y102.473
N6520 G1 X76.25 Y102.185
N6525 G1 Y100.3
N6530 G3 X76.807 Y99.723 I0.6 J0.021
N6535 G1 X83.108 Y99.274
N6540 G3 X83.75 Y99.851 I0.043 J0.598
N6545 G1 Y101.781
N6550 G1 X83.742 Y101.946
N6555 G1 X83.717 Y102.134
N6560 G1 X83.676 Y102.328
N6565 G1 X83.61 Y102.548
N6570 G1 X83.523 Y102.771
N6575 G1 X83.402 Y103.02
N6580 G1 X83.258 Y103.265
N6585 G1 X83.071 Y103.532
N6590 G1 X82.854 Y103.793
N6595 G1 X82.595 Y104.058
N6600 G1 X82.288 Y104.326
N6605 G1 X81.951 Y104.575
N6610 G1 X81.569 Y104.813
N6615 G1 X81.145 Y105.032
N6620 G1 X80.689 Y105.222
N6625 G1 X80.215 Y105.377
N6630 G1 X79.726 Y105.494
N6635 G1 X79.232 Y105.571
N6640 G1 X78.784 Y105.605
N6645 G1 X78.349 Y105.602
N6650 G1 X77.981 Y105.571
N6655 G1 X77.615 Y105.509
N6660 G1 X77.299 Y105.43
N6665 G1 X77.2 Y105.396
N6670 G1 X76.937 Y105.275
N6675 G1 X76.704 Y105.103
N6680 G1 X76.512 Y104.886
N6685 G1 X76.369 Y104.634
N6690 G1 X76.28 Y104.358
N6695 G1 X76.25 Y104.07
N6700 G1 Y102.185
N6705 G3 X76.811 Y101.607 I0.6 J0.021
N6710 G1 X83.112 Y101.204
N6715 G3 X83.75 Y101.781 I0.038 J0.599
N6720 G1 Y103.693
N6725 G1 X83.743 Y103.843
N6730 G1 X83.716 Y104.033
N6735 G1 X83.674 Y104.228
N6740 G1 X83.606 Y104.45
N6745 G1 X83.517 Y104.674
N6750 G1 X83.394 Y104.923
N6755 G1 X83.248 Y105.169
N6760 G1 X83.059 Y105.435
N6765 G1 X82.838 Y105.698
N6770 G1 X82.577 Y105.962
N6775 G1 X82.267 Y106.23
N6780 G1 X81.925 Y106.48
N6785 G1 X81.541 Y106.715
N6790 G1 X81.117 Y106.931
N6795 G1 X80.659 Y107.119
N6800 G1 X80.183 Y107.272
N6805 G1 X79.693 Y107.386
N6810 G1 X79.199 Y107.461
N6815 G1 X78.753 Y107.491
N6820 G1 X78.321 Y107.486
N6825 G1 X77.953 Y107.452
N6830 G1 X77.591 Y107.39
N6835 G1 X77.276 Y107.308
N6840 G1 X77.193 Y107.279
N6845 G1 X76.931 Y107.158
N6850 G1 X76.7 Y106.985
N6855 G1 X76.51 Y106.768
N6860 G1 X76.368 Y106.518
N6865 G1 X76.28 Y106.243
N6870 G1 X76.25 Y105.956
N6875 G1 Y104.07
N6880 G3 X76.814 Y103.492 I0.6 J0.021
N6885 G1 X83.115 Y103.115
N6890 G3 X83.75 Y103.693 I0.036 J0.599
N6895 G1 Y105.484
N6900 G1 X83.738 Y105.722
N6905 G1 X83.714 Y105.909
N6910 G1 X83.672 Y106.104
N6915 G1 X83.606 Y106.322
N6920 G1 X83.519 Y106.547
N6925 G1 X83.399 Y106.793
N6930 G1 X83.255 Y107.038
N6935 G1 X83.068 Y107.305
N6940 G1 X82.853 Y107.564
N6945 G1 X82.593 Y107.83
N6950 G1 X82.287 Y108.098
N6955 G1 X81.952 Y108.346
N6960 G1 X81.567 Y108.585
N6965 G1 X81.144 Y108.803
N6970 G1 X80.688 Y108.994
N6975 G1 X80.214 Y109.149
N6980 G1 X79.726 Y109.266
N6985 G1 X79.232 Y109.343
N6990 G1 X78.784 Y109.376
N6995 G1 X78.349 Y109.374
N7000 G1 X77.981 Y109.342
N7005 G1 X77.615 Y109.28
N7010 G1 X77.299 Y109.201
N7015 G1 X77.2 Y109.167
N7020 G1 X76.937 Y109.046
N7025 G1 X76.704 Y108.874
N7030 G1 X76.512 Y108.657
N7035 G1 X76.369 Y108.405
N7040 G1 X76.28 Y108.13
N7045 G1 X76.25 Y107.842
N7050 G1 Y105.956
N7055 G3 X76.805 Y105.379 I0.6 J0.021
N7060 G1 X83.106 Y104.906
N7065 G3 X83.75 Y105.484 I0.045 J0.598
N7070 G1 Y107.495
N7075 G1 X83.743 Y107.645
N7080 G1 X83.713 Y107.839
N7085 G1 X83.666 Y108.037
N7090 G1 X83.594 Y108.262
N7095 G1 X83.5 Y108.488
N7100 G1 X83.372 Y108.739
N7105 G1 X83.217 Y108.989
N7110 G1 X83.024 Y109.253
N7115 G1 X82.79 Y109.522
N7120 G1 X82.526 Y109.782
N7125 G1 X82.209 Y110.047
N7130 G1 X81.851 Y110.3
N7135 G1 X81.463 Y110.531
N7140 G1 X81.035 Y110.74
N7145 G1 X80.574 Y110.922
N7150 G1 X80.095 Y111.067
N7155 G1 X79.602 Y111.174
N7160 G1 X79.107 Y111.241
N7165 G1 X78.667 Y111.264
N7170 G1 X78.249 Y111.253
N7175 G1 X77.879 Y111.213
N7180 G1 X77.53 Y111.147
N7185 G1 X77.212 Y111.06
N7190 G1 X77.172 Y111.045
N7195 G1 X76.916 Y110.922
N7200 G1 X76.69 Y110.748
N7205 G1 X76.504 Y110.533
N7210 G1 X76.365 Y110.284
N7215 G1 X76.279 Y110.013
N7220 G1 X76.25 Y109.729
N7225 G1 Y107.842
N7230 G3 X76.817 Y107.263 I0.6 J0.021
N7235 G1 X83.117 Y106.917
N7240 G3 X83.75 Y107.495 I0.033 J0.599
N7245 G1 Y109.326
N7250 G1 X83.742 Y109.494
N7255 G1 X83.718 Y109.674
N7260 G1 X83.674 Y109.878
N7265 G1 X83.611 Y110.089
N7270 G1 X83.521 Y110.321
N7275 G1 X83.405 Y110.559
N7280 G1 X83.257 Y110.811
N7285 G1 X83.072 Y111.074
N7290 G1 X82.857 Y111.334
N7295 G1 X82.592 Y111.605
N7300 G1 X82.295 Y111.864
N7305 G1 X81.956 Y112.115
N7310 G1 X81.566 Y112.358
N7315 G1 X81.141 Y112.577
N7320 G1 X80.69 Y112.766
N7325 G1 X80.216 Y112.92
N7330 G1 X79.728 Y113.037
N7335 G1 X79.232 Y113.115
N7340 G1 X78.779 Y113.149
N7345 G1 X78.348 Y113.146
N7350 G1 X77.98 Y113.114
N7355 G1 X77.613 Y113.053
N7360 G1 X77.299 Y112.974
N7365 G1 X77.2 Y112.94
N7370 G1 X76.937 Y112.819
N7375 G1 X76.704 Y112.647
N7380 G1 X76.512 Y112.43
N7385 G1 X76.369 Y112.178
N7390 G1 X76.28 Y111.902
N7395 G1 X76.25 Y111.614
N7400 G1 Y109.729
N7405 G3 X76.811 Y109.152 I0.6 J0.021
N7410 G1 X83.112 Y108.748
N7415 G3 X83.75 Y109.326 I0.038 J0.599
N7420 G1 Y111.116
N7425 G1 X83.737 Y111.379
N7430 G1 X83.712 Y111.567
N7435 G1 X83.671 Y111.761
N7440 G1 X83.605 Y111.981
N7445 G1 X83.518 Y112.203
N7450 G1 X83.398 Y112.451
N7455 G1 X83.254 Y112.696
N7460 G1 X83.067 Y112.962
N7465 G1 X82.85 Y113.223
N7470 G1 X82.592 Y113.488
N7475 G1 X82.285 Y113.756
N7480 G1 X81.948 Y114.005
N7485 G1 X81.567 Y114.242
N7490 G1 X81.143 Y114.461
N7495 G1 X80.687 Y114.651
N7500 G1 X80.213 Y114.806
N7505 G1 X79.724 Y114.923
N7510 G1 X79.231 Y115
N7515 G1 X78.784 Y115.034
N7520 G1 X78.349 Y115.031
N7525 G1 X77.98 Y115
N7530 G1 X77.614 Y114.938
N7535 G1 X77.299 Y114.859
N7540 G1 X77.2 Y114.825
N7545 G1 X76.937 Y114.704
N7550 G1 X76.704 Y114.532
N7555 G1 X76.512 Y114.315
N7560 G1 X76.369 Y114.063
N7565 G1 X76.28 Y113.787
N7570 G1 X76.25 Y113.499
N7575 G1 Y111.614
N7580 G3 X76.802 Y111.037 I0.6 J0.021
N7585 G1 X83.103 Y110.539
N7590 G3 X83.75 Y111.116 I0.047 J0.598
N7595 G1 Y113.128
N7600 G1 X83.743 Y113.278
N7605 G1 X83.716 Y113.469
N7610 G1 X83.672 Y113.665
N7615 G1 X83.603 Y113.888
N7620 G1 X83.513 Y114.111
N7625 G1 X83.389 Y114.362
N7630 G1 X83.241 Y114.608
N7635 G1 X83.051 Y114.874
N7640 G1 X82.827 Y115.138
N7645 G1 X82.566 Y115.401
N7650 G1 X82.253 Y115.669
N7655 G1 X81.908 Y115.92
N7660 G1 X81.523 Y116.154
N7665 G1 X81.098 Y116.368
N7670 G1 X80.639 Y116.555
N7675 G1 X80.163 Y116.706
N7680 G1 X79.672 Y116.819
N7685 G1 X79.178 Y116.891
N7690 G1 X78.733 Y116.921
N7695 G1 X78.304 Y116.914
N7700 G1 X77.936 Y116.879
N7705 G1 X77.577 Y116.815
N7710 G1 X77.261 Y116.733
N7715 G1 X77.188 Y116.707
N7720 G1 X76.928 Y116.585
N7725 G1 X76.698 Y116.412
N7730 G1 X76.508 Y116.196
N7735 G1 X76.367 Y115.945
N7740 G1 X76.28 Y115.671
N7745 G1 X76.25 Y115.385
N7750 G1 Y113.499
N7755 G3 X76.814 Y112.921 I0.6 J0.021
N7760 G1 X83.115 Y112.55
N7765 G3 X83.75 Y113.128 I0.035 J0.599
N7770 G1 Y114.959
N7775 G1 X83.74 Y115.149
N7780 G1 X83.716 Y115.334
N7785 G1 X83.674 Y115.532
N7790 G1 X83.609 Y115.749
N7795 G1 X83.521 Y115.975
N7800 G1 X83.402 Y116.22
N7805 G1 X83.257 Y116.467
N7810 G1 X83.069 Y116.733
N7815 G1 X82.855 Y116.991
N7820 G1 X82.594 Y117.259
N7825 G1 X82.289 Y117.525
N7830 G1 X81.954 Y117.773
N7835 G1 X81.568 Y118.013
N7840 G1 X81.143 Y118.232
N7845 G1 X80.688 Y118.423
N7850 G1 X80.214 Y118.578
N7855 G1 X79.726 Y118.695
N7860 G1 X79.232 Y118.772
N7865 G1 X78.783 Y118.805
N7870 G1 X78.349 Y118.803
N7875 G1 X77.981 Y118.771
N7880 G1 X77.615 Y118.71
N7885 G1 X77.299 Y118.63
N7890 G1 X77.2 Y118.596
N7895 G1 X76.937 Y118.476
N7900 G1 X76.704 Y118.303
N7905 G1 X76.512 Y118.086
N7910 G1 X76.369 Y117.835
N7915 G1 X76.28 Y117.559
N7920 G1 X76.25 Y117.271
N7925 G1 Y115.385
N7930 G3 X76.809 Y114.808 I0.6 J0.021
N7935 G1 X83.11 Y114.381
N7940 G3 X83.75 Y114.959 I0.041 J0.599
N7945 G1 Y116.871
N7950 G1 X83.742 Y117.032
N7955 G1 X83.717 Y117.221
N7960 G1 X83.676 Y117.415
N7965 G1 X83.61 Y117.635
N7970 G1 X83.523 Y117.858
N7975 G1 X83.402 Y118.106
N7980 G1 X83.258 Y118.351
N7985 G1 X83.071 Y118.618
N7990 G1 X82.854 Y118.879
N7995 G1 X82.596 Y119.144
N8000 G1 X82.288 Y119.412
N8005 G1 X81.951 Y119.661
N8010 G1 X81.569 Y119.899
N8015 G1 X81.146 Y120.117
N8020 G1 X80.69 Y120.308
N8025 G1 X80.215 Y120.463
N8030 G1 X79.726 Y120.58
N8035 G1 X79.233 Y120.657
N8040 G1 X78.785 Y120.691
N8045 G1 X78.35 Y120.688
N8050 G1 X77.981 Y120.657
N8055 G1 X77.615 Y120.595
N8060 G1 X77.299 Y120.516
N8065 G1 X77.2 Y120.482
N8070 G1 X76.937 Y120.361
N8075 G1 X76.704 Y120.188
N8080 G1 X76.512 Y119.972
N8085 G1 X76.369 Y119.72
N8090 G1 X76.28 Y119.444
N8095 G1 X76.25 Y119.156
N8100 G1 Y117.271
N8105 G3 X76.812 Y116.693 I0.6 J0.021
N8110 G1 X83.112 Y116.293
N8115 G3 X83.75 Y116.871 I0.038 J0.599
N8120 G1 Y118.761
N8125 G1 X83.742 Y118.918
N8130 G1 X83.717 Y119.107
N8135 G1 X83.676 Y119.301
N8140 G1 X83.61 Y119.521
N8145 G1 X83.523 Y119.744
N8150 G1 X83.403 Y119.992
N8155 G1 X83.259 Y120.237
N8160 G1 X83.071 Y120.503
N8165 G1 X82.855 Y120.764
N8170 G1 X82.596 Y121.029
N8175 G1 X82.289 Y121.298
N8180 G1 X81.952 Y121.547
N8185 G1 X81.569 Y121.785
N8190 G1 X81.147 Y122.003
N8195 G1 X80.69 Y122.194
N8200 G1 X80.216 Y122.349
N8205 G1 X79.727 Y122.466
N8210 G1 X79.233 Y122.543
N8215 G1 X78.785 Y122.576
N8220 G1 X78.35 Y122.574
N8225 G1 X77.981 Y122.542
N8230 G1 X77.615 Y122.481
N8235 G1 X77.299 Y122.401
N8240 G1 X77.2 Y122.367
N8245 G1 X76.937 Y122.246
N8250 G1 X76.704 Y122.074
N8255 G1 X76.512 Y121.857
N8260 G1 X76.369 Y121.606
N8265 G1 X76.28 Y121.33
N8270 G1 X76.25 Y121.042
N8275 G1 Y119.156
N8280 G3 X76.812 Y118.578 I0.6 J0.021
N8285 G1 X83.113 Y118.183
N8290 G3 X83.75 Y118.761 I0.038 J0.599
N8295 G1 Y120.591
N8300 G1 X83.739 Y120.806
N8305 G1 X83.715 Y120.995
N8310 G1 X83.673 Y121.188
N8315 G1 X83.607 Y121.409
N8320 G1 X83.521 Y121.631
N8325 G1 X83.4 Y121.879
N8330 G1 X83.256 Y122.124
N8335 G1 X83.069 Y122.39
N8340 G1 X82.853 Y122.651
N8345 G1 X82.594 Y122.915
N8350 G1 X82.287 Y123.184
N8355 G1 X81.95 Y123.433
N8360 G1 X81.568 Y123.671
N8365 G1 X81.146 Y123.888
N8370 G1 X80.69 Y124.079
N8375 G1 X80.215 Y124.234
N8380 G1 X79.726 Y124.351
N8385 G1 X79.233 Y124.428
N8390 G1 X78.785 Y124.462
N8395 G1 X78.35 Y124.459
N8400 G1 X77.981 Y124.428
N8405 G1 X77.615 Y124.366
N8410 G1 X77.299 Y124.287
N8415 G1 X77.2 Y124.253
N8420 G1 X76.937 Y124.132
N8425 G1 X76.704 Y123.959
N8430 G1 X76.512 Y123.743
N8435 G1 X76.369 Y123.491
N8440 G1 X76.28 Y123.215
N8445 G1 X76.25 Y122.927
N8450 G1 Y121.042
N8455 G3 X76.807 Y120.464 I0.6 J0.021
N8460 G1 X83.108 Y120.014
N8465 G3 X83.75 Y120.591 I0.043 J0.598
N8470 G1 Y122.503
N8475 G1 X83.741 Y122.69
N8480 G1 X83.716 Y122.878
N8485 G1 X83.674 Y123.073
N8490 G1 X83.608 Y123.293
N8495 G1 X83.522 Y123.515
N8500 G1 X83.401 Y123.764
N8505 G1 X83.257 Y124.008
N8510 G1 X83.07 Y124.275
N8515 G1 X82.854 Y124.536
N8520 G1 X82.595 Y124.801
N8525 G1 X82.288 Y125.069
N8530 G1 X81.951 Y125.318
N8535 G1 X81.569 Y125.556
N8540 G1 X81.146 Y125.774
N8545 G1 X80.69 Y125.965
N8550 G1 X80.215 Y126.119
N8555 G1 X79.726 Y126.237
N8560 G1 X79.233 Y126.314
N8565 G1 X78.785 Y126.347
N8570 G1 X78.35 Y126.345
N8575 G1 X77.981 Y126.313
N8580 G1 X77.615 Y126.252
N8585 G1 X77.299 Y126.172
N8590 G1 X77.2 Y126.138
N8595 G1 X76.937 Y126.017
N8600 G1 X76.704 Y125.845
N8605 G1 X76.512 Y125.628
N8610 G1 X76.369 Y125.376
N8615 G1 X76.28 Y125.101
N8620 G1 X76.25 Y124.813
N8625 G1 Y122.927
N8630 G3 X76.809 Y122.349 I0.6 J0.021
N8635 G1 X83.11 Y121.926
N8640 G3 X83.75 Y122.503 I0.04 J0.599
N8645 G1 Y124.393
N8650 G1 X83.741 Y124.576
N8655 G1 X83.716 Y124.764
N8660 G1 X83.675 Y124.958
N8665 G1 X83.609 Y125.178
N8670 G1 X83.522 Y125.401
N8675 G1 X83.402 Y125.649
N8680 G1 X83.257 Y125.894
N8685 G1 X83.07 Y126.16
N8690 G1 X82.854 Y126.421
N8695 G1 X82.595 Y126.686
N8700 G1 X82.288 Y126.954
N8705 G1 X81.951 Y127.203
N8710 G1 X81.569 Y127.441
N8715 G1 X81.146 Y127.659
N8720 G1 X80.69 Y127.85
N8725 G1 X80.216 Y128.005
N8730 G1 X79.726 Y128.122
N8735 G1 X79.233 Y128.199
N8740 G1 X78.785 Y128.233
N8745 G1 X78.35 Y128.23
N8750 G1 X77.981 Y128.198
N8755 G1 X77.615 Y128.137
N8760 G1 X77.299 Y128.057
N8765 G1 X77.2 Y128.024
N8770 G1 X76.937 Y127.903
N8775 G1 X76.704 Y127.73
N8780 G1 X76.512 Y127.514
N8785 G1 X76.369 Y127.262
N8790 G1 X76.28 Y126.986
N8795 G1 X76.25 Y126.698
N8800 G1 Y124.813
N8805 G3 X76.81 Y124.235 I0.6 J0.021
N8810 G1 X83.111 Y123.815
N8815 G3 X83.75 Y124.393 I0.04 J0.599
N8820 G1 Y126.224
N8825 G1 X83.738 Y126.463
N8830 G1 X83.713 Y126.651
N8835 G1 X83.672 Y126.845
N8840 G1 X83.606 Y127.065
N8845 G1 X83.519 Y127.288
N8850 G1 X83.399 Y127.536
N8855 G1 X83.255 Y127.78
N8860 G1 X83.068 Y128.046
N8865 G1 X82.852 Y128.307
N8870 G1 X82.593 Y128.572
N8875 G1 X82.286 Y128.84
N8880 G1 X81.949 Y129.089
N8885 G1 X81.567 Y129.327
N8890 G1 X81.145 Y129.545
N8895 G1 X80.689 Y129.735
N8900 G1 X80.215 Y129.89
N8905 G1 X79.726 Y130.008
N8910 G1 X79.233 Y130.085
N8915 G1 X78.785 Y130.118
N8920 G1 X78.349 Y130.116
N8925 G1 X77.981 Y130.084
N8930 G1 X77.615 Y130.022
N8935 G1 X77.299 Y129.943
N8940 G1 X77.2 Y129.909
N8945 G1 X76.937 Y129.788
N8950 G1 X76.704 Y129.616
N8955 G1 X76.512 Y129.399
N8960 G1 X76.369 Y129.147
N8965 G1 X76.28 Y128.872
N8970 G1 X76.25 Y128.583
N8975 G1 Y126.698
N8980 G3 X76.805 Y126.121 I0.6 J0.021
N8985 G1 X83.105 Y125.646
N8990 G3 X83.75 Y126.224 I0.045 J0.598
N8995 G1 Y128.235
N9000 G1 X83.743 Y128.385
N9005 G1 X83.713 Y128.579
N9010 G1 X83.667 Y128.776
N9015 G1 X83.594 Y129.002
N9020 G1 X83.501 Y129.228
N9025 G1 X83.373 Y129.478
N9030 G1 X83.219 Y129.728
N9035 G1 X83.026 Y129.992
N9040 G1 X82.793 Y130.261
N9045 G1 X82.529 Y130.521
N9050 G1 X82.213 Y130.786
N9055 G1 X81.856 Y131.039
N9060 G1 X81.468 Y131.27
N9065 G1 X81.041 Y131.479
N9070 G1 X80.58 Y131.661
N9075 G1 X80.101 Y131.807
N9080 G1 X79.608 Y131.915
N9085 G1 X79.113 Y131.982
N9090 G1 X78.673 Y132.006
N9095 G1 X78.253 Y131.995
N9100 G1 X77.884 Y131.956
N9105 G1 X77.534 Y131.89
N9110 G1 X77.216 Y131.803
N9115 G1 X77.174 Y131.788
N9120 G1 X76.917 Y131.664
N9125 G1 X76.691 Y131.491
N9130 G1 X76.504 Y131.275
N9135 G1 X76.365 Y131.026
N9140 G1 X76.279 Y130.755
N9145 G1 X76.25 Y130.471
N9150 G1 Y128.583
N9155 G3 X76.817 Y128.005 I0.6 J0.021
N9160 G1 X83.117 Y127.657
N9165 G3 X83.75 Y128.235 I0.033 J0.599
N9170 G1 Y130.026
N9175 G1 X83.739 Y130.238
N9180 G1 X83.716 Y130.418
N9185 G1 X83.672 Y130.621
N9190 G1 X83.609 Y130.832
N9195 G1 X83.519 Y131.063
N9200 G1 X83.403 Y131.303
N9205 G1 X83.255 Y131.554
N9210 G1 X83.07 Y131.817
N9215 G1 X82.855 Y132.076
N9220 G1 X82.591 Y132.347
N9225 G1 X82.293 Y132.607
N9230 G1 X81.955 Y132.857
N9235 G1 X81.566 Y133.099
N9240 G1 X81.14 Y133.319
N9245 G1 X80.689 Y133.508
N9250 G1 X80.215 Y133.662
N9255 G1 X79.727 Y133.779
N9260 G1 X79.232 Y133.856
N9265 G1 X78.779 Y133.89
N9270 G1 X78.348 Y133.888
N9275 G1 X77.98 Y133.856
N9280 G1 X77.613 Y133.794
N9285 G1 X77.299 Y133.715
N9290 G1 X77.2 Y133.682
N9295 G1 X76.937 Y133.561
N9300 G1 X76.704 Y133.388
N9305 G1 X76.512 Y133.172
N9310 G1 X76.369 Y132.92
N9315 G1 X76.28 Y132.644
N9320 G1 X76.25 Y132.356
N9325 G1 Y130.471
N9330 G3 X76.807 Y129.894 I0.6 J0.021
N9335 G1 X83.108 Y129.448
N9340 G3 X83.75 Y130.026 I0.042 J0.599
N9345 G1 Y131.856
N9350 G1 X83.737 Y132.121
N9355 G1 X83.712 Y132.309
N9360 G1 X83.671 Y132.502
N9365 G1 X83.605 Y132.722
N9370 G1 X83.518 Y132.945
N9375 G1 X83.398 Y133.193
N9380 G1 X83.253 Y133.438
N9385 G1 X83.067 Y133.704
N9390 G1 X82.85 Y133.965
N9395 G1 X82.592 Y134.229
N9400 G1 X82.285 Y134.497
N9405 G1 X81.948 Y134.746
N9410 G1 X81.566 Y134.984
N9415 G1 X81.143 Y135.202
N9420 G1 X80.687 Y135.393
N9425 G1 X80.213 Y135.548
N9430 G1 X79.724 Y135.665
N9435 G1 X79.231 Y135.742
N9440 G1 X78.783 Y135.775
N9445 G1 X78.348 Y135.773
N9450 G1 X77.98 Y135.741
N9455 G1 X77.614 Y135.68
N9460 G1 X77.299 Y135.6
N9465 G1 X77.2 Y135.567
N9470 G1 X76.937 Y135.446
N9475 G1 X76.704 Y135.273
N9480 G1 X76.512 Y135.057
N9485 G1 X76.369 Y134.805
N9490 G1 X76.28 Y134.529
N9495 G1 X76.25 Y134.241
N9500 G1 Y132.356
N9505 G3 X76.802 Y131.779 I0.6 J0.021
N9510 G1 X83.103 Y131.279
N9515 G3 X83.75 Y131.856 I0.047 J0.598
N9520 G1 Y133.868
N9525 G1 X83.743 Y134.018
N9530 G1 X83.716 Y134.209
N9535 G1 X83.672 Y134.404
N9540 G1 X83.603 Y134.627
N9545 G1 X83.514 Y134.851
N9550 G1 X83.39 Y135.101
N9555 G1 X83.242 Y135.347
N9560 G1 X83.052 Y135.613
N9565 G1 X82.829 Y135.878
N9570 G1 X82.568 Y136.141
N9575 G1 X82.256 Y136.408
N9580 G1 X81.911 Y136.659
N9585 G1 X81.527 Y136.894
N9590 G1 X81.102 Y137.108
N9595 G1 X80.643 Y137.295
N9600 G1 X80.167 Y137.446
N9605 G1 X79.676 Y137.56
N9610 G1 X79.182 Y137.633
N9615 G1 X78.737 Y137.662
N9620 G1 X78.308 Y137.656
N9625 G1 X77.94 Y137.621
N9630 G1 X77.58 Y137.557
N9635 G1 X77.264 Y137.475
N9640 G1 X77.189 Y137.449
N9645 G1 X76.928 Y137.327
N9650 G1 X76.698 Y137.154
N9655 G1 X76.509 Y136.938
N9660 G1 X76.367 Y136.687
N9665 G1 X76.28 Y136.413
N9670 G1 X76.25 Y136.127
N9675 G1 Y134.241
N9680 G3 X76.814 Y133.663 I0.6 J0.021
N9685 G1 X83.115 Y133.29
N9690 G3 X83.75 Y133.868 I0.035 J0.599
N9695 G1 Y135.658
N9700 G1 X83.738 Y135.892
N9705 G1 X83.714 Y136.078
N9710 G1 X83.672 Y136.275
N9715 G1 X83.607 Y136.492
N9720 G1 X83.519 Y136.717
N9725 G1 X83.4 Y136.963
N9730 G1 X83.255 Y137.209
N9735 G1 X83.068 Y137.476
N9740 G1 X82.853 Y137.734
N9745 G1 X82.592 Y138.001
N9750 G1 X82.287 Y138.267
N9755 G1 X81.952 Y138.515
N9760 G1 X81.567 Y138.755
N9765 G1 X81.143 Y138.974
N9770 G1 X80.687 Y139.164
N9775 G1 X80.213 Y139.319
N9780 G1 X79.725 Y139.436
N9785 G1 X79.231 Y139.513
N9790 G1 X78.783 Y139.547
N9795 G1 X78.349 Y139.544
N9800 G1 X77.981 Y139.513
N9805 G1 X77.614 Y139.451
N9810 G1 X77.299 Y139.372
N9815 G1 X77.2 Y139.338
N9820 G1 X76.937 Y139.217
N9825 G1 X76.704 Y139.045
N9830 G1 X76.512 Y138.828
N9835 G1 X76.369 Y138.576
N9840 G1 X76.28 Y138.3
N9845 G1 X76.25 Y138.012
N9850 G1 Y136.127
N9855 G3 X76.805 Y135.55 I0.6 J0.021
N9860 G1 X83.106 Y135.081
N9865 G3 X83.75 Y135.658 I0.045 J0.598
N9870 G1 Y137.67
N9875 G1 X83.743 Y137.82
N9880 G1 X83.712 Y138.014
N9885 G1 X83.665 Y138.212
N9890 G1 X83.592 Y138.438
N9895 G1 X83.498 Y138.664
N9900 G1 X83.369 Y138.915
N9905 G1 X83.213 Y139.166
N9910 G1 X83.019 Y139.43
N9915 G1 X82.784 Y139.7
N9920 G1 X82.518 Y139.959
N9925 G1 X82.201 Y140.223
N9930 G1 X81.841 Y140.477
N9935 G1 X81.452 Y140.707
N9940 G1 X81.023 Y140.916
N9945 G1 X80.562 Y141.096
N9950 G1 X80.083 Y141.241
N9955 G1 X79.589 Y141.347
N9960 G1 X79.095 Y141.412
N9965 G1 X78.655 Y141.435
N9970 G1 X78.239 Y141.423
N9975 G1 X77.869 Y141.383
N9980 G1 X77.522 Y141.316
N9985 G1 X77.203 Y141.228
N9990 G1 X77.17 Y141.215
N9995 G1 X76.914 Y141.091
N10000 G1 X76.688 Y140.918
N10005 G1 X76.503 Y140.703
N10010 G1 X76.364 Y140.454
N10015 G1 X76.279 Y140.183
N10020 G1 X76.25 Y139.9
N10025 G1 Y138.012
N10030 G3 X76.817 Y137.434 I0.6 J0.021
N10035 G1 X83.118 Y137.092
N10040 G3 X83.75 Y137.67 I0.033 J0.599
N10045 G1 Y139.501
N10050 G1 X83.742 Y139.665
N10055 G1 X83.718 Y139.844
N10060 G1 X83.675 Y140.049
N10065 G1 X83.612 Y140.259
N10070 G1 X83.521 Y140.492
N10075 G1 X83.406 Y140.729
N10080 G1 X83.257 Y140.982
N10085 G1 X83.073 Y141.244
N10090 G1 X82.857 Y141.504
N10095 G1 X82.592 Y141.776
N10100 G1 X82.296 Y142.034
N10105 G1 X81.956 Y142.286
N10110 G1 X81.566 Y142.529
N10115 G1 X81.141 Y142.748
N10120 G1 X80.69 Y142.936
N10125 G1 X80.217 Y143.091
N10130 G1 X79.728 Y143.208
N10135 G1 X79.233 Y143.285
N10140 G1 X78.778 Y143.319
N10145 G1 X78.347 Y143.317
N10150 G1 X77.98 Y143.285
N10155 G1 X77.613 Y143.223
N10160 G1 X77.51 Y143.197
N10165 G1 X77.245 Y143.102
N10170 G1 X77.005 Y142.955
N10175 G1 X76.8 Y142.763
N10180 G1 X76.636 Y142.534
N10185 G3 X76.918 Y141.709 I0.531 J-0.279
N10190 G1 X82.901 Y138.976
N10195 G3 X83.75 Y139.501 I0.249 J0.546
N10200 G1 Y140.889
N10205 G1 X83.727 Y141.291
N10210 G1 X83.659 Y141.693
N10215 G1 X83.545 Y142.096
N10220 G1 X83.423 Y142.411
N10225 G1 X83.385 Y142.498
N10230 G1 X83.155 Y142.9
N10235 G1 X83.02 Y143.111
N10240 G1 X82.867 Y143.303
N10245 G1 X82.618 Y143.574
N10250 G1 X82.476 Y143.705
N10255 G1 X82.215 Y143.906
N10260 G1 X81.914 Y144.107
N10265 G1 X81.812 Y144.163
N10270 G1 X81.409 Y144.357
N10275 G1 X81.007 Y144.496
N10280 G1 X80.952 Y144.51
N10285 G1 X80.604 Y144.587
N10290 G1 X80.201 Y144.633
N10295 G1 X79.799
N10300 G1 X79.396 Y144.587
N10305 G1 X79.048 Y144.51
N10310 G1 X78.993 Y144.496
N10315 G1 X78.591 Y144.357
N10320 G1 X78.188 Y144.163
N10325 G1 X78.086 Y144.107
N10330 G1 X77.785 Y143.906
N10335 G1 X77.524 Y143.705
N10340 G1 X77.382 Y143.574
N10345 G1 X77.133 Y143.303
N10350 G1 X76.98 Y143.111
N10355 G1 X76.845 Y142.9
N10360 G1 X76.615 Y142.498
N10365 G1 X76.577 Y142.411
N10370 G1 X76.455 Y142.096
N10375 G1 X76.341 Y141.693
N10380 G1 X76.273 Y141.291
N10385 G1 X76.25 Y140.889
N10390 G1 Y139.9
N10395 G1 X76.1
N10400 G1 X75.97 Y139.826
N10405 G1 X75.849 Y139.737
N10410 G1 X75.721 Y139.623
N10415 G1 X75.576 Y139.473
N10420 G1 X75.416 Y139.278
N10425 G1 X75.243 Y139.027
N10430 G1 X75.056 Y138.706
N10435 G1 X74.858 Y138.29
N10440 G1 X74.65 Y137.744
N10445 G1 X74.433 Y136.999
N10450 G1 X74.253 Y136.132
N10455 G1 X74.13 Y135.254
N10460 G1 X74.045 Y134.372
N10465 G1 X73.986 Y133.488
N10470 G1 X73.945 Y132.603
N10475 G1 X73.916 Y131.717
N10480 G1 X73.896 Y130.831
N10485 G1 X73.882 Y129.945
N10490 G1 X73.872 Y129.059
N10495 G1 X73.866 Y128.173
N10500 G1 X73.861 Y127.287
N10505 G1 X73.855 Y125.515
N10510 G1 X73.852 Y122.856
N10515 G1 X73.85 Y116.653
N10520 G1 Y90.07
N10525 G1 Y43.105
N10530 G1 X73.873 Y42.219
N10535 G1 X73.946 Y41.361
N10540 G1 X74.058 Y40.694
N10545 G1 X74.22 Y40.046
N10550 G1 X74.403 Y39.506
N10555 G1 X74.628 Y38.984
N10560 G1 X74.87 Y38.526
N10565 G1 X75.151 Y38.087
N10570 G1 X75.448 Y37.694
N10575 G1 X75.788 Y37.312
N10580 G1 X76.139 Y36.977
N10585 G1 X76.509 Y36.677
N10590 G1 X76.904 Y36.405
N10595 G1 X77.322 Y36.165
N10600 G1 X77.742 Y35.967
N10605 G1 X78.163 Y35.808
N10610 G1 X78.605 Y35.681
N10615 G1 X79.061 Y35.589
N10620 G1 X79.511 Y35.535
N10625 G1 X79.954 Y35.517
N10630 G1 X80.428 Y35.537
N10635 G1 X80.87 Y35.591
N10640 G1 X81.326 Y35.684
N10645 G1 X81.765 Y35.811
N10650 G1 X82.179 Y35.968
N10655 G1 X82.592 Y36.164
N10660 G1 X82.965 Y36.379
N10665 G1 X83.341 Y36.639
N10670 G1 X83.69 Y36.923
N10675 G1 X84.015 Y37.234
N10680 G1 X84.316 Y37.573
N10685 G1 X84.582 Y37.926
N10690 G1 X84.825 Y38.309
N10695 G1 X85.041 Y38.718
N10700 G1 X85.244 Y39.192
N10705 G1 X85.457 Y39.826
N10710 G1 X85.671 Y40.685
N10715 G1 X85.818 Y41.559
N10720 G1 X85.919 Y42.44
N10725 G1 X85.989 Y43.323
N10730 G1 X86.038 Y44.208
N10735 G1 X86.072 Y45.093
N10740 G1 X86.096 Y45.979
N10745 G1 X86.112 Y46.865
N10750 G1 X86.123 Y47.751
N10755 G1 X86.131 Y48.637
N10760 G1 X86.137 Y49.523
N10765 G1 X86.141 Y50.409
N10770 G1 X86.146 Y52.182
N10775 G1 X86.148 Y54.84
N10780 G1 X86.15 Y61.929
N10785 G1 Y75.221
N10790 G1 Y125.73
N10795 G1 Y138.135
N10800 G1 X86.148 Y139.022
N10805 G1 X86.12 Y139.907
N10810 G1 X86.041 Y140.735
N10815 G1 X85.924 Y141.39
N10820 G1 X85.76 Y142.02
N10825 G1 X85.571 Y142.559
N10830 G1 X85.342 Y143.077
N10835 G1 X85.097 Y143.53
N10840 G1 X84.813 Y143.966
N10845 G1 X84.516 Y144.351
N10850 G1 X84.172 Y144.729
N10855 G1 X83.814 Y145.064
N10860 G1 X83.443 Y145.359
N10865 G1 X83.049 Y145.624
N10870 G1 X82.631 Y145.859
N10875 G1 X82.204 Y146.055
N10880 G1 X81.781 Y146.21
N10885 G1 X81.342 Y146.332
N10890 G1 X80.887 Y146.419
N10895 G1 X80.431 Y146.47
N10900 G1 X79.99 Y146.483
N10905 G1 X79.517 Y146.458
N10910 G1 X79.072 Y146.4
N10915 G1 X78.618 Y146.302
N10920 G1 X78.185 Y146.172
N10925 G1 X77.77 Y146.01
N10930 G1 X77.361 Y145.811
N10935 G1 X76.992 Y145.594
N10940 G1 X76.611 Y145.326
N10945 G1 X76.272 Y145.043
N10950 G1 X75.95 Y144.729
N10955 G1 X75.649 Y144.383
N10960 G1 X75.385 Y144.026
N10965 G1 X74.918 Y143.274
N10970 G1 X74.485 Y142.5
N10975 G1 X74.04 Y141.734
N10980 G1 X73.611 Y140.959
N10985 G1 X73.219 Y140.164
N10990 G1 X72.871 Y139.349
N10995 G1 X72.575 Y138.514
N11000 G1 X72.33 Y137.662
N11005 G1 X72.131 Y136.799
N11010 G1 X71.972 Y135.927
N11015 G1 X71.847 Y135.05
N11020 G1 X71.751 Y134.169
N11025 G1 X71.676 Y133.286
N11030 G1 X71.619 Y132.402
N11035 G1 X71.576 Y131.517
N11040 G1 X71.544 Y130.631
N11045 G1 X71.519 Y129.745
N11050 G1 X71.501 Y128.859
N11055 G1 X71.488 Y127.973
N11060 G1 X71.478 Y127.087
N11065 G1 X71.47 Y126.201
N11070 G1 X71.465 Y125.315
N11075 G1 X71.461 Y124.429
N11080 G1 X71.458 Y123.543
N11085 G1 X71.454 Y121.771
N11090 G1 X71.451 Y118.226
N11095 G1 X71.45 Y106.706
N11100 G1 Y73.034
N11105 G1 Y72.148
N11110 G1 X71.434 Y71.927
N11115 G1 X71.412 Y71.607
N11120 G1 X71.391 Y71.248
N11125 G1 X71.369 Y70.838
N11130 G1 X71.347 Y70.362
N11135 G1 X71.326 Y69.793
N11140 G1 X71.304 Y69.088
N11145 G1 X71.283 Y68.202
N11150 G1 X71.268 Y67.316
N11155 G1 X71.258 Y66.43
N11160 G1 X71.251 Y65.544
N11165 G1 X71.246 Y64.658
N11170 G1 X71.242 Y63.772
N11175 G1 X71.238 Y61.999
N11180 G1 X71.235 Y59.341
N11185 G1 X71.234 Y51.366
N11190 G1 Y45.163
N11195 G1 X71.239 Y44.652
N11200 G1 X71.245 Y44.331
N11205 G1 X71.253 Y43.996
N11210 G1 X71.259 Y43.809
N11215 G1 X71.266 Y43.639
N11220 G1 X71.275 Y43.458
N11225 G1 X71.285 Y43.265
N11230 G1 X71.297 Y43.08
N11235 G1 X71.307 Y42.93
N11240 G1 X71.319 Y42.781
N11245 G1 X71.332 Y42.631
N11250 G1 X71.346 Y42.482
N11255 G1 X71.361 Y42.333
N11260 G1 X71.378 Y42.183
N11265 G1 X71.396 Y42.035
N11270 G1 X71.415 Y41.886
N11275 G1 X71.435 Y41.737
N11280 G1 X71.458 Y41.589
N11285 G1 X71.481 Y41.441
N11290 G1 X71.506 Y41.293
N11295 G1 X71.533 Y41.145
N11300 G1 X71.561 Y40.998
N11305 G1 X71.591 Y40.851
N11310 G1 X71.623 Y40.704
N11315 G1 X71.656 Y40.558
N11320 G1 X71.692 Y40.412
N11325 G1 X71.729 Y40.267
N11330 G1 X71.767 Y40.122
N11335 G1 X71.808 Y39.978
N11340 G1 X71.85 Y39.834
N11345 G1 X71.895 Y39.69
N11350 G1 X71.941 Y39.548
N11355 G1 X71.989 Y39.406
N11360 G1 X72.04 Y39.264
N11365 G1 X72.092 Y39.124
N11370 G1 X72.146 Y38.984
N11375 G1 X72.202 Y38.845
N11380 G1 X72.26 Y38.707
N11385 G1 X72.32 Y38.569
N11390 G1 X72.382 Y38.433
N11395 G1 X72.447 Y38.297
N11400 G1 X72.513 Y38.163
N11405 G1 X72.582 Y38.029
N11410 G1 X72.652 Y37.897
N11415 G1 X72.724 Y37.765
N11420 G1 X72.799 Y37.635
N11425 G1 X72.876 Y37.506
N11430 G1 X72.954 Y37.378
N11435 G1 X73.035 Y37.252
N11440 G1 X73.118 Y37.127
N11445 G1 X73.203 Y37.003
N11450 G1 X73.289 Y36.881
N11455 G1 X73.378 Y36.76
N11460 G1 X73.469 Y36.641
N11465 G1 X73.562 Y36.523
N11470 G1 X73.657 Y36.407
N11475 G1 X73.753 Y36.292
N11480 G1 X73.852 Y36.179
N11485 G1 X73.953 Y36.068
N11490 G1 X74.055 Y35.958
N11495 G1 X74.159 Y35.85
N11500 G1 X74.266 Y35.744
N11505 G1 X74.374 Y35.64
N11510 G1 X74.484 Y35.538
N11515 G1 X74.595 Y35.438
N11520 G1 X74.708 Y35.34
N11525 G1 X74.823 Y35.243
N11530 G1 X74.94 Y35.149
N11535 G1 X75.059 Y35.057
N11540 G1 X75.179 Y34.967
N11545 G1 X75.3 Y34.88
N11550 G1 X75.424 Y34.794
N11555 G1 X75.548 Y34.711
N11560 G1 X75.675 Y34.63
N11565 G1 X75.802 Y34.551
N11570 G1 X75.932 Y34.475
N11575 G1 X76.062 Y34.401
N11580 G1 X76.194 Y34.329
N11585 G1 X76.327 Y34.26
N11590 G1 X76.461 Y34.194
N11595 G1 X76.597 Y34.13
N11600 G1 X76.734 Y34.068
N11605 G1 X76.872 Y34.009
N11610 G1 X77.011 Y33.952
N11615 G1 X77.151 Y33.898
N11620 G1 X77.292 Y33.847
N11625 G1 X77.433 Y33.798
N11630 G1 X77.576 Y33.753
N11635 G1 X77.72 Y33.709
N11640 G1 X77.864 Y33.669
N11645 G1 X78.009 Y33.631
N11650 G1 X78.155 Y33.596
N11655 G1 X78.302 Y33.564
N11660 G1 X78.449 Y33.534
N11665 G1 X78.596 Y33.507
N11670 G1 X78.744 Y33.483
N11675 G1 X78.893 Y33.462
N11680 G1 X79.042 Y33.444
N11685 G1 X79.191 Y33.428
N11690 G1 X79.341 Y33.415
N11695 G1 X79.49 Y33.406
N11700 G1 X79.64 Y33.399
N11705 G1 X79.79 Y33.395
N11710 G1 X79.94 Y33.393
N11715 G1 X80.09 Y33.395
N11720 G1 X80.24 Y33.399
N11725 G1 X80.39 Y33.406
N11730 G1 X80.539 Y33.416
N11735 G1 X80.689 Y33.429
N11740 G1 X80.838 Y33.445
N11745 G1 X80.987 Y33.464
N11750 G1 X81.135 Y33.485
N11755 G1 X81.283 Y33.51
N11760 G1 X81.431 Y33.537
N11765 G1 X81.578 Y33.567
N11770 G1 X81.724 Y33.6
N11775 G1 X81.87 Y33.635
N11780 G1 X82.015 Y33.674
N11785 G1 X82.159 Y33.715
N11790 G1 X82.302 Y33.759
N11795 G1 X82.445 Y33.806
N11800 G1 X82.586 Y33.856
N11805 G1 X82.727 Y33.908
N11810 G1 X82.867 Y33.963
N11815 G1 X83.005 Y34.021
N11820 G1 X83.142 Y34.081
N11825 G1 X83.278 Y34.144
N11830 G1 X83.413 Y34.21
N11835 G1 X83.547 Y34.278
N11840 G1 X83.679 Y34.349
N11845 G1 X83.81 Y34.422
N11850 G1 X83.939 Y34.498
N11855 G1 X84.067 Y34.577
N11860 G1 X84.194 Y34.657
N11865 G1 X84.318 Y34.741
N11870 G1 X84.441 Y34.826
N11875 G1 X84.563 Y34.914
N11880 G1 X84.683 Y35.005
N11885 G1 X84.8 Y35.098
N11890 G1 X84.917 Y35.193
N11895 G1 X85.031 Y35.29
N11900 G1 X85.143 Y35.389
N11905 G1 X85.254 Y35.491
N11910 G1 X85.723 Y36.01
N11915 G1 X86.146 Y36.562
N11920 G1 X86.542 Y37.175
N11925 G1 X86.926 Y37.889
N11930 G1 X87.278 Y38.692
N11935 G1 X87.567 Y39.529
N11940 G1 X87.798 Y40.385
N11945 G1 X87.978 Y41.252
N11950 G1 X88.118 Y42.127
N11955 G1 X88.225 Y43.007
N11960 G1 X88.307 Y43.889
N11965 G1 X88.369 Y44.773
N11970 G1 X88.416 Y45.658
N11975 G1 X88.451 Y46.544
N11980 G1 X88.477 Y47.429
N11985 G1 X88.496 Y48.315
N11990 G1 X88.51 Y49.201
N11995 G1 X88.521 Y50.087
N12000 G1 X88.529 Y50.973
N12005 G1 X88.535 Y51.86
N12010 G1 X88.539 Y52.746
N12015 G1 X88.544 Y54.518
N12020 G1 X88.548 Y57.176
N12025 G1 X88.55 Y62.493
N12030 G1 Y84.646
N12035 G1 Y135.155
N12040 G1 Y136.041
N12045 G1 X88.566 Y136.262
N12050 G1 X88.58 Y136.482
N12055 G1 X88.594 Y136.719
N12060 G1 X88.607 Y136.979
N12065 G1 X88.617 Y137.206
N12070 G1 X88.623 Y137.369
N12075 G1 X88.628 Y137.542
N12080 G1 X88.632 Y137.726
N12085 G1 X88.635 Y137.922
N12090 G1 X88.636 Y138.123
N12095 G1 Y138.273
N12100 G1 X88.635 Y138.423
N12105 G1 X88.632 Y138.573
N12110 G1 X88.629 Y138.723
N12115 G1 X88.624 Y138.872
N12120 G1 X88.618 Y139.022
N12125 G1 X88.611 Y139.172
N12130 G1 X88.602 Y139.322
N12135 G1 X88.592 Y139.472
N12140 G1 X88.58 Y139.621
N12145 G1 X88.567 Y139.771
N12150 G1 X88.553 Y139.92
N12155 G1 X88.537 Y140.069
N12160 G1 X88.519 Y140.218
N12165 G1 X88.5 Y140.367
N12170 G1 X88.479 Y140.515
N12175 G1 X88.457 Y140.664
N12180 G1 X88.433 Y140.812
N12185 G1 X88.407 Y140.959
N12190 G1 X88.38 Y141.107
N12195 G1 X88.35 Y141.254
N12200 G1 X88.319 Y141.401
N12205 G1 X88.286 Y141.547
N12210 G1 X88.251 Y141.693
N12215 G1 X88.214 Y141.838
N12220 G1 X88.175 Y141.983
N12225 G1 X88.135 Y142.128
N12230 G1 X88.092 Y142.271
N12235 G1 X88.047 Y142.415
N12240 G1 X88.001 Y142.557
N12245 G1 X87.952 Y142.699
N12250 G1 X87.901 Y142.84
N12255 G1 X87.849 Y142.981
N12260 G1 X87.794 Y143.12
N12265 G1 X87.737 Y143.259
N12270 G1 X87.678 Y143.397
N12275 G1 X87.617 Y143.534
N12280 G1 X87.554 Y143.67
N12285 G1 X87.488 Y143.805
N12290 G1 X87.421 Y143.939
N12295 G1 X87.351 Y144.072
N12300 G1 X87.28 Y144.204
N12305 G1 X87.206 Y144.335
N12310 G1 X87.13 Y144.464
N12315 G1 X87.053 Y144.592
N12320 G1 X86.973 Y144.719
N12325 G1 X86.891 Y144.845
N12330 G1 X86.807 Y144.969
N12335 G1 X86.721 Y145.092
N12340 G1 X86.633 Y145.213
N12345 G1 X86.543 Y145.333
N12350 G1 X86.45 Y145.452
N12355 G1 X86.356 Y145.568
N12360 G1 X86.26 Y145.684
N12365 G1 X86.162 Y145.797
N12370 G1 X86.062 Y145.909
N12375 G1 X85.96 Y146.019
N12380 G1 X85.856 Y146.127
N12385 G1 X85.751 Y146.234
N12390 G1 X85.643 Y146.338
N12395 G1 X85.534 Y146.441
N12400 G1 X85.422 Y146.541
N12405 G1 X85.31 Y146.64
N12410 G1 X85.195 Y146.737
N12415 G1 X85.079 Y146.832
N12420 G1 X84.961 Y146.924
N12425 G1 X84.841 Y147.015
N12430 G1 X84.72 Y147.103
N12435 G1 X84.597 Y147.189
N12440 G1 X84.472 Y147.273
N12445 G1 X84.346 Y147.354
N12450 G1 X84.219 Y147.433
N12455 G1 X84.09 Y147.51
N12460 G1 X83.96 Y147.585
N12465 G1 X83.828 Y147.657
N12470 G1 X83.696 Y147.726
N12475 G1 X83.561 Y147.794
N12480 G1 X83.426 Y147.858
N12485 G1 X83.289 Y147.92
N12490 G1 X83.152 Y147.98
N12495 G1 X83.013 Y148.037
N12500 G1 X82.873 Y148.091
N12505 G1 X82.733 Y148.143
N12510 G1 X82.591 Y148.192
N12515 G1 X82.448 Y148.239
N12520 G1 X82.305 Y148.282
N12525 G1 X82.16 Y148.323
N12530 G1 X82.015 Y148.362
N12535 G1 X81.87 Y148.397
N12540 G1 X81.723 Y148.43
N12545 G1 X81.576 Y148.46
N12550 G1 X81.429 Y148.488
N12555 G1 X81.281 Y148.512
N12560 G1 X81.133 Y148.534
N12565 G1 X80.984 Y148.553
N12570 G1 X80.835 Y148.569
N12575 G1 X80.685 Y148.582
N12580 G1 X80.536 Y148.592
N12585 G1 X80.386 Y148.6
N12590 G1 X80.236 Y148.605
N12595 G1 X80.086 Y148.607
N12600 G1 X79.936 Y148.606
N12605 G1 X79.786 Y148.602
N12610 G1 X79.636 Y148.595
N12615 G1 X79.486 Y148.585
N12620 G1 X79.337 Y148.573
N12625 G1 X79.188 Y148.558
N12630 G1 X79.039 Y148.539
N12635 G1 X78.89 Y148.518
N12640 G1 X78.742 Y148.495
N12645 G1 X78.594 Y148.468
N12650 G1 X78.447 Y148.438
N12655 G1 X78.301 Y148.406
N12660 G1 X78.155 Y148.371
N12665 G1 X78.01 Y148.333
N12670 G1 X77.866 Y148.292
N12675 G1 X77.722 Y148.248
N12680 G1 X77.579 Y148.202
N12685 G1 X77.438 Y148.153
N12690 G1 X77.297 Y148.101
N12695 G1 X77.157 Y148.047
N12700 G1 X77.019 Y147.989
N12705 G1 X76.881 Y147.929
N12710 G1 X76.745 Y147.867
N12715 G1 X76.61 Y147.802
N12720 G1 X76.476 Y147.734
N12725 G1 X76.343 Y147.664
N12730 G1 X76.212 Y147.59
N12735 G1 X76.083 Y147.515
N12740 G1 X75.955 Y147.437
N12745 G1 X75.828 Y147.357
N12750 G1 X75.703 Y147.274
N12755 G1 X75.58 Y147.188
N12760 G1 X75.458 Y147.101
N12765 G1 X75.338 Y147.011
N12770 G1 X75.22 Y146.919
N12775 G1 X75.103 Y146.824
N12780 G1 X74.989 Y146.727
N12785 G1 X74.876 Y146.629
N12790 G1 X74.764 Y146.528
N12795 G1 X74.654 Y146.426
N12800 G1 X74.546 Y146.322
N12805 G1 X74.44 Y146.216
N12810 G1 X74.335 Y146.109
N12815 G1 X74.232 Y146
N12820 G1 X74.13 Y145.89
N12825 G1 X74.029 Y145.779
N12830 G1 X73.93 Y145.666
N12835 G1 X73.832 Y145.553
N12840 G1 X73.735 Y145.438
N12845 G1 X73.639 Y145.323
N12850 G1 X73.544 Y145.207
N12855 G1 X73.45 Y145.09
N12860 G1 X73.357 Y144.972
N12865 G1 X73.266 Y144.853
N12870 G1 X73.175 Y144.734
N12875 G1 X73.082 Y144.611
N12880 G1 X72.993 Y144.49
N12885 G1 X72.905 Y144.369
N12890 G1 X72.818 Y144.247
N12895 G1 X72.732 Y144.124
N12900 G1 X72.646 Y144
N12905 G1 X72.559 Y143.872
N12910 G1 X72.469 Y143.736
N12915 G1 X72.386 Y143.611
N12920 G1 X72.305 Y143.485
N12925 G1 X72.225 Y143.358
N12930 G1 X72.146 Y143.231
N12935 G1 X72.068 Y143.103
N12940 G1 X71.988 Y142.97
N12945 G1 X71.908 Y142.835
N12950 G1 X71.833 Y142.705
N12955 G1 X71.759 Y142.575
N12960 G1 X71.686 Y142.444
N12965 G1 X71.614 Y142.312
N12970 G1 X71.543 Y142.18
N12975 G1 X71.474 Y142.047
N12980 G1 X71.405 Y141.914
N12985 G1 X71.337 Y141.78
N12990 G1 X71.271 Y141.645
N12995 G1 X71.206 Y141.51
N13000 G1 X71.142 Y141.375
N13005 G1 X71.079 Y141.239
N13010 G1 X71.017 Y141.102
N13015 G1 X70.956 Y140.965
N13020 G1 X70.896 Y140.827
N13025 G1 X70.838 Y140.689
N13030 G1 X70.781 Y140.55
N13035 G1 X70.725 Y140.411
N13040 G1 X70.67 Y140.272
N13045 G1 X70.615 Y140.13
N13050 G1 X70.563 Y139.989
N13055 G1 X70.511 Y139.848
N13060 G1 X70.461 Y139.707
N13065 G1 X70.411 Y139.565
N13070 G1 X70.363 Y139.423
N13075 G1 X70.315 Y139.277
N13080 G1 X70.267 Y139.127
N13085 G1 X70.222 Y138.984
N13090 G1 X70.178 Y138.84
N13095 G1 X70.136 Y138.696
N13100 G1 X70.093 Y138.549
N13105 G1 X70.05 Y138.392
N13110 G1 X70.005 Y138.227
N13115 G1 X69.966 Y138.082
N13120 G1 X69.929 Y137.936
N13125 G1 X69.89 Y137.781
N13130 G1 X69.851 Y137.616
N13135 G1 X69.81 Y137.441
N13140 G1 X69.769 Y137.26
N13145 G1 X69.734 Y137.099
N13150 G1 X69.698 Y136.928
N13155 G1 X69.662 Y136.745
N13160 G1 X69.624 Y136.55
N13165 G1 X69.585 Y136.344
N13170 G1 X69.552 Y136.158
N13175 G1 X69.517 Y135.958
N13180 G1 X69.482 Y135.742
N13185 G1 X69.446 Y135.508
N13190 G1 X69.412 Y135.286
N13195 G1 X69.38 Y135.054
N13200 G1 X69.346 Y134.802
N13205 G1 X69.311 Y134.529
N13210 G1 X69.28 Y134.267
N13215 G1 X69.248 Y133.979
N13220 G1 X69.215 Y133.66
N13225 G1 X69.184 Y133.347
N13230 G1 X69.153 Y132.998
N13235 G1 X69.122 Y132.619
N13240 G1 X69.092 Y132.219
N13245 G1 X69.062 Y131.766
N13250 G1 X69.032 Y131.28
N13255 G1 X69.003 Y130.724
N13260 G1 X68.974 Y130.084
N13265 G1 X68.946 Y129.347
N13270 G1 X68.919 Y128.461
N13275 G1 X68.899 Y127.575
N13280 G1 X68.883 Y126.689
N13285 G1 X68.871 Y125.803
N13290 G1 X68.862 Y124.917
N13295 G1 X68.855 Y124.031
N13300 G1 X68.849 Y123.145
N13305 G1 X68.843 Y121.372
N13310 G1 X68.84 Y120.486
N13315 G1 X68.903 Y119.602
N13320 G1 X68.948 Y118.717
N13325 G1 X68.978 Y117.832
N13330 G1 X69 Y116.946
N13335 G1 X69.015 Y116.06
N13340 G1 X69.026 Y115.174
N13345 G1 X69.033 Y114.288
N13350 G1 X69.038 Y113.402
N13355 G1 X69.042 Y112.516
N13360 G1 X69.046 Y110.743
N13365 G1 X69.049 Y108.085
N13370 G1 X69.05 Y100.11
N13375 G1 Y74.412
N13380 G1 X69.035 Y73.526
N13385 G1 X69.011 Y72.641
N13390 G1 X68.958 Y70.869
N13395 G1 X68.934 Y69.983
N13400 G1 X68.913 Y69.097
N13405 G1 X68.896 Y68.211
N13410 G1 X68.882 Y67.325
N13415 G1 X68.871 Y66.439
N13420 G1 X68.862 Y65.553
N13425 G1 X68.855 Y64.667
N13430 G1 X68.85 Y63.781
N13435 G1 X68.843 Y62.009
N13440 G1 X68.839 Y60.237
N13445 G1 X68.835 Y56.692
N13450 G1 X68.834 Y47.831
N13455 G1 X68.835 Y46.945
N13460 G1 X68.84 Y46.059
N13465 G1 X68.855 Y45.173
N13470 G1 X68.886 Y44.287
N13475 G1 X68.939 Y43.403
N13480 G1 X69.023 Y42.52
N13485 G1 X69.141 Y41.642
N13490 G1 X69.301 Y40.771
N13495 G1 X69.507 Y39.909
N13500 G1 X69.762 Y39.06
N13505 G1 X70.071 Y38.23
N13510 G1 X70.435 Y37.422
N13515 G1 X70.855 Y36.642
N13520 G1 X71.331 Y35.894
N13525 G1 X71.863 Y35.186
N13530 G1 X72.449 Y34.522
N13535 G1 X72.762 Y34.219
N13540 G1 X72.921 Y34.076
N13545 G1 X73.081 Y33.939
N13550 G1 X73.722 Y33.404
N13555 G1 X74.084 Y33.148
N13560 G1 X74.177 Y33.087
N13565 G1 X74.27 Y33.028
N13570 G1 X74.29 Y33.008
N13575 G1 X74.298 Y32.981
N13580 G1 X74.291 Y32.953
N13585 G1 X74.272 Y32.932
N13590 G1 X74.245 Y32.924
N13595 G1 X74.217 Y32.929
N13600 G1 X74.196 Y32.948
N13605 G1 X74.186 Y32.974
N13610 G1 X74.19 Y33.002
N13615 G1 X74.208 Y33.024
N13620 G1 X74.234 Y33.035
N13625 G1 X74.262 Y33.032
N13630 G3 X74.982 Y32.784 I3.193 J8.126
N13635 G1 X75.056 Y32.768
N13640 G1 X75.132 Y32.76
N13645 G1 X75.207 Y32.762
N13650 G1 X81.195 Y33.312
N13655 G1 X81.27 Y33.324
N13660 G1 X81.342 Y33.345
N13665 G1 X81.412 Y33.375
N13670 G3 X82.075 Y33.749 I-3.957 J7.783
N13675 G1 X82.1 Y33.758
N13680 G1 X82.126 Y33.754
N13685 G1 X82.147 Y33.739
N13690 G1 X82.159 Y33.715
N13695 G1 X82.189 Y33.609
N13700 G1 X82.29 Y33.498
N13705 G1 X82.408 Y33.405
N13710 G1 X82.536 Y33.326
N13715 G1 X82.671 Y33.26
N13720 G1 X82.81 Y33.206
N13725 G1 X82.954 Y33.162
N13730 G1 X83.099 Y33.127
N13735 G1 X83.247 Y33.101
N13740 G1 X83.396 Y33.083
N13745 G1 X83.546 Y33.072
N13750 G1 X83.696 Y33.069
N13755 G1 X83.846 Y33.073
N13760 G1 X83.995 Y33.083
N13765 G1 X84.144 Y33.099
N13770 G1 X84.293 Y33.121
N13775 G1 X84.44 Y33.149
N13780 G1 X84.587 Y33.181
N13785 G1 X84.732 Y33.22
N13790 G1 X84.875 Y33.263
N13795 G1 X85.017 Y33.311
N13800 G1 X85.158 Y33.364
N13805 G1 X85.297 Y33.42
N13810 G1 X85.434 Y33.481
N13815 G1 X85.569 Y33.546
N13820 G1 X85.703 Y33.614
N13825 G1 X85.835 Y33.686
N13830 G1 X85.964 Y33.761
N13835 G1 X86.092 Y33.839
N13840 G1 X86.218 Y33.921
N13845 G1 X86.342 Y34.006
N13850 G1 X86.464 Y34.093
N13855 G1 X86.584 Y34.183
N13860 G1 X86.702 Y34.275
N13865 G1 X86.818 Y34.371
N13870 G1 X86.932 Y34.468
N13875 G1 X87.044 Y34.568
N13880 G1 X87.153 Y34.67
N13885 G1 X87.261 Y34.774
N13890 G1 X87.368 Y34.88
N13895 G1 X87.472 Y34.989
N13900 G1 X87.573 Y35.099
N13905 G1 X87.673 Y35.211
N13910 G1 X87.771 Y35.324
N13915 G1 X87.867 Y35.44
N13920 G1 X87.961 Y35.556
N13925 G1 X88.054 Y35.674
N13930 G1 X88.144 Y35.794
N13935 G1 X88.232 Y35.916
N13940 G1 X88.318 Y36.038
N13945 G1 X88.403 Y36.162
N13950 G1 X88.486 Y36.287
N13955 G1 X88.567 Y36.414
N13960 G1 X88.646 Y36.541
N13965 G1 X88.723 Y36.67
N13970 G1 X88.798 Y36.8
N13975 G1 X88.871 Y36.931
N13980 G1 X88.943 Y37.062
N13985 G1 X89.013 Y37.195
N13990 G1 X89.081 Y37.329
N13995 G1 X89.148 Y37.463
N14000 G1 X89.212 Y37.598
N14005 G1 X89.275 Y37.734
N14010 G1 X89.337 Y37.871
N14015 G1 X89.396 Y38.009
N14020 G1 X89.455 Y38.147
N14025 G1 X89.512 Y38.286
N14030 G1 X89.567 Y38.425
N14035 G1 X89.62 Y38.566
N14040 G1 X89.672 Y38.706
N14045 G1 X89.723 Y38.847
N14050 G1 X89.772 Y38.989
N14055 G1 X89.82 Y39.131
N14060 G1 X89.866 Y39.274
N14065 G1 X89.911 Y39.417
N14070 G1 X89.955 Y39.561
N14075 G1 X89.997 Y39.705
N14080 G1 X90.038 Y39.849
N14085 G1 X90.078 Y39.993
N14090 G1 X90.117 Y40.138
N14095 G1 X90.154 Y40.284
N14100 G1 X90.19 Y40.429
N14105 G1 X90.225 Y40.575
N14110 G1 X90.261 Y40.728
N14115 G1 X90.295 Y40.879
N14120 G1 X90.327 Y41.026
N14125 G1 X90.359 Y41.179
N14130 G1 X90.392 Y41.341
N14135 G1 X90.425 Y41.514
N14140 G1 X90.459 Y41.698
N14145 G1 X90.49 Y41.871
N14150 G1 X90.521 Y42.052
N14155 G1 X90.553 Y42.245
N14160 G1 X90.585 Y42.452
N14165 G1 X90.618 Y42.67
N14170 G1 X90.648 Y42.881
N14175 G1 X90.678 Y43.109
N14180 G1 X90.709 Y43.357
N14185 G1 X90.74 Y43.617
N14190 G1 X90.77 Y43.88
N14195 G1 X90.8 Y44.169
N14200 G1 X90.83 Y44.484
N14205 G1 X90.859 Y44.805
N14210 G1 X90.888 Y45.166
N14215 G1 X90.917 Y45.553
N14220 G1 X90.946 Y45.979
N14225 G1 X90.974 Y46.454
N14230 G1 X91.002 Y46.992
N14235 G1 X91.03 Y47.602
N14240 G1 X91.057 Y48.329
N14245 G1 X91.084 Y49.215
N14250 G1 X91.104 Y50.101
N14255 G1 X91.12 Y50.987
N14260 G1 X91.131 Y51.873
N14265 G1 X91.14 Y52.759
N14270 G1 X91.147 Y53.645
N14275 G1 X91.152 Y54.531
N14280 G1 X91.158 Y56.303
N14285 G1 X91.163 Y58.962
N14290 G1 X91.165 Y63.392
N14295 G1 X91.166 Y78.456
N14300 G1 Y79.342
N14305 G1 X91.101 Y80.226
N14310 G1 X91.056 Y81.111
N14315 G1 X91.024 Y81.997
N14320 G1 X91.002 Y82.882
N14325 G1 X90.986 Y83.768
N14330 G1 X90.975 Y84.655
N14335 G1 X90.968 Y85.541
N14340 G1 X90.962 Y86.427
N14345 G1 X90.959 Y87.313
N14350 G1 X90.954 Y89.085
N14355 G1 X90.951 Y91.743
N14360 G1 X90.95 Y99.719
N14365 G1 Y128.961
N14370 G1 Y133.391
N14375 G1 X90.958 Y134.277
N14380 G1 X90.994 Y136.049
N14385 G1 X91.003 Y136.935
N14390 G1 X90.992 Y137.821
N14395 G1 X90.956 Y138.707
N14400 G1 X90.886 Y139.59
N14405 G1 X90.778 Y140.47
N14410 G1 X90.624 Y141.342
N14415 G1 X90.421 Y142.205
N14420 G1 X90.166 Y143.053
N14425 G1 X89.855 Y143.883
N14430 G1 X89.488 Y144.69
N14435 G1 X89.063 Y145.467
N14440 G1 X88.58 Y146.211
N14445 G1 X88.042 Y146.914
N14450 G1 X87.455 Y147.567
N14455 G1 X87.141 Y147.864
N14460 G1 X86.982 Y148.003
N14465 G1 X86.341 Y148.547
N14470 G1 X85.981 Y148.805
N14475 G1 X85.889 Y148.866
N14480 G1 X85.796 Y148.927
N14485 G1 X85.812 Y148.92
N14490 G3 X84.699 Y149.124 I-2.893 J-12.641
N14495 G1 X84.633 Y149.13
N14500 G1 X84.566 Y149.128
N14505 G1 X79.135 Y148.668
N14510 G1 X79.069 Y148.658
N14515 G1 X79.004 Y148.642
N14520 G3 X77.942 Y148.254 I3.915 J-12.363
N14525 G1 X77.918 Y148.249
N14530 G1 X77.895 Y148.255
N14535 G1 X77.876 Y148.27
N14540 G1 X77.866 Y148.292
N14545 G1 X77.835 Y148.398
N14550 G1 X77.735 Y148.51
N14555 G1 X77.618 Y148.603
N14560 G1 X77.49 Y148.682
N14565 G1 X77.356 Y148.749
N14570 G1 X77.216 Y148.804
N14575 G1 X77.073 Y148.848
N14580 G1 X76.927 Y148.884
N14585 G1 X76.78 Y148.91
N14590 G1 X76.631 Y148.929
N14595 G1 X76.481 Y148.939
N14600 G1 X76.331 Y148.943
N14605 G1 X76.181 Y148.94
N14610 G1 X76.031 Y148.93
N14615 G1 X75.882 Y148.915
N14620 G1 X75.734 Y148.893
N14625 G1 X75.586 Y148.866
N14630 G1 X75.44 Y148.835
N14635 G1 X75.294 Y148.798
N14640 G1 X75.15 Y148.757
N14645 G1 X75.007 Y148.711
N14650 G1 X74.866 Y148.661
N14655 G1 X74.726 Y148.607
N14660 G1 X74.587 Y148.55
N14665 G1 X74.45 Y148.488
N14670 G1 X74.315 Y148.424
N14675 G1 X74.181 Y148.356
N14680 G1 X74.048 Y148.286
N14685 G1 X73.918 Y148.212
N14690 G1 X73.789 Y148.136
N14695 G1 X73.661 Y148.057
N14700 G1 X73.535 Y147.976
N14705 G1 X73.41 Y147.892
N14710 G1 X73.287 Y147.806
N14715 G1 X73.166 Y147.718
N14720 G1 X73.046 Y147.628
N14725 G1 X72.928 Y147.536
N14730 G1 X72.81 Y147.442
N14735 G1 X72.695 Y147.347
N14740 G1 X72.581 Y147.249
N14745 G1 X72.468 Y147.151
N14750 G1 X72.357 Y147.05
N14755 G1 X72.246 Y146.948
N14760 G1 X72.138 Y146.845
N14765 G1 X72.03 Y146.74
N14770 G1 X71.924 Y146.634
N14775 G1 X71.82 Y146.527
N14780 G1 X71.716 Y146.418
N14785 G1 X71.614 Y146.308
N14790 G1 X71.513 Y146.197
N14795 G1 X71.413 Y146.085
N14800 G1 X71.315 Y145.972
N14805 G1 X71.218 Y145.858
N14810 G1 X71.122 Y145.742
N14815 G1 X71.027 Y145.626
N14820 G1 X70.933 Y145.509
N14825 G1 X70.841 Y145.391
N14830 G1 X70.749 Y145.272
N14835 G1 X70.659 Y145.152
N14840 G1 X70.57 Y145.031
N14845 G1 X70.483 Y144.91
N14850 G1 X70.396 Y144.787
N14855 G1 X70.311 Y144.664
N14860 G1 X70.226 Y144.54
N14865 G1 X70.143 Y144.415
N14870 G1 X70.061 Y144.289
N14875 G1 X69.98 Y144.163
N14880 G1 X69.9 Y144.036
N14885 G1 X69.821 Y143.908
N14890 G1 X69.744 Y143.78
N14895 G1 X69.667 Y143.651
N14900 G1 X69.592 Y143.521
N14905 G1 X69.518 Y143.391
N14910 G1 X69.445 Y143.26
N14915 G1 X69.372 Y143.129
N14920 G1 X69.301 Y142.996
N14925 G1 X69.232 Y142.864
N14930 G1 X69.163 Y142.73
N14935 G1 X69.095 Y142.597
N14940 G1 X69.028 Y142.462
N14945 G1 X68.963 Y142.327
N14950 G1 X68.898 Y142.192
N14955 G1 X68.835 Y142.056
N14960 G1 X68.772 Y141.92
N14965 G1 X68.711 Y141.783
N14970 G1 X68.651 Y141.645
N14975 G1 X68.592 Y141.508
N14980 G1 X68.533 Y141.369
N14985 G1 X68.476 Y141.231
N14990 G1 X68.42 Y141.091
N14995 G1 X68.364 Y140.95
N15000 G1 X68.309 Y140.808
N15005 G1 X68.255 Y140.663
N15010 G1 X68.2 Y140.516
N15015 G1 X68.146 Y140.367
N15020 G1 X68.093 Y140.216
N15025 G1 X68.04 Y140.064
N15030 G1 X67.988 Y139.91
N15035 G1 X67.937 Y139.752
N15040 G1 X67.885 Y139.591
N15045 G1 X67.834 Y139.429
N15050 G1 X67.784 Y139.265
N15055 G1 X67.735 Y139.098
N15060 G1 X67.686 Y138.927
N15065 G1 X67.637 Y138.753
N15070 G1 X67.589 Y138.577
N15075 G1 X67.541 Y138.397
N15080 G1 X67.494 Y138.213
N15085 G1 X67.447 Y138.026
N15090 G1 X67.401 Y137.836
N15095 G1 X67.355 Y137.639
N15100 G1 X67.31 Y137.437
N15105 G1 X67.265 Y137.234
N15110 G1 X67.221 Y137.024
N15115 G1 X67.177 Y136.806
N15120 G1 X67.134 Y136.586
N15125 G1 X67.091 Y136.359
N15130 G1 X67.048 Y136.121
N15135 G1 X67.007 Y135.882
N15140 G1 X66.966 Y135.63
N15145 G1 X66.924 Y135.369
N15150 G1 X66.885 Y135.104
N15155 G1 X66.844 Y134.819
N15160 G1 X66.805 Y134.531
N15165 G1 X66.766 Y134.225
N15170 G1 X66.728 Y133.905
N15175 G1 X66.69 Y133.571
N15180 G1 X66.652 Y133.209
N15185 G1 X66.616 Y132.839
N15190 G1 X66.578 Y132.426
N15195 G1 X66.544 Y132.007
N15200 G1 X66.507 Y131.525
N15205 G1 X66.474 Y131.035
N15210 G1 X66.44 Y130.473
N15215 G1 X66.407 Y129.864
N15220 G1 X66.375 Y129.174
N15225 G1 X66.344 Y128.368
N15230 G1 X66.316 Y127.483
N15235 G1 X66.294 Y126.597
N15240 G1 X66.277 Y125.711
N15245 G1 X66.263 Y124.825
N15250 G1 X66.253 Y123.939
N15255 G1 X66.246 Y123.093
N15260 G1 X66.245 Y122.793
N15265 G1 X66.247 Y122.459
N15270 G1 X66.255 Y121.889
N15275 G1 X66.274 Y121.003
N15280 G1 X66.322 Y119.232
N15285 G1 X66.344 Y118.346
N15290 G1 X66.363 Y117.46
N15295 G1 X66.378 Y116.574
N15300 G1 X66.391 Y115.688
N15305 G1 X66.401 Y114.802
N15310 G1 X66.409 Y113.916
N15315 G1 X66.415 Y113.03
N15320 G1 X66.42 Y112.144
N15325 G1 X66.426 Y110.371
N15330 G1 X66.431 Y107.713
N15335 G1 X66.433 Y104.169
N15340 G1 Y103.283
N15345 G1 X66.498 Y102.399
N15350 G1 X66.544 Y101.514
N15355 G1 X66.576 Y100.628
N15360 G1 X66.598 Y99.742
N15365 G1 X66.614 Y98.856
N15370 G1 X66.625 Y97.97
N15375 G1 X66.632 Y97.084
N15380 G1 X66.638 Y96.198
N15385 G1 X66.641 Y95.312
N15390 G1 X66.646 Y93.54
N15395 G1 X66.649 Y90.881
N15400 G1 X66.65 Y82.906
N15405 G1 Y76.703
N15410 G1 X66.646 Y75.817
N15415 G1 X66.637 Y74.931
N15420 G1 X66.623 Y74.045
N15425 G1 X66.605 Y73.159
N15430 G1 X66.545 Y70.502
N15435 G1 X66.527 Y69.616
N15440 G1 X66.511 Y68.73
N15445 G1 X66.497 Y67.844
N15450 G1 X66.485 Y66.958
N15455 G1 X66.475 Y66.072
N15460 G1 X66.466 Y65.186
N15465 G1 X66.459 Y64.299
N15470 G1 X66.454 Y63.413
N15475 G1 X66.446 Y61.641
N15480 G1 X66.441 Y59.869
N15485 G1 X66.437 Y57.21
N15490 G1 X66.435 Y53.666
N15495 G1 Y52.78
N15500 G1 X66.419 Y52.559
N15505 G1 X66.397 Y52.24
N15510 G1 X66.375 Y51.882
N15515 G1 X66.354 Y51.474
N15520 G1 X66.332 Y50.999
N15525 G1 X66.31 Y50.44
N15530 G1 X66.29 Y49.776
N15535 G1 X66.272 Y49.041
N15540 G1 X66.261 Y48.369
N15545 G1 X66.256 Y47.751
N15550 G1 X66.255 Y47.158
N15555 G1 X66.257 Y46.747
N15560 G1 X66.263 Y46.292
N15565 G1 X66.27 Y45.935
N15570 G1 X66.279 Y45.609
N15575 G1 X66.292 Y45.241
N15580 G1 X66.304 Y44.975
N15585 G1 X66.316 Y44.72
N15590 G1 X66.332 Y44.441
N15595 G1 X66.351 Y44.15
N15600 G1 X66.365 Y43.95
N15605 G1 X66.382 Y43.741
N15610 G1 X66.401 Y43.515
N15615 G1 X66.424 Y43.27
N15620 G1 X66.445 Y43.062
N15625 G1 X66.464 Y42.893
N15630 G1 X66.485 Y42.714
N15635 G1 X66.508 Y42.523
N15640 G1 X66.535 Y42.318
N15645 G1 X66.563 Y42.115
N15650 G1 X66.585 Y41.966
N15655 G1 X66.608 Y41.816
N15660 G1 X66.634 Y41.657
N15665 G1 X66.662 Y41.49
N15670 G1 X66.693 Y41.311
N15675 G1 X66.727 Y41.128
N15680 G1 X66.755 Y40.98
N15685 G1 X66.785 Y40.833
N15690 G1 X66.815 Y40.686
N15695 G1 X66.847 Y40.54
N15700 G1 X66.881 Y40.386
N15705 G1 X66.919 Y40.224
N15710 G1 X66.956 Y40.067
N15715 G1 X66.992 Y39.921
N15720 G1 X67.03 Y39.776
N15725 G1 X67.068 Y39.631
N15730 G1 X67.108 Y39.486
N15735 G1 X67.149 Y39.342
N15740 G1 X67.192 Y39.195
N15745 G1 X67.235 Y39.051
N15750 G1 X67.279 Y38.908
N15755 G1 X67.325 Y38.765
N15760 G1 X67.372 Y38.622
N15765 G1 X67.42 Y38.48
N15770 G1 X67.469 Y38.339
N15775 G1 X67.52 Y38.197
N15780 G1 X67.572 Y38.057
N15785 G1 X67.625 Y37.916
N15790 G1 X67.679 Y37.776
N15795 G1 X67.734 Y37.637
N15800 G1 X67.791 Y37.498
N15805 G1 X67.85 Y37.36
N15810 G1 X67.909 Y37.222
N15815 G1 X67.97 Y37.085
N15820 G1 X68.032 Y36.948
N15825 G1 X68.095 Y36.812
N15830 G1 X68.159 Y36.677
N15835 G1 X68.226 Y36.542
N15840 G1 X68.293 Y36.408
N15845 G1 X68.362 Y36.275
N15850 G1 X68.431 Y36.142
N15855 G1 X68.502 Y36.01
N15860 G1 X68.574 Y35.879
N15865 G1 X68.648 Y35.748
N15870 G1 X68.723 Y35.618
N15875 G1 X68.8 Y35.489
N15880 G1 X68.878 Y35.361
N15885 G1 X68.957 Y35.233
N15890 G1 X69.037 Y35.107
N15895 G1 X69.118 Y34.981
N15900 G1 X69.201 Y34.856
N15905 G1 X69.285 Y34.731
N15910 G1 X69.371 Y34.608
N15915 G1 X69.458 Y34.486
N15920 G1 X69.547 Y34.365
N15925 G1 X69.636 Y34.245
N15930 G1 X69.728 Y34.126
N15935 G1 X69.82 Y34.008
N15940 G1 X69.914 Y33.891
N15945 G1 X70.009 Y33.775
N15950 G1 X70.106 Y33.66
N15955 G1 X70.203 Y33.546
N15960 G1 X70.348 Y33.379
N15965 G1 X70.465 Y33.191
N15970 G1 X70.551 Y32.986
N15975 G1 X70.604 Y32.771
N15980 G1 X70.622 Y32.55
N15985 G1 X70.605 Y32.329
N15990 G1 X70.553 Y32.114
N15995 G1 X70.468 Y31.909
N16000 G1 X70.352 Y31.721
N16005 G1 X70.208 Y31.553
N16010 G1 X70.039 Y31.41
N16015 G1 X69.849 Y31.295
N16020 G1 X69.028 Y30.962
N16025 G1 X68.148 Y30.86
N16030 G1 X67.265 Y30.788
N16035 G1 X66.38 Y30.737
N16040 G1 X65.495 Y30.701
N16045 G1 X64.609 Y30.676
N16050 G1 X64.372 Y30.671
N16055 G1 X64.065 Y30.631
N16060 G1 X63.775 Y30.524
N16065 G1 X63.515 Y30.356
N16070 G1 X63.298 Y30.135
N16075 G1 X63.135 Y29.871
N16080 G1 X63.034 Y29.579
N16085 G1 X63 Y29.271
N16090 G3 X63.465 Y28.707 I0.6 J0.021
N16095 G1 X63.556 Y28.686 Z13.007
N16100 G1 X63.645 Y28.666 Z13.029
N16105 G1 X63.73 Y28.646 Z13.065
N16110 G1 X63.808 Y28.628 Z13.115
N16115 G1 X63.878 Y28.612 Z13.176
N16120 G1 X63.938 Y28.598 Z13.247
N16125 G1 X63.986 Y28.587 Z13.328
N16130 G1 X64.021 Y28.579 Z13.415
N16135 G1 X64.042 Y28.574 Z13.506
N16140 G1 X64.049 Y28.573 Z13.6
N16145 G0 Z23
N16150 G0 X96.381 Y24.112
N16155 G0 Z14.2
N16160 G1 Z13.6 F2286
N16165 G1 X96.383 Y24.119 Z13.506
N16170 G1 X96.389 Y24.14 Z13.415
N16175 G1 X96.398 Y24.175 Z13.328
N16180 G1 X96.41 Y24.223 Z13.247
N16185 G1 X96.425 Y24.282 Z13.176
N16190 G1 X96.443 Y24.352 Z13.115
N16195 G1 X96.463 Y24.429 Z13.065
N16200 G1 X96.484 Y24.514 Z13.029
N16205 G1 X96.507 Y24.602 Z13.007
N16210 G1 X96.53 Y24.693 Z13
N16215 G3 X97 Y27.96 I-14.839 J3.801
N16220 G1 Y28.263
N16225 G1 X96.998 Y28.3
N16230 G1 X96.916 Y28.426
N16235 G1 X96.823 Y28.543
N16240 G1 X96.722 Y28.654
N16245 G1 X96.614 Y28.758
N16250 G1 X96.501 Y28.857
N16255 G1 X96.383 Y28.95
N16260 G1 X96.262 Y29.037
N16265 G1 X96.136 Y29.12
N16270 G1 X96.008 Y29.198
N16275 G1 X95.878 Y29.272
N16280 G1 X95.745 Y29.342
N16285 G1 X95.611 Y29.409
N16290 G1 X95.474 Y29.471
N16295 G1 X95.337 Y29.531
N16300 G1 X95.198 Y29.587
N16305 G1 X95.057 Y29.64
N16310 G1 X94.916 Y29.69
N16315 G1 X94.774 Y29.738
N16320 G1 X94.631 Y29.783
N16325 G1 X94.487 Y29.826
N16330 G1 X94.343 Y29.866
N16335 G1 X94.198 Y29.905
N16340 G1 X94.052 Y29.941
N16345 G1 X93.906 Y29.976
N16350 G1 X93.76 Y30.009
N16355 G1 X93.613 Y30.04
N16360 G1 X93.466 Y30.069
N16365 G1 X93.318 Y30.097
N16370 G1 X93.171 Y30.123
N16375 G1 X93.023 Y30.148
N16380 G1 X92.875 Y30.172
N16385 G1 X92.727 Y30.195
N16390 G1 X92.578 Y30.216
N16395 G1 X92.423 Y30.238
N16400 G1 X92.258 Y30.259
N16405 G1 X92.083 Y30.28
N16410 G1 X91.896 Y30.302
N16415 G1 X91.696 Y30.323
N16420 G1 X91.48 Y30.345
N16425 G1 X91.242 Y30.366
N16430 G1 X90.988 Y30.388
N16435 G1 X90.709 Y30.409
N16440 G1 X90.401 Y30.431
N16445 G1 X90.18 Y30.445
N16450 G1 X89.959 Y30.457
N16455 G1 X89.742 Y30.505
N16460 G1 X89.536 Y30.586
N16465 G1 X89.345 Y30.699
N16470 G1 X89.175 Y30.84
N16475 G1 X89.028 Y31.006
N16480 G1 X88.91 Y31.194
N16485 G1 X88.823 Y31.397
N16490 G1 X88.769 Y31.612
N16495 G1 X88.75 Y31.833
N16500 G1 X88.766 Y32.054
N16505 G1 X88.816 Y32.27
N16510 G1 X89.151 Y33.09
N16515 G1 X89.245 Y33.207
N16520 G1 X89.339 Y33.324
N16525 G1 X89.431 Y33.442
N16530 G1 X89.522 Y33.561
N16535 G1 X89.612 Y33.681
N16540 G1 X89.702 Y33.802
N16545 G1 X89.79 Y33.923
N16550 G1 X89.877 Y34.045
N16555 G1 X89.963 Y34.168
N16560 G1 X90.048 Y34.292
N16565 G1 X90.132 Y34.416
N16570 G1 X90.215 Y34.541
N16575 G1 X90.296 Y34.667
N16580 G1 X90.377 Y34.794
N16585 G1 X90.456 Y34.921
N16590 G1 X90.534 Y35.049
N16595 G1 X90.611 Y35.178
N16600 G1 X90.687 Y35.307
N16605 G1 X90.761 Y35.438
N16610 G1 X90.834 Y35.568
N16615 G1 X90.906 Y35.7
N16620 G1 X90.977 Y35.832
N16625 G1 X91.047 Y35.965
N16630 G1 X91.116 Y36.098
N16635 G1 X91.183 Y36.232
N16640 G1 X91.249 Y36.367
N16645 G1 X91.314 Y36.502
N16650 G1 X91.378 Y36.638
N16655 G1 X91.44 Y36.774
N16660 G1 X91.501 Y36.911
N16665 G1 X91.562 Y37.049
N16670 G1 X91.621 Y37.187
N16675 G1 X91.678 Y37.325
N16680 G1 X91.735 Y37.464
N16685 G1 X91.79 Y37.603
N16690 G1 X91.845 Y37.743
N16695 G1 X91.898 Y37.884
N16700 G1 X91.95 Y38.024
N16705 G1 X92.001 Y38.165
N16710 G1 X92.051 Y38.307
N16715 G1 X92.099 Y38.449
N16720 G1 X92.147 Y38.591
N16725 G1 X92.194 Y38.733
N16730 G1 X92.239 Y38.878
N16735 G1 X92.285 Y39.024
N16740 G1 X92.33 Y39.172
N16745 G1 X92.374 Y39.324
N16750 G1 X92.419 Y39.48
N16755 G1 X92.463 Y39.637
N16760 G1 X92.506 Y39.797
N16765 G1 X92.55 Y39.963
N16770 G1 X92.592 Y40.13
N16775 G1 X92.635 Y40.301
N16780 G1 X92.677 Y40.479
N16785 G1 X92.719 Y40.658
N16790 G1 X92.76 Y40.842
N16795 G1 X92.801 Y41.034
N16800 G1 X92.841 Y41.226
N16805 G1 X92.882 Y41.428
N16810 G1 X92.922 Y41.635
N16815 G1 X92.961 Y41.846
N16820 G1 X93.001 Y42.07
N16825 G1 X93.039 Y42.294
N16830 G1 X93.078 Y42.532
N16835 G1 X93.116 Y42.776
N16840 G1 X93.154 Y43.031
N16845 G1 X93.191 Y43.298
N16850 G1 X93.228 Y43.574
N16855 G1 X93.265 Y43.869
N16860 G1 X93.301 Y44.172
N16865 G1 X93.337 Y44.501
N16870 G1 X93.372 Y44.837
N16875 G1 X93.407 Y45.21
N16880 G1 X93.441 Y45.593
N16885 G1 X93.476 Y46.021
N16890 G1 X93.509 Y46.474
N16895 G1 X93.543 Y46.975
N16900 G1 X93.574 Y47.514
N16905 G1 X93.606 Y48.132
N16910 G1 X93.637 Y48.833
N16915 G1 X93.667 Y49.646
N16920 G1 X93.693 Y50.531
N16925 G1 X93.714 Y51.417
N16930 G1 X93.729 Y52.303
N16935 G1 X93.742 Y53.189
N16940 G1 X93.751 Y54.075
N16945 G1 X93.759 Y54.961
N16950 G1 X93.764 Y55.848
N16955 G1 X93.768 Y56.734
N16960 G1 X93.774 Y58.506
N16965 G1 X93.779 Y61.164
N16970 G1 X93.781 Y65.595
N16975 G1 X93.782 Y71.798
N16980 G1 Y72.684
N16985 G1 X93.717 Y73.568
N16990 G1 X93.672 Y74.453
N16995 G1 X93.64 Y75.338
N17000 G1 X93.618 Y76.224
N17005 G1 X93.602 Y77.11
N17010 G1 X93.578 Y77.996
N17015 G1 X93.511 Y79.767
N17020 G1 X93.48 Y80.652
N17025 G1 X93.453 Y81.538
N17030 G1 X93.43 Y82.424
N17035 G1 X93.412 Y83.31
N17040 G1 X93.397 Y84.196
N17045 G1 X93.386 Y85.082
N17050 G1 X93.377 Y85.968
N17055 G1 X93.37 Y86.854
N17060 G1 X93.365 Y87.74
N17065 G1 X93.358 Y89.512
N17070 G1 X93.355 Y91.285
N17075 G1 X93.351 Y94.829
N17080 G1 X93.35 Y104.576
N17085 G1 Y122.299
N17090 G1 Y123.185
N17095 G1 X93.366 Y123.406
N17100 G1 X93.388 Y123.726
N17105 G1 X93.409 Y124.085
N17110 G1 X93.431 Y124.494
N17115 G1 X93.453 Y124.971
N17120 G1 X93.474 Y125.54
N17125 G1 X93.496 Y126.245
N17130 G1 X93.517 Y127.131
N17135 G1 X93.532 Y128.017
N17140 G1 X93.542 Y128.903
N17145 G1 X93.549 Y129.789
N17150 G1 X93.558 Y131.561
N17155 G1 X93.565 Y132.447
N17160 G1 X93.575 Y133.333
N17165 G1 X93.586 Y134.219
N17170 G1 X93.591 Y134.662
N17175 G1 X93.595 Y135.279
N17180 G1 Y135.814
N17185 G1 X93.592 Y136.17
N17190 G1 X93.587 Y136.511
N17195 G1 X93.578 Y136.89
N17200 G1 X93.571 Y137.133
N17205 G1 X93.561 Y137.383
N17210 G1 X93.549 Y137.657
N17215 G1 X93.535 Y137.939
N17220 G1 X93.523 Y138.13
N17225 G1 X93.51 Y138.329
N17230 G1 X93.494 Y138.542
N17235 G1 X93.475 Y138.773
N17240 G1 X93.456 Y138.991
N17245 G1 X93.441 Y139.15
N17250 G1 X93.423 Y139.317
N17255 G1 X93.404 Y139.494
N17260 G1 X93.381 Y139.682
N17265 G1 X93.356 Y139.884
N17270 G1 X93.333 Y140.054
N17275 G1 X93.312 Y140.202
N17280 G1 X93.29 Y140.351
N17285 G1 X93.266 Y140.504
N17290 G1 X93.24 Y140.667
N17295 G1 X93.21 Y140.839
N17300 G1 X93.179 Y141.01
N17305 G1 X93.152 Y141.158
N17310 G1 X93.123 Y141.305
N17315 G1 X93.093 Y141.452
N17320 G1 X93.062 Y141.599
N17325 G1 X93.029 Y141.746
N17330 G1 X92.994 Y141.902
N17335 G1 X92.958 Y142.053
N17340 G1 X92.922 Y142.198
N17345 G1 X92.886 Y142.344
N17350 G1 X92.847 Y142.489
N17355 G1 X92.808 Y142.634
N17360 G1 X92.767 Y142.778
N17365 G1 X92.725 Y142.922
N17370 G1 X92.682 Y143.066
N17375 G1 X92.638 Y143.209
N17380 G1 X92.593 Y143.352
N17385 G1 X92.546 Y143.494
N17390 G1 X92.498 Y143.636
N17395 G1 X92.448 Y143.778
N17400 G1 X92.397 Y143.919
N17405 G1 X92.345 Y144.06
N17410 G1 X92.292 Y144.2
N17415 G1 X92.238 Y144.34
N17420 G1 X92.182 Y144.479
N17425 G1 X92.125 Y144.618
N17430 G1 X92.066 Y144.756
N17435 G1 X92.006 Y144.894
N17440 G1 X91.945 Y145.031
N17445 G1 X91.883 Y145.167
N17450 G1 X91.82 Y145.303
N17455 G1 X91.754 Y145.438
N17460 G1 X91.688 Y145.572
N17465 G1 X91.62 Y145.706
N17470 G1 X91.551 Y145.839
N17475 G1 X91.48 Y145.972
N17480 G1 X91.409 Y146.104
N17485 G1 X91.336 Y146.235
N17490 G1 X91.262 Y146.365
N17495 G1 X91.186 Y146.494
N17500 G1 X91.109 Y146.623
N17505 G1 X91.03 Y146.751
N17510 G1 X90.95 Y146.878
N17515 G1 X90.869 Y147.004
N17520 G1 X90.787 Y147.13
N17525 G1 X90.704 Y147.254
N17530 G1 X90.618 Y147.378
N17535 G1 X90.532 Y147.5
N17540 G1 X90.444 Y147.622
N17545 G1 X90.355 Y147.742
N17550 G1 X90.264 Y147.862
N17555 G1 X90.172 Y147.98
N17560 G1 X90.079 Y148.098
N17565 G1 X89.984 Y148.214
N17570 G1 X89.888 Y148.329
N17575 G1 X89.791 Y148.444
N17580 G1 X89.647 Y148.612
N17585 G1 X89.53 Y148.8
N17590 G1 X89.445 Y149.005
N17595 G1 X89.393 Y149.22
N17600 G1 X89.376 Y149.441
N17605 G1 X89.394 Y149.662
N17610 G1 X89.446 Y149.877
N17615 G1 X89.532 Y150.081
N17620 G1 X89.649 Y150.27
N17625 G1 X89.794 Y150.437
N17630 G1 X89.964 Y150.579
N17635 G1 X90.154 Y150.693
N17640 G1 X90.976 Y151.023
N17645 G1 X91.856 Y151.13
N17650 G1 X92.739 Y151.205
N17655 G1 X93.623 Y151.258
N17660 G1 X94.508 Y151.296
N17665 G1 X95.394 Y151.322
N17670 G1 X95.629 Y151.327
N17675 G1 X95.936 Y151.367
N17680 G1 X96.226 Y151.474
N17685 G1 X96.486 Y151.642
N17690 G1 X96.702 Y151.863
N17695 G1 X96.865 Y152.127
N17700 G1 X96.966 Y152.419
N17705 G1 X97 Y152.726
N17710 G3 X96.535 Y153.29 I-0.6 J-0.021
N17715 G1 X96.444 Y153.311 Z13.007
N17720 G1 X96.355 Y153.332 Z13.029
N17725 G1 X96.27 Y153.351 Z13.065
N17730 G1 X96.192 Y153.369 Z13.115
N17735 G1 X96.122 Y153.386 Z13.176
N17740 G1 X96.062 Y153.399 Z13.247
N17745 G1 X96.014 Y153.41 Z13.328
N17750 G1 X95.979 Y153.419 Z13.415
N17755 G1 X95.958 Y153.423 Z13.506
N17760 G1 X95.951 Y153.425 Z13.6
N17765 G0 Z23
N17770 G0 X63.619 Y157.888
N17775 G0 Z14.2
N17780 G1 Z13.6 F2286
N17785 G1 X63.617 Y157.881 Z13.506
N17790 G1 X63.611 Y157.86 Z13.415
N17795 G1 X63.602 Y157.825 Z13.328
N17800 G1 X63.59 Y157.777 Z13.247
N17805 G1 X63.575 Y157.718 Z13.176
N17810 G1 X63.557 Y157.648 Z13.115
N17815 G1 X63.537 Y157.571 Z13.065
N17820 G1 X63.516 Y157.486 Z13.029
N17825 G1 X63.493 Y157.398 Z13.007
N17830 G1 X63.47 Y157.307 Z13
N17835 G3 X63 Y154.04 I14.839 J-3.801
N17840 G1 Y153.737
N17845 G1 X63.002 Y153.7
N17850 G1 X63.093 Y153.581
N17855 G1 X63.212 Y153.45
N17860 G1 X63.368 Y153.303
N17865 G1 X63.571 Y153.141
N17870 G1 X63.831 Y152.966
N17875 G1 X64.165 Y152.777
N17880 G1 X64.597 Y152.578
N17885 G1 X65.168 Y152.368
N17890 G1 X65.952 Y152.149
N17895 G1 X66.822 Y151.98
N17900 G1 X67.701 Y151.864
N17905 G1 X68.583 Y151.784
N17910 G1 X69.578 Y151.723
N17915 G1 X69.91 Y151.709
N17920 G3 X70.043 Y152.895 I0.002 J0.6
N17925 G1 X63.73 Y154.302
N17930 G3 X63 Y153.737 I-0.131 J-0.586
N17935 G1 Y152.883
N17940 G1 X63.007 Y152.733
N17945 G1 X63.052 Y152.589
N17950 G1 X63.107 Y152.45
N17955 G1 X63.171 Y152.314
N17960 G1 X63.242 Y152.182
N17965 G1 X63.32 Y152.054
N17970 G1 X63.405 Y151.931
N17975 G1 X63.496 Y151.811
N17980 G1 X63.592 Y151.696
N17985 G1 X63.692 Y151.584
N17990 G1 X63.796 Y151.476
N17995 G1 X63.905 Y151.373
N18000 G1 X64.017 Y151.273
N18005 G1 X64.132 Y151.177
N18010 G1 X64.25 Y151.084
N18015 G1 X64.371 Y150.995
N18020 G1 X64.494 Y150.91
N18025 G1 X64.62 Y150.828
N18030 G1 X64.747 Y150.749
N18035 G1 X64.877 Y150.673
N18040 G1 X65.008 Y150.6
N18045 G1 X65.14 Y150.53
N18050 G1 X65.275 Y150.463
N18055 G1 X65.41 Y150.399
N18060 G1 X65.547 Y150.338
N18065 G1 X65.685 Y150.278
N18070 G1 X65.824 Y150.222
N18075 G1 X65.964 Y150.167
N18080 G1 X66.104 Y150.115
N18085 G1 X66.246 Y150.066
N18090 G1 X66.388 Y150.018
N18095 G1 X66.531 Y149.972
N18100 G1 X66.674 Y149.928
N18105 G1 X66.818 Y149.886
N18110 G1 X66.963 Y149.846
N18115 G1 X67.177 Y149.79
N18120 G1 X67.38 Y149.7
N18125 G1 X67.565 Y149.579
N18130 G1 X67.73 Y149.431
N18135 G1 X67.869 Y149.258
N18140 G1 X67.979 Y149.066
N18145 G1 X68.057 Y148.859
N18150 G1 X68.102 Y148.642
N18155 G1 X68.142 Y147.757
N18160 G1 X67.905 Y146.903
N18165 G1 X67.612 Y146.067
N18170 G1 X67.288 Y145.242
N18175 G1 X66.954 Y144.421
N18180 G1 X66.724 Y143.854
N18185 G1 X66.563 Y143.449
N18190 G1 X66.428 Y143.102
N18195 G1 X66.309 Y142.788
N18200 G1 X66.201 Y142.499
N18205 G1 X66.1 Y142.22
N18210 G1 X66.007 Y141.957
N18215 G1 X65.917 Y141.699
N18220 G1 X65.832 Y141.446
N18225 G1 X65.751 Y141.2
N18230 G1 X65.672 Y140.957
N18235 G1 X65.596 Y140.716
N18240 G1 X65.523 Y140.477
N18245 G1 X65.452 Y140.238
N18250 G1 X65.383 Y139.999
N18255 G1 X65.315 Y139.761
N18260 G1 X65.25 Y139.521
N18265 G1 X65.186 Y139.281
N18270 G1 X65.123 Y139.039
N18275 G1 X65.062 Y138.794
N18280 G1 X65.002 Y138.547
N18285 G1 X64.943 Y138.297
N18290 G1 X64.885 Y138.042
N18295 G1 X64.828 Y137.786
N18300 G1 X64.773 Y137.527
N18305 G1 X64.719 Y137.261
N18310 G1 X64.666 Y136.989
N18315 G1 X64.613 Y136.71
N18320 G1 X64.561 Y136.427
N18325 G1 X64.511 Y136.138
N18330 G1 X64.461 Y135.839
N18335 G1 X64.412 Y135.528
N18340 G1 X64.364 Y135.211
N18345 G1 X64.317 Y134.886
N18350 G1 X64.27 Y134.542
N18355 G1 X64.224 Y134.186
N18360 G1 X64.18 Y133.823
N18365 G1 X64.135 Y133.433
N18370 G1 X64.092 Y133.026
N18375 G1 X64.05 Y132.605
N18380 G1 X64.008 Y132.145
N18385 G1 X63.968 Y131.671
N18390 G1 X63.928 Y131.154
N18395 G1 X63.888 Y130.587
N18400 G1 X63.851 Y129.996
N18405 G1 X63.814 Y129.328
N18410 G1 X63.779 Y128.579
N18415 G1 X63.744 Y127.727
N18420 G1 X63.715 Y126.842
N18425 G1 X63.692 Y125.956
N18430 G1 X63.675 Y125.169
N18435 G1 X63.666 Y124.467
N18440 G1 X63.661 Y123.714
N18445 G1 X63.662 Y122.87
N18450 G1 X63.669 Y121.984
N18455 G1 X63.682 Y121.098
N18460 G1 X63.713 Y119.326
N18465 G1 X63.728 Y118.44
N18470 G1 X63.743 Y117.554
N18475 G1 X63.756 Y116.668
N18480 G1 X63.767 Y115.782
N18485 G1 X63.777 Y114.896
N18490 G1 X63.785 Y114.01
N18495 G1 X63.792 Y113.124
N18500 G1 X63.798 Y112.238
N18505 G1 X63.806 Y110.466
N18510 G1 X63.811 Y108.693
N18515 G1 X63.815 Y106.035
N18520 G1 X63.816 Y105.724
N18525 G1 X63.89 Y104.841
N18530 G1 X63.959 Y103.958
N18535 G1 X64.02 Y103.074
N18540 G1 X64.07 Y102.189
N18545 G1 X64.111 Y101.304
N18550 G1 X64.144 Y100.418
N18555 G1 X64.169 Y99.532
N18560 G1 X64.189 Y98.647
N18565 G1 X64.204 Y97.761
N18570 G1 X64.216 Y96.875
N18575 G1 X64.225 Y95.988
N18580 G1 X64.231 Y95.102
N18585 G1 X64.236 Y94.216
N18590 G1 X64.243 Y92.444
N18595 G1 X64.247 Y89.786
N18600 G1 X64.249 Y85.355
N18605 G1 X64.25 Y79.152
N18610 G1 X64.249 Y78.266
N18615 G1 X64.247 Y77.38
N18620 G1 X64.242 Y76.494
N18625 G1 X64.233 Y75.608
N18630 G1 X64.221 Y74.722
N18635 G1 X64.207 Y73.836
N18640 G1 X64.174 Y72.064
N18645 G1 X64.141 Y70.292
N18650 G1 X64.125 Y69.406
N18655 G1 X64.111 Y68.52
N18660 G1 X64.099 Y67.634
N18665 G1 X64.088 Y66.748
N18670 G1 X64.078 Y65.862
N18675 G1 X64.07 Y64.976
N18680 G1 X64.063 Y64.089
N18685 G1 X64.053 Y62.317
N18690 G1 X64.046 Y60.545
N18695 G1 X64.04 Y57.887
N18700 G1 X64.037 Y55.228
N18705 G1 X64.024 Y54.342
N18710 G1 X64.001 Y53.456
N18715 G1 X63.948 Y51.685
N18720 G1 X63.923 Y50.799
N18725 G1 X63.903 Y49.913
N18730 G1 X63.889 Y49.027
N18735 G1 X63.882 Y48.141
N18740 G1 X63.885 Y47.255
N18745 G1 X63.9 Y46.369
N18750 G1 X63.93 Y45.483
N18755 G1 X63.977 Y44.599
N18760 G1 X64.045 Y43.715
N18765 G1 X64.136 Y42.834
N18770 G1 X64.253 Y41.955
N18775 G1 X64.398 Y41.081
N18780 G1 X64.574 Y40.213
N18785 G1 X64.784 Y39.352
N18790 G1 X65.027 Y38.5
N18795 G1 X65.307 Y37.659
N18800 G1 X65.625 Y36.832
N18805 G1 X65.714 Y36.629
N18810 G1 X65.77 Y36.414
N18815 G1 X65.791 Y36.194
N18820 G1 X65.777 Y35.973
N18825 G1 X65.729 Y35.757
N18830 G1 X65.647 Y35.551
N18835 G1 X65.194 Y34.79
N18840 G1 X64.532 Y34.2
N18845 G1 X63.836 Y33.652
N18850 G1 X63.515 Y33.39
N18855 G1 X63.298 Y33.169
N18860 G1 X63.135 Y32.906
N18865 G1 X63.034 Y32.613
N18870 G1 X63 Y32.306
N18875 G1 Y31.02
N18880 G3 X63.465 Y30.456 I0.6 J0.021
N18885 G1 X63.556 Y30.435 Z13.007
N18890 G1 X63.645 Y30.414 Z13.029
N18895 G1 X63.73 Y30.395 Z13.065
N18900 G1 X63.808 Y30.377 Z13.115
N18905 G1 X63.878 Y30.36 Z13.176
N18910 G1 X63.938 Y30.347 Z13.247
N18915 G1 X63.986 Y30.336 Z13.328
N18920 G1 X64.021 Y30.327 Z13.415
N18925 G1 X64.042 Y30.323 Z13.506
N18930 G1 X64.049 Y30.321 Z13.6
N18935 G0 Z23
N18940 G0 X96.472 Y26.993
N18945 G0 Z14.2
N18950 G1 Z13.6 F2286
N18955 G1 X96.476 Y27 Z13.506
N18960 G1 X96.487 Y27.018 Z13.415
N18965 G1 X96.505 Y27.049 Z13.328
N18970 G1 X96.531 Y27.092 Z13.247
N18975 G1 X96.562 Y27.144 Z13.176
N18980 G1 X96.598 Y27.206 Z13.115
N18985 G1 X96.639 Y27.275 Z13.065
N18990 G1 X96.684 Y27.35 Z13.029
N18995 G1 X96.731 Y27.428 Z13.007
N19000 G1 X96.779 Y27.509 Z13
N19005 G3 X97 Y28.263 I-1.36 J0.809
N19010 G1 Y29.117
N19015 G1 X96.993 Y29.267
N19020 G1 X96.938 Y29.428
N19025 G1 X96.863 Y29.603
N19030 G1 X96.763 Y29.792
N19035 G1 X96.634 Y29.995
N19040 G1 X96.471 Y30.211
N19045 G1 X96.268 Y30.439
N19050 G1 X96.017 Y30.679
N19055 G1 X95.709 Y30.929
N19060 G1 X95.331 Y31.189
N19065 G1 X94.947 Y31.41
N19070 G1 X94.644 Y31.733
N19075 G1 X94.205 Y32.503
N19080 G1 X94.014 Y33.368
N19085 G1 X93.983 Y34.254
N19090 G1 X94.055 Y35.137
N19095 G1 X94.189 Y36.013
N19100 G1 X94.358 Y36.883
N19105 G1 X94.543 Y37.75
N19110 G1 X94.731 Y38.616
N19115 G1 X94.914 Y39.483
N19120 G1 X95.085 Y40.352
N19125 G1 X95.242 Y41.224
N19130 G1 X95.383 Y42.099
N19135 G1 X95.509 Y42.976
N19140 G1 X95.619 Y43.855
