%
(Backplate_Cam)
(Machine)
(  vendor: CNC-Step)
(  model: High-Z S1400T)
(  description: Generic 3-axis)
(T1 D=6 CR=0 - ZMIN=-0.3 - flat end mill)
N10 G90 G94
N15 G17
N20 G21
N25 G28 G91 Z0
N30 G90

(2D Pocket1)
N35 T1 M6
N40 S14400 M3
N45 G54
N48 G0 Z35
N50 G0 X53.33 Y218.153
N55 G0 G43 Z35 H1
N60 G0 Z25
N65 G1 Z24.5 F1828.8
N70 G1 Z15.6
N75 G1 X53.325 Y218.147 Z15.506
N80 G1 X53.309 Y218.132 Z15.415
N85 G1 X53.284 Y218.106 Z15.328
N90 G1 X53.249 Y218.072 Z15.247
N95 G1 X53.206 Y218.028 Z15.176
N100 G1 X53.155 Y217.978 Z15.115
N105 G1 X53.098 Y217.921 Z15.065
N110 G1 X53.037 Y217.859 Z15.029
N115 G1 X52.972 Y217.795 Z15.007
N120 G1 X52.906 Y217.728 Z15
N125 G3 X51.776 Y215 I2.728 J-2.728
N130 G1 Y47.095
N135 G3 X52.095 Y46.776 I0.319 J0
N140 G1 X387.905
N145 G3 X388.224 Y47.095 I0 J0.319
N150 G1 Y382.905
N155 G3 X387.905 Y383.224 I-0.319 J0
N160 G1 X52.095
N165 G3 X51.776 Y382.905 I0 J-0.319
N170 G1 Y215
N175 G2 X49.329 Y211.33 I-3.976 J0
N180 G3 X46.882 Y207.66 I1.529 J-3.67
N185 G1 Y42.195
N190 G3 X47.195 Y41.882 I0.313 J0
N195 G1 X392.805
N200 G3 X393.118 Y42.195 I0 J0.313
N205 G1 Y387.805
N210 G3 X392.805 Y388.118 I-0.313 J0
N215 G1 X47.195
N220 G3 X46.882 Y387.805 I0 J-0.313
N225 G1 Y207.66
N230 G2 X44.441 Y203.998 I-3.967 J0
N235 G3 X42 Y200.336 I1.526 J-3.662
N240 G1 Y40.354
N245 G2 X41 Y38.118 I-3 J0
N250 G3 X40.939 Y35.939 I1 J-1.118
N255 G3 X43.118 Y36 I1.061 J1.061
N260 G2 X45.354 Y37 I2.236 J-2
N265 G1 X394.646
N270 G2 X396.882 Y36 I0 J-3
N275 G3 X399.061 Y35.939 I1.118 J1
N280 G3 X399 Y38.118 I-1.061 J1.061
N285 G2 X398 Y40.354 I2 J2.236
N290 G1 Y389.646
N295 G2 X399 Y391.882 I3 J0
N300 G3 X399.061 Y394.061 I-1 J1.118
N305 G3 X396.882 Y394 I-1.061 J-1.061
N310 G2 X394.646 Y393 I-2.236 J2
N315 G1 X45.354
N320 G2 X43.118 Y394 I0 J3
N325 G3 X40.939 Y394.061 I-1.118 J-1
N330 G3 X41 Y391.882 I1.061 J-1.061
N335 G2 X42 Y389.646 I-2 J-2.236
N340 G1 Y200.336
N345 G3 X42.236 Y200.176 I0.173 J0
N350 G1 X43.015 Y200.481
N355 G1 X53.666 Y203.57
N360 G1 X53.905 Y203.738
N365 G1 X53.934 Y203.769
N370 G1 X53.95 Y203.808
N375 G1 X53.951 Y203.85
N380 G1 X53.937 Y203.89
N385 G1 X53.909 Y203.922
N390 G1 X53.872 Y203.942
N395 G1 X53.83 Y203.947
N400 G1 X53.789 Y203.937
N405 G1 X53.754 Y203.913
N410 G1 X53.688 Y203.847 Z14.993
N415 G1 X53.623 Y203.782 Z14.971
N420 G1 X53.562 Y203.721 Z14.935
N425 G1 X53.505 Y203.664 Z14.885
N430 G1 X53.454 Y203.613 Z14.824
N435 G1 X53.411 Y203.57 Z14.753
N440 G1 X53.376 Y203.535 Z14.672
N445 G1 X53.351 Y203.51 Z14.585
N450 G1 X53.335 Y203.494 Z14.494
N455 G1 X53.33 Y203.489 Z14.4
N460 G1 Z10.6
N465 G1 X53.325 Y203.484 Z10.506
N470 G1 X53.309 Y203.468 Z10.415
N475 G1 X53.284 Y203.443 Z10.328
N480 G1 X53.249 Y203.408 Z10.247
N485 G1 X53.206 Y203.365 Z10.176
N490 G1 X53.155 Y203.314 Z10.115
N495 G1 X53.098 Y203.257 Z10.065
N500 G1 X53.037 Y203.196 Z10.029
N505 G1 X52.972 Y203.131 Z10.007
N510 G1 X52.906 Y203.065 Z10
N515 G3 X51.776 Y200.336 I2.728 J-2.728
N520 G1 Y47.095
N525 G3 X52.095 Y46.776 I0.319 J0
N530 G1 X387.905
N535 G3 X388.224 Y47.095 I0 J0.319
N540 G1 Y382.905
N545 G3 X387.905 Y383.224 I-0.319 J0
N550 G1 X52.095
N555 G3 X51.776 Y382.905 I0 J-0.319
N560 G1 Y200.336
N565 G2 X49.329 Y196.666 I-3.976 J0
N570 G3 X46.882 Y192.996 I1.529 J-3.67
N575 G1 Y42.195
N580 G3 X47.195 Y41.882 I0.313 J0
N585 G1 X392.805
N590 G3 X393.118 Y42.195 I0 J0.313
N595 G1 Y387.805
N600 G3 X392.805 Y388.118 I-0.313 J0
N605 G1 X47.195
N610 G3 X46.882 Y387.805 I0 J-0.313
N615 G1 Y192.996
N620 G2 X44.441 Y189.334 I-3.967 J0
N625 G3 X42 Y185.673 I1.526 J-3.662
N630 G1 Y40.354
N635 G2 X41 Y38.118 I-3 J0
N640 G3 X40.939 Y35.939 I1 J-1.118
N645 G3 X43.118 Y36 I1.061 J1.061
N650 G2 X45.354 Y37 I2.236 J-2
N655 G1 X394.646
N660 G2 X396.882 Y36 I0 J-3
N665 G3 X399.061 Y35.939 I1.118 J1
N670 G3 X399 Y38.118 I-1.061 J1.061
N675 G2 X398 Y40.354 I2 J2.236
N680 G1 Y389.646
N685 G2 X399 Y391.882 I3 J0
N690 G3 X399.061 Y394.061 I-1 J1.118
N695 G3 X396.882 Y394 I-1.061 J-1.061
N700 G2 X394.646 Y393 I-2.236 J2
N705 G1 X45.354
N710 G2 X43.118 Y394 I0 J3
N715 G3 X40.939 Y394.061 I-1.118 J-1
N720 G3 X41 Y391.882 I1.061 J-1.061
N725 G2 X42 Y389.646 I-2 J-2.236
N730 G1 Y185.673
N735 G1 X42.007 Y185.58 Z10.015
N740 G1 X42.028 Y185.49 Z10.029
N745 G1 X42.059 Y185.413 Z10.072
N750 G1 X42.101 Y185.34 Z10.115
N755 G1 X42.14 Y185.287 Z10.181
N760 G1 X42.186 Y185.239 Z10.247
N765 G1 X42.252 Y185.184 Z10.415
N770 G1 X42.276 Y185.168 Z10.6
N775 G0 Z35
N780 G0 X53.33 Y613.153
N785 G0 Z25
N790 G1 Z24.5 F1828.8
N795 G1 Z15.6
N800 G1 X53.325 Y613.147 Z15.506
N805 G1 X53.309 Y613.132 Z15.415
N810 G1 X53.284 Y613.106 Z15.328
N815 G1 X53.249 Y613.072 Z15.247
N820 G1 X53.206 Y613.028 Z15.176
N825 G1 X53.155 Y612.978 Z15.115
N830 G1 X53.099 Y612.921 Z15.065
N835 G1 X53.037 Y612.859 Z15.029
N840 G1 X52.972 Y612.795 Z15.007
N845 G1 X52.906 Y612.728 Z15
N850 G3 X51.776 Y610 I2.728 J-2.728
N855 G1 Y442.095
N860 G3 X52.095 Y441.776 I0.319 J0
N865 G1 X387.905
N870 G3 X388.224 Y442.095 I0 J0.319
N875 G1 Y777.905
N880 G3 X387.905 Y778.224 I-0.319 J0
N885 G1 X52.095
N890 G3 X51.776 Y777.905 I0 J-0.319
N895 G1 Y610
N900 G2 X49.329 Y606.33 I-3.976 J0
N905 G3 X46.882 Y602.66 I1.529 J-3.67
N910 G1 Y437.195
N915 G3 X47.195 Y436.882 I0.313 J0
N920 G1 X392.805
N925 G3 X393.118 Y437.195 I0 J0.313
N930 G1 Y782.805
N935 G3 X392.805 Y783.118 I-0.313 J0
N940 G1 X47.195
N945 G3 X46.882 Y782.805 I0 J-0.313
N950 G1 Y602.66
N955 G2 X44.441 Y598.998 I-3.967 J0
N960 G3 X42 Y595.336 I1.526 J-3.662
N965 G1 Y435.354
N970 G2 X41 Y433.118 I-3 J0
N975 G3 X40.939 Y430.939 I1 J-1.118
N980 G3 X43.118 Y431 I1.061 J1.061
N985 G2 X45.354 Y432 I2.236 J-2
N990 G1 X394.646
N995 G2 X396.882 Y431 I0 J-3
N1000 G3 X399.061 Y430.939 I1.118 J1
N1005 G3 X399 Y433.118 I-1.061 J1.061
N1010 G2 X398 Y435.354 I2 J2.236
N1015 G1 Y784.646
N1020 G2 X399 Y786.882 I3 J0
N1025 G3 X399.061 Y789.061 I-1 J1.118
N1030 G3 X396.882 Y789 I-1.061 J-1.061
N1035 G2 X394.646 Y788 I-2.236 J2
N1040 G1 X45.354
N1045 G2 X43.118 Y789 I0 J3
N1050 G3 X40.939 Y789.061 I-1.118 J-1
N1055 G3 X41 Y786.882 I1.061 J-1.061
N1060 G2 X42 Y784.646 I-2 J-2.236
N1065 G1 Y595.336
N1070 G3 X42.236 Y595.176 I0.173 J0
N1075 G1 X43.015 Y595.481
N1080 G1 X53.666 Y598.57
N1085 G1 X53.905 Y598.738
N1090 G1 X53.934 Y598.769
N1095 G1 X53.95 Y598.808
N1100 G1 X53.951 Y598.85
N1105 G1 X53.937 Y598.89
N1110 G1 X53.909 Y598.922
N1115 G1 X53.872 Y598.942
N1120 G1 X53.83 Y598.947
N1125 G1 X53.789 Y598.937
N1130 G1 X53.754 Y598.913
N1135 G1 X53.688 Y598.847 Z14.993
N1140 G1 X53.623 Y598.782 Z14.971
N1145 G1 X53.562 Y598.721 Z14.935
N1150 G1 X53.505 Y598.664 Z14.885
N1155 G1 X53.454 Y598.613 Z14.824
N1160 G1 X53.411 Y598.57 Z14.753
N1165 G1 X53.376 Y598.535 Z14.672
N1170 G1 X53.351 Y598.51 Z14.585
N1175 G1 X53.335 Y598.494 Z14.494
N1180 G1 X53.33 Y598.489 Z14.4
N1185 G1 Z10.6
N1190 G1 X53.325 Y598.484 Z10.506
N1195 G1 X53.309 Y598.468 Z10.415
N1200 G1 X53.284 Y598.443 Z10.328
N1205 G1 X53.249 Y598.408 Z10.247
N1210 G1 X53.206 Y598.365 Z10.176
N1215 G1 X53.155 Y598.314 Z10.115
N1220 G1 X53.099 Y598.257 Z10.065
N1225 G1 X53.037 Y598.196 Z10.029
N1230 G1 X52.972 Y598.131 Z10.007
N1235 G1 X52.906 Y598.065 Z10
N1240 G3 X51.776 Y595.336 I2.728 J-2.728
N1245 G1 Y442.095
N1250 G3 X52.095 Y441.776 I0.319 J0
N1255 G1 X387.905
N1260 G3 X388.224 Y442.095 I0 J0.319
N1265 G1 Y777.905
N1270 G3 X387.905 Y778.224 I-0.319 J0
N1275 G1 X52.095
N1280 G3 X51.776 Y777.905 I0 J-0.319
N1285 G1 Y595.336
N1290 G2 X49.329 Y591.666 I-3.976 J0
N1295 G3 X46.882 Y587.996 I1.529 J-3.67
N1300 G1 Y437.195
N1305 G3 X47.195 Y436.882 I0.313 J0
N1310 G1 X392.805
N1315 G3 X393.118 Y437.195 I0 J0.313
N1320 G1 Y782.805
N1325 G3 X392.805 Y783.118 I-0.313 J0
N1330 G1 X47.195
N1335 G3 X46.882 Y782.805 I0 J-0.313
N1340 G1 Y587.996
N1345 G2 X44.441 Y584.334 I-3.967 J0
N1350 G3 X42 Y580.673 I1.526 J-3.662
N1355 G1 Y435.354
N1360 G2 X41 Y433.118 I-3 J0
N1365 G3 X40.939 Y430.939 I1 J-1.118
N1370 G3 X43.118 Y431 I1.061 J1.061
N1375 G2 X45.354 Y432 I2.236 J-2
N1380 G1 X394.646
N1385 G2 X396.882 Y431 I0 J-3
N1390 G3 X399.061 Y430.939 I1.118 J1
N1395 G3 X399 Y433.118 I-1.061 J1.061
N1400 G2 X398 Y435.354 I2 J2.236
N1405 G1 Y784.646
N1410 G2 X399 Y786.882 I3 J0
N1415 G3 X399.061 Y789.061 I-1 J1.118
N1420 G3 X396.882 Y789 I-1.061 J-1.061
N1425 G2 X394.646 Y788 I-2.236 J2
N1430 G1 X45.354
N1435 G2 X43.118 Y789 I0 J3
N1440 G3 X40.939 Y789.061 I-1.118 J-1
N1445 G3 X41 Y786.882 I1.061 J-1.061
N1450 G2 X42 Y784.646 I-2 J-2.236
N1455 G1 Y580.673
N1460 G1 X42.007 Y580.58 Z10.015
N1465 G1 X42.028 Y580.49 Z10.029
N1470 G1 X42.059 Y580.413 Z10.072
N1475 G1 X42.101 Y580.34 Z10.115
N1480 G1 X42.14 Y580.287 Z10.181
N1485 G1 X42.186 Y580.239 Z10.247
N1490 G1 X42.252 Y580.184 Z10.415
N1495 G1 X42.276 Y580.168 Z10.6
N1500 G0 Z35
N1505 G0 X448.33 Y613.153
N1510 G0 Z25
N1515 G1 Z24.5 F1828.8
N1520 G1 Z15.6
N1525 G1 X448.325 Y613.147 Z15.506
N1530 G1 X448.309 Y613.132 Z15.415
N1535 G1 X448.284 Y613.106 Z15.328
N1540 G1 X448.249 Y613.072 Z15.247
N1545 G1 X448.206 Y613.028 Z15.176
N1550 G1 X448.155 Y612.978 Z15.115
N1555 G1 X448.099 Y612.921 Z15.065
N1560 G1 X448.037 Y612.859 Z15.029
N1565 G1 X447.972 Y612.795 Z15.007
N1570 G1 X447.906 Y612.728 Z15
N1575 G3 X446.776 Y610 I2.728 J-2.728
N1580 G1 Y442.095
N1585 G3 X447.095 Y441.776 I0.319 J0
N1590 G1 X782.905
N1595 G3 X783.224 Y442.095 I0 J0.319
N1600 G1 Y777.905
N1605 G3 X782.905 Y778.224 I-0.319 J0
N1610 G1 X447.095
N1615 G3 X446.776 Y777.905 I0 J-0.319
N1620 G1 Y610
N1625 G2 X444.329 Y606.33 I-3.976 J0
N1630 G3 X441.882 Y602.66 I1.529 J-3.67
N1635 G1 Y437.195
N1640 G3 X442.195 Y436.882 I0.313 J0
N1645 G1 X787.805
N1650 G3 X788.118 Y437.195 I0 J0.313
N1655 G1 Y782.805
N1660 G3 X787.805 Y783.118 I-0.313 J0
N1665 G1 X442.195
N1670 G3 X441.882 Y782.805 I0 J-0.313
N1675 G1 Y602.66
N1680 G2 X439.441 Y598.998 I-3.967 J0
N1685 G3 X437 Y595.336 I1.526 J-3.662
N1690 G1 Y435.354
N1695 G2 X436 Y433.118 I-3 J0
N1700 G3 X435.939 Y430.939 I1 J-1.118
N1705 G3 X438.118 Y431 I1.061 J1.061
N1710 G2 X440.354 Y432 I2.236 J-2
N1715 G1 X789.646
N1720 G2 X791.882 Y431 I0 J-3
N1725 G3 X794.061 Y430.939 I1.118 J1
N1730 G3 X794 Y433.118 I-1.061 J1.061
N1735 G2 X793 Y435.354 I2 J2.236
N1740 G1 Y784.646
N1745 G2 X794 Y786.882 I3 J0
N1750 G3 X794.061 Y789.061 I-1 J1.118
N1755 G3 X791.882 Y789 I-1.061 J-1.061
N1760 G2 X789.646 Y788 I-2.236 J2
N1765 G1 X440.354
N1770 G2 X438.118 Y789 I0 J3
N1775 G3 X435.939 Y789.061 I-1.118 J-1
N1780 G3 X436 Y786.882 I1.061 J-1.061
N1785 G2 X437 Y784.646 I-2 J-2.236
N1790 G1 Y595.336
N1795 G3 X437.236 Y595.176 I0.173 J0
N1800 G1 X438.015 Y595.481
N1805 G1 X448.666 Y598.57
N1810 G1 X448.905 Y598.738
N1815 G1 X448.934 Y598.769
N1820 G1 X448.95 Y598.808
N1825 G1 X448.951 Y598.85
N1830 G1 X448.937 Y598.89
N1835 G1 X448.909 Y598.922
N1840 G1 X448.872 Y598.942
N1845 G1 X448.83 Y598.947
N1850 G1 X448.789 Y598.937
N1855 G1 X448.754 Y598.913
N1860 G1 X448.688 Y598.847 Z14.993
N1865 G1 X448.623 Y598.782 Z14.971
N1870 G1 X448.562 Y598.721 Z14.935
N1875 G1 X448.505 Y598.664 Z14.885
N1880 G1 X448.454 Y598.613 Z14.824
N1885 G1 X448.411 Y598.57 Z14.753
N1890 G1 X448.376 Y598.535 Z14.672
N1895 G1 X448.351 Y598.51 Z14.585
N1900 G1 X448.335 Y598.494 Z14.494
N1905 G1 X448.33 Y598.489 Z14.4
N1910 G1 Z10.6
N1915 G1 X448.325 Y598.484 Z10.506
N1920 G1 X448.309 Y598.468 Z10.415
N1925 G1 X448.284 Y598.443 Z10.328
N1930 G1 X448.249 Y598.408 Z10.247
N1935 G1 X448.206 Y598.365 Z10.176
N1940 G1 X448.155 Y598.314 Z10.115
N1945 G1 X448.098 Y598.257 Z10.065
N1950 G1 X448.037 Y598.196 Z10.029
N1955 G1 X447.972 Y598.131 Z10.007
N1960 G1 X447.906 Y598.065 Z10
N1965 G3 X446.776 Y595.336 I2.728 J-2.728
N1970 G1 Y442.095
N1975 G3 X447.095 Y441.776 I0.319 J0
N1980 G1 X782.905
N1985 G3 X783.224 Y442.095 I0 J0.319
N1990 G1 Y777.905
N1995 G3 X782.905 Y778.224 I-0.319 J0
N2000 G1 X447.095
N2005 G3 X446.776 Y777.905 I0 J-0.319
N2010 G1 Y595.336
N2015 G2 X444.329 Y591.666 I-3.976 J0
N2020 G3 X441.882 Y587.996 I1.529 J-3.67
N2025 G1 Y437.195
N2030 G3 X442.195 Y436.882 I0.313 J0
N2035 G1 X787.805
N2040 G3 X788.118 Y437.195 I0 J0.313
N2045 G1 Y782.805
N2050 G3 X787.805 Y783.118 I-0.313 J0
N2055 G1 X442.195
N2060 G3 X441.882 Y782.805 I0 J-0.313
N2065 G1 Y587.996
N2070 G2 X439.441 Y584.334 I-3.967 J0
N2075 G3 X437 Y580.673 I1.526 J-3.662
N2080 G1 Y435.354
N2085 G2 X436 Y433.118 I-3 J0
N2090 G3 X435.939 Y430.939 I1 J-1.118
N2095 G3 X438.118 Y431 I1.061 J1.061
N2100 G2 X440.354 Y432 I2.236 J-2
N2105 G1 X789.646
N2110 G2 X791.882 Y431 I0 J-3
N2115 G3 X794.061 Y430.939 I1.118 J1
N2120 G3 X794 Y433.118 I-1.061 J1.061
N2125 G2 X793 Y435.354 I2 J2.236
N2130 G1 Y784.646
N2135 G2 X794 Y786.882 I3 J0
N2140 G3 X794.061 Y789.061 I-1 J1.118
N2145 G3 X791.882 Y789 I-1.061 J-1.061
N2150 G2 X789.646 Y788 I-2.236 J2
N2155 G1 X440.354
N2160 G2 X438.118 Y789 I0 J3
N2165 G3 X435.939 Y789.061 I-1.118 J-1
N2170 G3 X436 Y786.882 I1.061 J-1.061
N2175 G2 X437 Y784.646 I-2 J-2.236
N2180 G1 Y580.673
N2185 G1 X437.007 Y580.58 Z10.015
N2190 G1 X437.028 Y580.49 Z10.029
N2195 G1 X437.059 Y580.413 Z10.072
N2200 G1 X437.101 Y580.34 Z10.115
N2205 G1 X437.14 Y580.287 Z10.181
N2210 G1 X437.186 Y580.238 Z10.247
N2215 G1 X437.251 Y580.184 Z10.415
N2220 G1 X437.276 Y580.168 Z10.6
N2225 G0 Z35
N2230 G0 X611.847 Y48.33
N2235 G0 Z25
N2240 G1 Z24.5 F1828.8
N2245 G1 Z15.6
N2250 G1 X611.853 Y48.325 Z15.506
N2255 G1 X611.868 Y48.309 Z15.415
N2260 G1 X611.894 Y48.284 Z15.328
N2265 G1 X611.928 Y48.249 Z15.247
N2270 G1 X611.972 Y48.206 Z15.176
N2275 G1 X612.022 Y48.155 Z15.115
N2280 G1 X612.079 Y48.099 Z15.065
N2285 G1 X612.141 Y48.037 Z15.029
N2290 G1 X612.205 Y47.972 Z15.007
N2295 G1 X612.272 Y47.906 Z15
N2300 G3 X615 Y46.776 I2.728 J2.728
N2305 G1 X782.905
N2310 G3 X783.224 Y47.095 I0 J0.319
N2315 G1 Y382.905
N2320 G3 X782.905 Y383.224 I-0.319 J0
N2325 G1 X447.095
N2330 G3 X446.776 Y382.905 I0 J-0.319
N2335 G1 Y47.095
N2340 G3 X447.095 Y46.776 I0.319 J0
N2345 G1 X615
N2350 G2 X618.67 Y44.329 I0 J-3.976
N2355 G3 X622.34 Y41.882 I3.67 J1.529
N2360 G1 X787.805
N2365 G3 X788.118 Y42.195 I0 J0.313
N2370 G1 Y387.805
N2375 G3 X787.805 Y388.118 I-0.313 J0
N2380 G1 X442.195
N2385 G3 X441.882 Y387.805 I0 J-0.313
N2390 G1 Y42.195
N2395 G3 X442.195 Y41.882 I0.313 J0
N2400 G1 X622.34
N2405 G2 X626.002 Y39.441 I0 J-3.967
N2410 G3 X629.664 Y37 I3.662 J1.526
N2415 G1 X789.646
N2420 G2 X791.882 Y36 I0 J-3
N2425 G3 X794.061 Y35.939 I1.118 J1
N2430 G3 X794 Y38.118 I-1.061 J1.061
N2435 G2 X793 Y40.354 I2 J2.236
N2440 G1 Y389.646
N2445 G2 X794 Y391.882 I3 J0
N2450 G3 X794.061 Y394.061 I-1 J1.118
N2455 G3 X791.882 Y394 I-1.061 J-1.061
N2460 G2 X789.646 Y393 I-2.236 J2
N2465 G1 X440.354
N2470 G2 X438.118 Y394 I0 J3
N2475 G3 X435.939 Y394.061 I-1.118 J-1
N2480 G3 X436 Y391.882 I1.061 J-1.061
N2485 G2 X437 Y389.646 I-2 J-2.236
N2490 G1 Y40.354
N2495 G2 X436 Y38.118 I-3 J0
N2500 G3 X435.939 Y35.939 I1 J-1.118
N2505 G3 X438.118 Y36 I1.061 J1.061
N2510 G2 X440.354 Y37 I2.236 J-2
N2515 G1 X629.664
N2520 G3 X629.824 Y37.236 I0 J0.173
N2525 G1 X629.519 Y38.015
N2530 G1 X626.43 Y48.666
N2535 G1 X626.262 Y48.905
N2540 G1 X626.231 Y48.934
N2545 G1 X626.192 Y48.95
N2550 G1 X626.15 Y48.951
N2555 G1 X626.11 Y48.937
N2560 G1 X626.078 Y48.909
N2565 G1 X626.058 Y48.872
N2570 G1 X626.053 Y48.83
N2575 G1 X626.063 Y48.789
N2580 G1 X626.087 Y48.754
N2585 G1 X626.153 Y48.688 Z14.993
N2590 G1 X626.218 Y48.623 Z14.971
N2595 G1 X626.279 Y48.562 Z14.935
N2600 G1 X626.336 Y48.505 Z14.885
N2605 G1 X626.387 Y48.454 Z14.824
N2610 G1 X626.43 Y48.411 Z14.753
N2615 G1 X626.465 Y48.376 Z14.672
N2620 G1 X626.49 Y48.351 Z14.585
N2625 G1 X626.506 Y48.335 Z14.494
N2630 G1 X626.511 Y48.33 Z14.4
N2635 G1 Z10.6
N2640 G1 X626.516 Y48.325 Z10.506
N2645 G1 X626.532 Y48.309 Z10.415
N2650 G1 X626.557 Y48.284 Z10.328
N2655 G1 X626.592 Y48.249 Z10.247
N2660 G1 X626.635 Y48.206 Z10.176
N2665 G1 X626.686 Y48.155 Z10.115
N2670 G1 X626.743 Y48.099 Z10.065
N2675 G1 X626.804 Y48.037 Z10.029
N2680 G1 X626.869 Y47.972 Z10.007
N2685 G1 X626.935 Y47.906 Z10
N2690 G3 X629.664 Y46.776 I2.728 J2.728
N2695 G1 X782.905
N2700 G3 X783.224 Y47.095 I0 J0.319
N2705 G1 Y382.905
N2710 G3 X782.905 Y383.224 I-0.319 J0
N2715 G1 X447.095
N2720 G3 X446.776 Y382.905 I0 J-0.319
N2725 G1 Y47.095
N2730 G3 X447.095 Y46.776 I0.319 J0
N2735 G1 X629.664
N2740 G2 X633.334 Y44.329 I0 J-3.976
N2745 G3 X637.004 Y41.882 I3.67 J1.529
N2750 G1 X787.805
N2755 G3 X788.118 Y42.195 I0 J0.313
N2760 G1 Y387.805
N2765 G3 X787.805 Y388.118 I-0.313 J0
N2770 G1 X442.195
N2775 G3 X441.882 Y387.805 I0 J-0.313
N2780 G1 Y42.195
N2785 G3 X442.195 Y41.882 I0.313 J0
N2790 G1 X637.004
N2795 G2 X640.666 Y39.441 I0 J-3.967
N2800 G3 X644.327 Y37 I3.662 J1.526
N2805 G1 X789.646
N2810 G2 X791.882 Y36 I0 J-3
N2815 G3 X794.061 Y35.939 I1.118 J1
N2820 G3 X794 Y38.118 I-1.061 J1.061
N2825 G2 X793 Y40.354 I2 J2.236
N2830 G1 Y389.646
N2835 G2 X794 Y391.882 I3 J0
N2840 G3 X794.061 Y394.061 I-1 J1.118
N2845 G3 X791.882 Y394 I-1.061 J-1.061
N2850 G2 X789.646 Y393 I-2.236 J2
N2855 G1 X440.354
N2860 G2 X438.118 Y394 I0 J3
N2865 G3 X435.939 Y394.061 I-1.118 J-1
N2870 G3 X436 Y391.882 I1.061 J-1.061
N2875 G2 X437 Y389.646 I-2 J-2.236
N2880 G1 Y40.354
N2885 G2 X436 Y38.118 I-3 J0
N2890 G3 X435.939 Y35.939 I1 J-1.118
N2895 G3 X438.118 Y36 I1.061 J1.061
N2900 G2 X440.354 Y37 I2.236 J-2
N2905 G1 X644.327
N2910 G1 X644.42 Y37.007 Z10.015
N2915 G1 X644.51 Y37.028 Z10.029
N2920 G1 X644.587 Y37.059 Z10.072
N2925 G1 X644.66 Y37.101 Z10.115
N2930 G1 X644.713 Y37.14 Z10.181
N2935 G1 X644.761 Y37.186 Z10.247
N2940 G1 X644.816 Y37.252 Z10.415
N2945 G1 X644.832 Y37.276 Z10.6
N2950 G0 Z35
N2955 G0 X843.33 Y613.153
N2960 G0 Z25
N2965 G1 Z24.5 F1828.8
N2970 G1 Z15.6
N2975 G1 X843.325 Y613.147 Z15.506
N2980 G1 X843.309 Y613.132 Z15.415
N2985 G1 X843.284 Y613.106 Z15.328
N2990 G1 X843.249 Y613.072 Z15.247
N2995 G1 X843.206 Y613.028 Z15.176
N3000 G1 X843.155 Y612.978 Z15.115
N3005 G1 X843.098 Y612.921 Z15.065
N3010 G1 X843.037 Y612.859 Z15.029
N3015 G1 X842.972 Y612.795 Z15.007
N3020 G1 X842.906 Y612.728 Z15
N3025 G3 X841.776 Y610 I2.728 J-2.728
N3030 G1 Y442.095
N3035 G3 X842.095 Y441.776 I0.319 J0
N3040 G1 X1177.905
N3045 G3 X1178.224 Y442.095 I0 J0.319
N3050 G1 Y777.905
N3055 G3 X1177.905 Y778.224 I-0.319 J0
N3060 G1 X842.095
N3065 G3 X841.776 Y777.905 I0 J-0.319
N3070 G1 Y610
N3075 G2 X839.329 Y606.33 I-3.976 J0
N3080 G3 X836.882 Y602.66 I1.529 J-3.67
N3085 G1 Y437.195
N3090 G3 X837.195 Y436.882 I0.313 J0
N3095 G1 X1182.805
N3100 G3 X1183.118 Y437.195 I0 J0.313
N3105 G1 Y782.805
N3110 G3 X1182.805 Y783.118 I-0.313 J0
N3115 G1 X837.195
N3120 G3 X836.882 Y782.805 I0 J-0.313
N3125 G1 Y602.66
N3130 G2 X834.441 Y598.998 I-3.967 J0
N3135 G3 X832 Y595.336 I1.526 J-3.662
N3140 G1 Y435.354
N3145 G2 X831 Y433.118 I-3 J0
N3150 G3 X830.939 Y430.939 I1 J-1.118
N3155 G3 X833.118 Y431 I1.061 J1.061
N3160 G2 X835.354 Y432 I2.236 J-2
N3165 G1 X1184.65
N3170 G2 X1186.885 Y431.001 I0 J-3
N3175 G3 X1189.061 Y430.942 I1.116 J1
N3180 G3 X1189 Y433.118 I-1.06 J1.059
N3185 G2 X1188 Y435.354 I2 J2.236
N3190 G1 Y784.646
N3195 G2 X1189 Y786.882 I3 J0
N3200 G3 X1189.061 Y789.058 I-0.999 J1.117
N3205 G3 X1186.885 Y788.999 I-1.06 J-1.059
N3210 G2 X1184.65 Y788 I-2.235 J2.001
N3215 G1 X835.354
N3220 G2 X833.118 Y789 I0 J3
N3225 G3 X830.939 Y789.061 I-1.118 J-1
N3230 G3 X831 Y786.882 I1.061 J-1.061
N3235 G2 X832 Y784.646 I-2 J-2.236
N3240 G1 Y595.336
N3245 G3 X832.236 Y595.176 I0.173 J0
N3250 G1 X833.015 Y595.481
N3255 G1 X843.666 Y598.57
N3260 G1 X843.905 Y598.738
N3265 G1 X843.934 Y598.769
N3270 G1 X843.95 Y598.808
N3275 G1 X843.951 Y598.85
N3280 G1 X843.937 Y598.89
N3285 G1 X843.909 Y598.922
N3290 G1 X843.872 Y598.942
N3295 G1 X843.83 Y598.947
N3300 G1 X843.789 Y598.937
N3305 G1 X843.754 Y598.913
N3310 G1 X843.688 Y598.847 Z14.993
N3315 G1 X843.623 Y598.782 Z14.971
N3320 G1 X843.562 Y598.721 Z14.935
N3325 G1 X843.505 Y598.664 Z14.885
N3330 G1 X843.454 Y598.613 Z14.824
N3335 G1 X843.411 Y598.57 Z14.753
N3340 G1 X843.376 Y598.535 Z14.672
N3345 G1 X843.351 Y598.51 Z14.585
N3350 G1 X843.335 Y598.494 Z14.494
N3355 G1 X843.33 Y598.489 Z14.4
N3360 G1 Z10.6
N3365 G1 X843.325 Y598.484 Z10.506
N3370 G1 X843.309 Y598.468 Z10.415
N3375 G1 X843.284 Y598.443 Z10.328
N3380 G1 X843.249 Y598.408 Z10.247
N3385 G1 X843.206 Y598.365 Z10.176
N3390 G1 X843.155 Y598.314 Z10.115
N3395 G1 X843.098 Y598.257 Z10.065
N3400 G1 X843.037 Y598.196 Z10.029
N3405 G1 X842.972 Y598.131 Z10.007
N3410 G1 X842.906 Y598.065 Z10
N3415 G3 X841.776 Y595.336 I2.728 J-2.728
N3420 G1 Y442.095
N3425 G3 X842.095 Y441.776 I0.319 J0
N3430 G1 X1177.905
N3435 G3 X1178.224 Y442.095 I0 J0.319
N3440 G1 Y777.905
N3445 G3 X1177.905 Y778.224 I-0.319 J0
N3450 G1 X842.095
N3455 G3 X841.776 Y777.905 I0 J-0.319
N3460 G1 Y595.336
N3465 G2 X839.329 Y591.666 I-3.976 J0
N3470 G3 X836.882 Y587.996 I1.529 J-3.67
N3475 G1 Y437.195
N3480 G3 X837.195 Y436.882 I0.313 J0
N3485 G1 X1182.805
N3490 G3 X1183.118 Y437.195 I0 J0.313
N3495 G1 Y782.805
N3500 G3 X1182.805 Y783.118 I-0.313 J0
N3505 G1 X837.195
N3510 G3 X836.882 Y782.805 I0 J-0.313
N3515 G1 Y587.996
N3520 G2 X834.441 Y584.334 I-3.967 J0
N3525 G3 X832 Y580.673 I1.526 J-3.662
N3530 G1 Y435.354
N3535 G2 X831 Y433.118 I-3 J0
N3540 G3 X830.939 Y430.939 I1 J-1.118
N3545 G3 X833.118 Y431 I1.061 J1.061
N3550 G2 X835.354 Y432 I2.236 J-2
N3555 G1 X1184.65
N3560 G2 X1186.885 Y431.001 I0 J-3
N3565 G3 X1189.061 Y430.942 I1.116 J1
N3570 G3 X1189 Y433.118 I-1.06 J1.059
N3575 G2 X1188 Y435.354 I2 J2.236
N3580 G1 Y784.646
N3585 G2 X1189 Y786.882 I3 J0
N3590 G3 X1189.061 Y789.058 I-0.999 J1.117
N3595 G3 X1186.885 Y788.999 I-1.06 J-1.059
N3600 G2 X1184.65 Y788 I-2.235 J2.001
N3605 G1 X835.354
N3610 G2 X833.118 Y789 I0 J3
N3615 G3 X830.939 Y789.061 I-1.118 J-1
N3620 G3 X831 Y786.882 I1.061 J-1.061
N3625 G2 X832 Y784.646 I-2 J-2.236
N3630 G1 Y580.673
N3635 G1 X832.007 Y580.58 Z10.015
N3640 G1 X832.028 Y580.49 Z10.029
N3645 G1 X832.059 Y580.413 Z10.072
N3650 G1 X832.101 Y580.34 Z10.115
N3655 G1 X832.14 Y580.287 Z10.181
N3660 G1 X832.186 Y580.238 Z10.247
N3665 G1 X832.252 Y580.184 Z10.415
N3670 G1 X832.276 Y580.168 Z10.6
N3675 G0 Z35
N3680 G0 X843.33 Y218.153
N3685 G0 Z25
N3690 G1 Z24.5 F1828.8
N3695 G1 Z15.6
N3700 G1 X843.325 Y218.147 Z15.506
N3705 G1 X843.309 Y218.132 Z15.415
N3710 G1 X843.284 Y218.106 Z15.328
N3715 G1 X843.249 Y218.072 Z15.247
N3720 G1 X843.206 Y218.028 Z15.176
N3725 G1 X843.155 Y217.978 Z15.115
N3730 G1 X843.098 Y217.921 Z15.065
N3735 G1 X843.037 Y217.859 Z15.029
N3740 G1 X842.972 Y217.795 Z15.007
N3745 G1 X842.906 Y217.728 Z15
N3750 G3 X841.776 Y215 I2.728 J-2.728
N3755 G1 Y47.095
N3760 G3 X842.095 Y46.776 I0.319 J0
N3765 G1 X1177.905
N3770 G3 X1178.224 Y47.095 I0 J0.319
N3775 G1 Y382.905
N3780 G3 X1177.905 Y383.224 I-0.319 J0
N3785 G1 X842.095
N3790 G3 X841.776 Y382.905 I0 J-0.319
N3795 G1 Y215
N3800 G2 X839.329 Y211.33 I-3.976 J0
N3805 G3 X836.882 Y207.66 I1.529 J-3.67
N3810 G1 Y42.195
N3815 G3 X837.195 Y41.882 I0.313 J0
N3820 G1 X1182.805
N3825 G3 X1183.118 Y42.195 I0 J0.313
N3830 G1 Y387.805
N3835 G3 X1182.805 Y388.118 I-0.313 J0
N3840 G1 X837.195
N3845 G3 X836.882 Y387.805 I0 J-0.313
N3850 G1 Y207.66
N3855 G2 X834.441 Y203.998 I-3.967 J0
N3860 G3 X832 Y200.336 I1.526 J-3.662
N3865 G1 Y40.354
N3870 G2 X831 Y38.118 I-3 J0
N3875 G3 X830.939 Y35.939 I1 J-1.118
N3880 G3 X833.118 Y36 I1.061 J1.061
N3885 G2 X835.354 Y37 I2.236 J-2
N3890 G1 X1184.65
N3895 G2 X1186.885 Y36.001 I0 J-3
N3900 G3 X1189.061 Y35.942 I1.116 J1
N3905 G3 X1189 Y38.118 I-1.06 J1.059
N3910 G2 X1188 Y40.354 I2 J2.236
N3915 G1 Y389.646
N3920 G2 X1189 Y391.882 I3 J0
N3925 G3 X1189.061 Y394.058 I-0.999 J1.117
N3930 G3 X1186.885 Y393.999 I-1.06 J-1.059
N3935 G2 X1184.65 Y393 I-2.235 J2.001
N3940 G1 X835.354
N3945 G2 X833.118 Y394 I0 J3
N3950 G3 X830.939 Y394.061 I-1.118 J-1
N3955 G3 X831 Y391.882 I1.061 J-1.061
N3960 G2 X832 Y389.646 I-2 J-2.236
N3965 G1 Y200.336
N3970 G3 X832.236 Y200.176 I0.173 J0
N3975 G1 X833.015 Y200.481
N3980 G1 X843.666 Y203.57
N3985 G1 X843.905 Y203.738
N3990 G1 X843.934 Y203.769
N3995 G1 X843.95 Y203.808
N4000 G1 X843.951 Y203.85
N4005 G1 X843.937 Y203.89
N4010 G1 X843.909 Y203.922
N4015 G1 X843.872 Y203.942
N4020 G1 X843.83 Y203.947
N4025 G1 X843.789 Y203.937
N4030 G1 X843.754 Y203.913
N4035 G1 X843.688 Y203.847 Z14.993
N4040 G1 X843.623 Y203.782 Z14.971
N4045 G1 X843.562 Y203.721 Z14.935
N4050 G1 X843.505 Y203.664 Z14.885
N4055 G1 X843.454 Y203.613 Z14.824
N4060 G1 X843.411 Y203.57 Z14.753
N4065 G1 X843.376 Y203.535 Z14.672
N4070 G1 X843.351 Y203.51 Z14.585
N4075 G1 X843.335 Y203.494 Z14.494
N4080 G1 X843.33 Y203.489 Z14.4
N4085 G1 Z10.6
N4090 G1 X843.325 Y203.484 Z10.506
N4095 G1 X843.309 Y203.468 Z10.415
N4100 G1 X843.284 Y203.443 Z10.328
N4105 G1 X843.249 Y203.408 Z10.247
N4110 G1 X843.206 Y203.365 Z10.176
N4115 G1 X843.155 Y203.314 Z10.115
N4120 G1 X843.098 Y203.257 Z10.065
N4125 G1 X843.037 Y203.196 Z10.029
N4130 G1 X842.972 Y203.131 Z10.007
N4135 G1 X842.906 Y203.065 Z10
N4140 G3 X841.776 Y200.336 I2.728 J-2.728
N4145 G1 Y47.095
N4150 G3 X842.095 Y46.776 I0.319 J0
N4155 G1 X1177.905
N4160 G3 X1178.224 Y47.095 I0 J0.319
N4165 G1 Y382.905
N4170 G3 X1177.905 Y383.224 I-0.319 J0
N4175 G1 X842.095
N4180 G3 X841.776 Y382.905 I0 J-0.319
N4185 G1 Y200.336
N4190 G2 X839.329 Y196.666 I-3.976 J0
N4195 G3 X836.882 Y192.996 I1.529 J-3.67
N4200 G1 Y42.195
N4205 G3 X837.195 Y41.882 I0.313 J0
N4210 G1 X1182.805
N4215 G3 X1183.118 Y42.195 I0 J0.313
N4220 G1 Y387.805
N4225 G3 X1182.805 Y388.118 I-0.313 J0
N4230 G1 X837.195
N4235 G3 X836.882 Y387.805 I0 J-0.313
N4240 G1 Y192.996
N4245 G2 X834.441 Y189.334 I-3.967 J0
N4250 G3 X832 Y185.673 I1.526 J-3.662
N4255 G1 Y40.354
N4260 G2 X831 Y38.118 I-3 J0
N4265 G3 X830.939 Y35.939 I1 J-1.118
N4270 G3 X833.118 Y36 I1.061 J1.061
N4275 G2 X835.354 Y37 I2.236 J-2
N4280 G1 X1184.65
N4285 G2 X1186.885 Y36.001 I0 J-3
N4290 G3 X1189.061 Y35.942 I1.116 J1
N4295 G3 X1189 Y38.118 I-1.06 J1.059
N4300 G2 X1188 Y40.354 I2 J2.236
N4305 G1 Y389.646
N4310 G2 X1189 Y391.882 I3 J0
N4315 G3 X1189.061 Y394.058 I-0.999 J1.117
N4320 G3 X1186.885 Y393.999 I-1.06 J-1.059
N4325 G2 X1184.65 Y393 I-2.235 J2.001
N4330 G1 X835.354
N4335 G2 X833.118 Y394 I0 J3
N4340 G3 X830.939 Y394.061 I-1.118 J-1
N4345 G3 X831 Y391.882 I1.061 J-1.061
N4350 G2 X832 Y389.646 I-2 J-2.236
N4355 G1 Y185.673
N4360 G1 X832.007 Y185.58 Z10.015
N4365 G1 X832.028 Y185.49 Z10.029
N4370 G1 X832.059 Y185.413 Z10.072
N4375 G1 X832.101 Y185.34 Z10.115
N4380 G1 X832.14 Y185.287 Z10.181
N4385 G1 X832.186 Y185.238 Z10.247
N4390 G1 X832.252 Y185.184 Z10.415
N4395 G1 X832.276 Y185.168 Z10.6
N4400 G0 Z35

(2D Contour1)
N4405 G0 X779.4 Y214.4
N4410 G0 Z35
N4415 G0 Z25
N4420 G1 Z24.5 F333.3
N4425 G1 Z15.6
N4430 G18 G2 X780 Z15 I0.6 K0 F1828.8
N4435 G1 X780.6
N4440 G17 G3 X781.2 Y215 I0 J0.6
N4445 G1 Y378
N4450 G3 X778 Y381.2 I-3.2 J0
N4455 G1 X452
N4460 G3 X448.8 Y378 I0 J-3.2
N4465 G1 Y52
N4470 G3 X452 Y48.8 I3.2 J0
N4475 G1 X778
N4480 G3 X781.2 Y52 I0 J3.2
N4485 G1 Y215
N4490 G3 X780.6 Y215.6 I-0.6 J0
N4495 G1 X780
N4500 G18 G3 X779.4 Z15.6 I0 K0.6
N4505 G0 Z25
N4510 G0 Y214.4
N4515 G1 Z19.5 F333.3
N4520 G1 Z10.6
N4525 G2 X780 Z10 I0.6 K0 F1828.8
N4530 G1 X780.6
N4535 G17 G3 X781.2 Y215 I0 J0.6
N4540 G1 Y378
N4545 G3 X778 Y381.2 I-3.2 J0
N4550 G1 X452
N4555 G3 X448.8 Y378 I0 J-3.2
N4560 G1 Y52
N4565 G3 X452 Y48.8 I3.2 J0
N4570 G1 X778
N4575 G3 X781.2 Y52 I0 J3.2
N4580 G1 Y215
N4585 G3 X780.6 Y215.6 I-0.6 J0
N4590 G1 X780
N4595 G18 G3 X779.4 Z10.6 I0 K0.6
N4600 G0 Z25
N4605 G0 Y214.4
N4610 G1 Z14.5 F333.3
N4615 G1 Z5.6
N4620 G2 X780 Z5 I0.6 K0 F1828.8
N4625 G1 X780.6
N4630 G17 G3 X781.2 Y215 I0 J0.6
N4635 G1 Y378
N4640 G3 X778 Y381.2 I-3.2 J0
N4645 G1 X452
N4650 G3 X448.8 Y378 I0 J-3.2
N4655 G1 Y52
N4660 G3 X452 Y48.8 I3.2 J0
N4665 G1 X778
N4670 G3 X781.2 Y52 I0 J3.2
N4675 G1 Y215
N4680 G3 X780.6 Y215.6 I-0.6 J0
N4685 G1 X780
N4690 G18 G3 X779.4 Z5.6 I0 K0.6
N4695 G0 Z25
N4700 G0 Y214.4
N4705 G1 Z9.5 F333.3
N4710 G1 Z2.95
N4715 G2 X779.603 Z2.5 I0.6 K0 F1828.8
N4720 G1 X780
N4725 G1 X780.6
N4730 G17 G3 X781.2 Y215 I0 J0.6
N4735 G1 Y221
N4740 G1 Z2.35 F333.3
N4745 G1 Y317.667 F1828.8
N4750 G1 Z2.5
N4755 G1 Y329.667
N4760 G1 Z2.35 F333.3
N4765 G1 Y378 F1828.8
N4770 G3 X778 Y381.2 I-3.2 J0
N4775 G1 X729.667
N4780 G1 Z2.5
N4785 G1 X717.667
N4790 G1 Z2.35 F333.3
N4795 G1 X621 F1828.8
N4800 G1 Z2.5
N4805 G1 X609
N4810 G1 Z2.35 F333.3
N4815 G1 X512.333 F1828.8
N4820 G1 Z2.5
N4825 G1 X500.333
N4830 G1 Z2.35 F333.3
N4835 G1 X452 F1828.8
N4840 G3 X448.8 Y378 I0 J-3.2
N4845 G1 Y329.667
N4850 G1 Z2.5
N4855 G1 Y317.667
N4860 G1 Z2.35 F333.3
N4865 G1 Y221 F1828.8
N4870 G1 Z2.5
N4875 G1 Y209
N4880 G1 Z2.35 F333.3
N4885 G1 Y112.333 F1828.8
N4890 G1 Z2.5
N4895 G1 Y100.333
N4900 G1 Z2.35 F333.3
N4905 G1 Y52 F1828.8
N4910 G3 X452 Y48.8 I3.2 J0
N4915 G1 X500.333
N4920 G1 Z2.5
N4925 G1 X512.333
N4930 G1 Z2.35 F333.3
N4935 G1 X609 F1828.8
N4940 G1 Z2.5
N4945 G1 X621
N4950 G1 Z2.35 F333.3
N4955 G1 X717.667 F1828.8
N4960 G1 Z2.5
N4965 G1 X729.667
N4970 G1 Z2.35 F333.3
N4975 G1 X778 F1828.8
N4980 G3 X781.2 Y52 I0 J3.2
N4985 G1 Y100.333
N4990 G1 Z2.5
N4995 G1 Y112.333
N5000 G1 Z2.35 F333.3
N5005 G1 Y209 F1828.8
N5010 G1 Z2.5
N5015 G1 Y215
N5020 G3 X780.6 Y215.6 I-0.6 J0
N5025 G1 X780
N5030 G1 X779.603 F333.3
N5035 G18 G3 X779.4 Z2.95 I0.397 K0.45 F1828.8
N5040 G0 Z25
N5045 G0 Y214.4
N5050 G1 Z6.85 F333.3
N5055 G1 Z2.5
N5060 G1 X780 F1828.8
N5065 G1 X780.6
N5070 G17 G3 X781.2 Y215 I0 J0.6
N5075 G1 Y221
N5080 G1 Z-0.3 F333.3
N5085 G1 Y317.667 F1828.8
N5090 G1 Z2.5
N5095 G1 Y329.667
N5100 G1 Z-0.3 F333.3
N5105 G1 Y378 F1828.8
N5110 G3 X778 Y381.2 I-3.2 J0
N5115 G1 X729.667
N5120 G1 Z2.5
N5125 G1 X717.667
N5130 G1 Z-0.3 F333.3
N5135 G1 X621 F1828.8
N5140 G1 Z2.5
N5145 G1 X609
N5150 G1 Z-0.3 F333.3
N5155 G1 X512.333 F1828.8
N5160 G1 Z2.5
N5165 G1 X500.333
N5170 G1 Z-0.3 F333.3
N5175 G1 X452 F1828.8
N5180 G3 X448.8 Y378 I0 J-3.2
N5185 G1 Y329.667
N5190 G1 Z2.5
N5195 G1 Y317.667
N5200 G1 Z-0.3 F333.3
N5205 G1 Y221 F1828.8
N5210 G1 Z2.5
N5215 G1 Y209
N5220 G1 Z-0.3 F333.3
N5225 G1 Y112.333 F1828.8
N5230 G1 Z2.5
N5235 G1 Y100.333
N5240 G1 Z-0.3 F333.3
N5245 G1 Y52 F1828.8
N5250 G3 X452 Y48.8 I3.2 J0
N5255 G1 X500.333
N5260 G1 Z2.5
N5265 G1 X512.333
N5270 G1 Z-0.3 F333.3
N5275 G1 X609 F1828.8
N5280 G1 Z2.5
N5285 G1 X621
N5290 G1 Z-0.3 F333.3
N5295 G1 X717.667 F1828.8
N5300 G1 Z2.5
N5305 G1 X729.667
N5310 G1 Z-0.3 F333.3
N5315 G1 X778 F1828.8
N5320 G3 X781.2 Y52 I0 J3.2
N5325 G1 Y100.333
N5330 G1 Z2.5
N5335 G1 Y112.333
N5340 G1 Z-0.3 F333.3
N5345 G1 Y209 F1828.8
N5350 G1 Z2.5
N5355 G1 Y215
N5360 G2 X781.5 Y215.45 I0.487 J0
N5365 G3 X781.8 Y215.9 I-0.188 J0.45
N5370 G1 Y221
N5375 G1 Z-0.3 F333.3
N5380 G1 Y317.667 F1828.8
N5385 G1 Z2.5
N5390 G1 Y329.667
N5395 G1 Z-0.3 F333.3
N5400 G1 Y378 F1828.8
N5405 G3 X778 Y381.8 I-3.8 J0
N5410 G1 X729.667
N5415 G1 Z2.5
N5420 G1 X717.667
N5425 G1 Z-0.3 F333.3
N5430 G1 X621 F1828.8
N5435 G1 Z2.5
N5440 G1 X609
N5445 G1 Z-0.3 F333.3
N5450 G1 X512.333 F1828.8
N5455 G1 Z2.5
N5460 G1 X500.333
N5465 G1 Z-0.3 F333.3
N5470 G1 X452 F1828.8
N5475 G3 X448.2 Y378 I0 J-3.8
N5480 G1 Y329.667
N5485 G1 Z2.5
N5490 G1 Y317.667
N5495 G1 Z-0.3 F333.3
N5500 G1 Y221 F1828.8
N5505 G1 Z2.5
N5510 G1 Y209
N5515 G1 Z-0.3 F333.3
N5520 G1 Y112.333 F1828.8
N5525 G1 Z2.5
N5530 G1 Y100.333
N5535 G1 Z-0.3 F333.3
N5540 G1 Y52 F1828.8
N5545 G3 X452 Y48.2 I3.8 J0
N5550 G1 X500.333
N5555 G1 Z2.5
N5560 G1 X512.333
N5565 G1 Z-0.3 F333.3
N5570 G1 X609 F1828.8
N5575 G1 Z2.5
N5580 G1 X621
N5585 G1 Z-0.3 F333.3
N5590 G1 X717.667 F1828.8
N5595 G1 Z2.5
N5600 G1 X729.667
N5605 G1 Z-0.3 F333.3
N5610 G1 X778 F1828.8
N5615 G3 X781.8 Y52 I0 J3.8
N5620 G1 Y100.333
N5625 G1 Z2.5
N5630 G1 Y112.333
N5635 G1 Z-0.3 F333.3
N5640 G1 Y209 F1828.8
N5645 G1 Z2.5
N5650 G1 Y215.9
N5655 G3 X781.2 Y216.5 I-0.6 J0
N5660 G1 X780
N5665 G0 Z25
N5670 G0 X1174.4 Y214.4
N5675 G1 Z24.5 F333.3
N5680 G1 Z15.6
N5685 G18 G2 X1175 Z15 I0.6 K0 F1828.8
N5690 G1 X1175.6
N5695 G17 G3 X1176.2 Y215 I0 J0.6
N5700 G1 Y378
N5705 G3 X1173 Y381.2 I-3.2 J0
N5710 G1 X847
N5715 G3 X843.8 Y378 I0 J-3.2
N5720 G1 Y52
N5725 G3 X847 Y48.8 I3.2 J0
N5730 G1 X1173
N5735 G3 X1176.2 Y52 I0 J3.2
N5740 G1 Y215
N5745 G3 X1175.6 Y215.6 I-0.6 J0
N5750 G1 X1175
N5755 G18 G3 X1174.4 Z15.6 I0 K0.6
N5760 G0 Z25
N5765 G0 Y214.4
N5770 G1 Z19.5 F333.3
N5775 G1 Z10.6
N5780 G2 X1175 Z10 I0.6 K0 F1828.8
N5785 G1 X1175.6
N5790 G17 G3 X1176.2 Y215 I0 J0.6
N5795 G1 Y378
N5800 G3 X1173 Y381.2 I-3.2 J0
N5805 G1 X847
N5810 G3 X843.8 Y378 I0 J-3.2
N5815 G1 Y52
N5820 G3 X847 Y48.8 I3.2 J0
N5825 G1 X1173
N5830 G3 X1176.2 Y52 I0 J3.2
N5835 G1 Y215
N5840 G3 X1175.6 Y215.6 I-0.6 J0
N5845 G1 X1175
N5850 G18 G3 X1174.4 Z10.6 I0 K0.6
N5855 G0 Z25
N5860 G0 Y214.4
N5865 G1 Z14.5 F333.3
N5870 G1 Z5.6
N5875 G2 X1175 Z5 I0.6 K0 F1828.8
N5880 G1 X1175.6
N5885 G17 G3 X1176.2 Y215 I0 J0.6
N5890 G1 Y378
N5895 G3 X1173 Y381.2 I-3.2 J0
N5900 G1 X847
N5905 G3 X843.8 Y378 I0 J-3.2
N5910 G1 Y52
N5915 G3 X847 Y48.8 I3.2 J0
N5920 G1 X1173
N5925 G3 X1176.2 Y52 I0 J3.2
N5930 G1 Y215
N5935 G3 X1175.6 Y215.6 I-0.6 J0
N5940 G1 X1175
N5945 G18 G3 X1174.4 Z5.6 I0 K0.6
N5950 G0 Z25
N5955 G0 Y214.4
N5960 G1 Z9.5 F333.3
N5965 G1 Z2.95
N5970 G2 X1174.603 Z2.5 I0.6 K0 F1828.8
N5975 G1 X1175
N5980 G1 X1175.6
N5985 G17 G3 X1176.2 Y215 I0 J0.6
N5990 G1 Y221
N5995 G1 Z2.35 F333.3
N6000 G1 Y317.667 F1828.8
N6005 G1 Z2.5
N6010 G1 Y329.667
N6015 G1 Z2.35 F333.3
N6020 G1 Y378 F1828.8
N6025 G3 X1173 Y381.2 I-3.2 J0
N6030 G1 X1124.67
N6035 G1 Z2.5
N6040 G1 X1112.67
N6045 G1 Z2.35 F333.3
N6050 G1 X1016 F1828.8
N6055 G1 Z2.5
N6060 G1 X1004
N6065 G1 Z2.35 F333.3
N6070 G1 X907.333 F1828.8
N6075 G1 Z2.5
N6080 G1 X895.333
N6085 G1 Z2.35 F333.3
N6090 G1 X847 F1828.8
N6095 G3 X843.8 Y378 I0 J-3.2
N6100 G1 Y329.667
N6105 G1 Z2.5
N6110 G1 Y317.667
N6115 G1 Z2.35 F333.3
N6120 G1 Y221 F1828.8
N6125 G1 Z2.5
N6130 G1 Y209
N6135 G1 Z2.35 F333.3
N6140 G1 Y112.333 F1828.8
N6145 G1 Z2.5
N6150 G1 Y100.333
N6155 G1 Z2.35 F333.3
N6160 G1 Y52 F1828.8
N6165 G3 X847 Y48.8 I3.2 J0
N6170 G1 X895.333
N6175 G1 Z2.5
N6180 G1 X907.333
N6185 G1 Z2.35 F333.3
N6190 G1 X1004 F1828.8
N6195 G1 Z2.5
N6200 G1 X1016
N6205 G1 Z2.35 F333.3
N6210 G1 X1112.67 F1828.8
N6215 G1 Z2.5
N6220 G1 X1124.67
N6225 G1 Z2.35 F333.3
N6230 G1 X1173 F1828.8
N6235 G3 X1176.2 Y52 I0 J3.2
N6240 G1 Y100.333
N6245 G1 Z2.5
N6250 G1 Y112.333
N6255 G1 Z2.35 F333.3
N6260 G1 Y209 F1828.8
N6265 G1 Z2.5
N6270 G1 Y215
N6275 G3 X1175.6 Y215.6 I-0.6 J0
N6280 G1 X1175
N6285 G1 X1174.603 F333.3
N6290 G18 G3 X1174.4 Z2.95 I0.397 K0.45 F1828.8
N6295 G0 Z25
N6300 G0 Y214.4
N6305 G1 Z6.85 F333.3
N6310 G1 Z2.5
N6315 G1 X1175 F1828.8
N6320 G1 X1175.6
N6325 G17 G3 X1176.2 Y215 I0 J0.6
N6330 G1 Y221
N6335 G1 Z-0.3 F333.3
N6340 G1 Y317.667 F1828.8
N6345 G1 Z2.5
N6350 G1 Y329.667
N6355 G1 Z-0.3 F333.3
N6360 G1 Y378 F1828.8
N6365 G3 X1173 Y381.2 I-3.2 J0
N6370 G1 X1124.67
N6375 G1 Z2.5
N6380 G1 X1112.67
N6385 G1 Z-0.3 F333.3
N6390 G1 X1016 F1828.8
N6395 G1 Z2.5
N6400 G1 X1004
N6405 G1 Z-0.3 F333.3
N6410 G1 X907.333 F1828.8
N6415 G1 Z2.5
N6420 G1 X895.333
N6425 G1 Z-0.3 F333.3
N6430 G1 X847 F1828.8
N6435 G3 X843.8 Y378 I0 J-3.2
N6440 G1 Y329.667
N6445 G1 Z2.5
N6450 G1 Y317.667
N6455 G1 Z-0.3 F333.3
N6460 G1 Y221 F1828.8
N6465 G1 Z2.5
N6470 G1 Y209
N6475 G1 Z-0.3 F333.3
N6480 G1 Y112.333 F1828.8
N6485 G1 Z2.5
N6490 G1 Y100.333
N6495 G1 Z-0.3 F333.3
N6500 G1 Y52 F1828.8
N6505 G3 X847 Y48.8 I3.2 J0
N6510 G1 X895.333
N6515 G1 Z2.5
N6520 G1 X907.333
N6525 G1 Z-0.3 F333.3
N6530 G1 X1004 F1828.8
N6535 G1 Z2.5
N6540 G1 X1016
N6545 G1 Z-0.3 F333.3
N6550 G1 X1112.67 F1828.8
N6555 G1 Z2.5
N6560 G1 X1124.67
N6565 G1 Z-0.3 F333.3
N6570 G1 X1173 F1828.8
N6575 G3 X1176.2 Y52 I0 J3.2
N6580 G1 Y100.333
N6585 G1 Z2.5
N6590 G1 Y112.333
N6595 G1 Z-0.3 F333.3
N6600 G1 Y209 F1828.8
N6605 G1 Z2.5
N6610 G1 Y215
N6615 G2 X1176.5 Y215.45 I0.488 J0
N6620 G3 X1176.8 Y215.9 I-0.188 J0.45
N6625 G1 Y221
N6630 G1 Z-0.3 F333.3
N6635 G1 Y317.667 F1828.8
N6640 G1 Z2.5
N6645 G1 Y329.667
N6650 G1 Z-0.3 F333.3
N6655 G1 Y378 F1828.8
N6660 G3 X1173 Y381.8 I-3.8 J0
N6665 G1 X1124.67
N6670 G1 Z2.5
N6675 G1 X1112.67
N6680 G1 Z-0.3 F333.3
N6685 G1 X1016 F1828.8
N6690 G1 Z2.5
N6695 G1 X1004
N6700 G1 Z-0.3 F333.3
N6705 G1 X907.333 F1828.8
N6710 G1 Z2.5
N6715 G1 X895.333
N6720 G1 Z-0.3 F333.3
N6725 G1 X847 F1828.8
N6730 G3 X843.2 Y378 I0 J-3.8
N6735 G1 Y329.667
N6740 G1 Z2.5
N6745 G1 Y317.667
N6750 G1 Z-0.3 F333.3
N6755 G1 Y221 F1828.8
N6760 G1 Z2.5
N6765 G1 Y209
N6770 G1 Z-0.3 F333.3
N6775 G1 Y112.333 F1828.8
N6780 G1 Z2.5
N6785 G1 Y100.333
N6790 G1 Z-0.3 F333.3
N6795 G1 Y52 F1828.8
N6800 G3 X847 Y48.2 I3.8 J0
N6805 G1 X895.333
N6810 G1 Z2.5
N6815 G1 X907.333
N6820 G1 Z-0.3 F333.3
N6825 G1 X1004 F1828.8
N6830 G1 Z2.5
N6835 G1 X1016
N6840 G1 Z-0.3 F333.3
N6845 G1 X1112.67 F1828.8
N6850 G1 Z2.5
N6855 G1 X1124.67
N6860 G1 Z-0.3 F333.3
N6865 G1 X1173 F1828.8
N6870 G3 X1176.8 Y52 I0 J3.8
N6875 G1 Y100.333
N6880 G1 Z2.5
N6885 G1 Y112.333
N6890 G1 Z-0.3 F333.3
N6895 G1 Y209 F1828.8
N6900 G1 Z2.5
N6905 G1 Y215.9
N6910 G3 X1176.2 Y216.5 I-0.6 J0
N6915 G1 X1175
N6920 G0 Z25
N6925 G0 X1174.4 Y609.4
N6930 G1 Z24.5 F333.3
N6935 G1 Z15.6
N6940 G18 G2 X1175 Z15 I0.6 K0 F1828.8
N6945 G1 X1175.6
N6950 G17 G3 X1176.2 Y610 I0 J0.6
N6955 G1 Y773
N6960 G3 X1173 Y776.2 I-3.2 J0
N6965 G1 X847
N6970 G3 X843.8 Y773 I0 J-3.2
N6975 G1 Y447
N6980 G3 X847 Y443.8 I3.2 J0
N6985 G1 X1173
N6990 G3 X1176.2 Y447 I0 J3.2
N6995 G1 Y610
N7000 G3 X1175.6 Y610.6 I-0.6 J0
N7005 G1 X1175
N7010 G18 G3 X1174.4 Z15.6 I0 K0.6
N7015 G0 Z25
N7020 G0 Y609.4
N7025 G1 Z19.5 F333.3
N7030 G1 Z10.6
N7035 G2 X1175 Z10 I0.6 K0 F1828.8
N7040 G1 X1175.6
N7045 G17 G3 X1176.2 Y610 I0 J0.6
N7050 G1 Y773
N7055 G3 X1173 Y776.2 I-3.2 J0
N7060 G1 X847
N7065 G3 X843.8 Y773 I0 J-3.2
N7070 G1 Y447
N7075 G3 X847 Y443.8 I3.2 J0
N7080 G1 X1173
N7085 G3 X1176.2 Y447 I0 J3.2
N7090 G1 Y610
N7095 G3 X1175.6 Y610.6 I-0.6 J0
N7100 G1 X1175
N7105 G18 G3 X1174.4 Z10.6 I0 K0.6
N7110 G0 Z25
N7115 G0 Y609.4
N7120 G1 Z14.5 F333.3
N7125 G1 Z5.6
N7130 G2 X1175 Z5 I0.6 K0 F1828.8
N7135 G1 X1175.6
N7140 G17 G3 X1176.2 Y610 I0 J0.6
N7145 G1 Y773
N7150 G3 X1173 Y776.2 I-3.2 J0
N7155 G1 X847
N7160 G3 X843.8 Y773 I0 J-3.2
N7165 G1 Y447
N7170 G3 X847 Y443.8 I3.2 J0
N7175 G1 X1173
N7180 G3 X1176.2 Y447 I0 J3.2
N7185 G1 Y610
N7190 G3 X1175.6 Y610.6 I-0.6 J0
N7195 G1 X1175
N7200 G18 G3 X1174.4 Z5.6 I0 K0.6
N7205 G0 Z25
N7210 G0 Y609.4
N7215 G1 Z9.5 F333.3
N7220 G1 Z2.95
N7225 G2 X1174.603 Z2.5 I0.6 K0 F1828.8
N7230 G1 X1175
N7235 G1 X1175.6
N7240 G17 G3 X1176.2 Y610 I0 J0.6
N7245 G1 Y616
N7250 G1 Z2.35 F333.3
N7255 G1 Y712.667 F1828.8
N7260 G1 Z2.5
N7265 G1 Y724.667
N7270 G1 Z2.35 F333.3
N7275 G1 Y773 F1828.8
N7280 G3 X1173 Y776.2 I-3.2 J0
N7285 G1 X1124.67
N7290 G1 Z2.5
N7295 G1 X1112.67
N7300 G1 Z2.35 F333.3
N7305 G1 X1016 F1828.8
N7310 G1 Z2.5
N7315 G1 X1004
N7320 G1 Z2.35 F333.3
N7325 G1 X907.333 F1828.8
N7330 G1 Z2.5
N7335 G1 X895.333
N7340 G1 Z2.35 F333.3
N7345 G1 X847 F1828.8
N7350 G3 X843.8 Y773 I0 J-3.2
N7355 G1 Y724.667
N7360 G1 Z2.5
N7365 G1 Y712.667
N7370 G1 Z2.35 F333.3
N7375 G1 Y616 F1828.8
N7380 G1 Z2.5
N7385 G1 Y604
N7390 G1 Z2.35 F333.3
N7395 G1 Y507.333 F1828.8
N7400 G1 Z2.5
N7405 G1 Y495.333
N7410 G1 Z2.35 F333.3
N7415 G1 Y447 F1828.8
N7420 G3 X847 Y443.8 I3.2 J0
N7425 G1 X895.333
N7430 G1 Z2.5
N7435 G1 X907.333
N7440 G1 Z2.35 F333.3
N7445 G1 X1004 F1828.8
N7450 G1 Z2.5
N7455 G1 X1016
N7460 G1 Z2.35 F333.3
N7465 G1 X1112.67 F1828.8
N7470 G1 Z2.5
N7475 G1 X1124.67
N7480 G1 Z2.35 F333.3
N7485 G1 X1173 F1828.8
N7490 G3 X1176.2 Y447 I0 J3.2
N7495 G1 Y495.333
N7500 G1 Z2.5
N7505 G1 Y507.333
N7510 G1 Z2.35 F333.3
N7515 G1 Y604 F1828.8
N7520 G1 Z2.5
N7525 G1 Y610
N7530 G3 X1175.6 Y610.6 I-0.6 J0
N7535 G1 X1175
N7540 G1 X1174.603 F333.3
N7545 G18 G3 X1174.4 Z2.95 I0.397 K0.45 F1828.8
N7550 G0 Z25
N7555 G0 Y609.4
N7560 G1 Z6.85 F333.3
N7565 G1 Z2.5
N7570 G1 X1175 F1828.8
N7575 G1 X1175.6
N7580 G17 G3 X1176.2 Y610 I0 J0.6
N7585 G1 Y616
N7590 G1 Z-0.3 F333.3
N7595 G1 Y712.667 F1828.8
N7600 G1 Z2.5
N7605 G1 Y724.667
N7610 G1 Z-0.3 F333.3
N7615 G1 Y773 F1828.8
N7620 G3 X1173 Y776.2 I-3.2 J0
N7625 G1 X1124.67
N7630 G1 Z2.5
N7635 G1 X1112.67
N7640 G1 Z-0.3 F333.3
N7645 G1 X1016 F1828.8
N7650 G1 Z2.5
N7655 G1 X1004
N7660 G1 Z-0.3 F333.3
N7665 G1 X907.333 F1828.8
N7670 G1 Z2.5
N7675 G1 X895.333
N7680 G1 Z-0.3 F333.3
N7685 G1 X847 F1828.8
N7690 G3 X843.8 Y773 I0 J-3.2
N7695 G1 Y724.667
N7700 G1 Z2.5
N7705 G1 Y712.667
N7710 G1 Z-0.3 F333.3
N7715 G1 Y616 F1828.8
N7720 G1 Z2.5
N7725 G1 Y604
N7730 G1 Z-0.3 F333.3
N7735 G1 Y507.333 F1828.8
N7740 G1 Z2.5
N7745 G1 Y495.333
N7750 G1 Z-0.3 F333.3
N7755 G1 Y447 F1828.8
N7760 G3 X847 Y443.8 I3.2 J0
N7765 G1 X895.333
N7770 G1 Z2.5
N7775 G1 X907.333
N7780 G1 Z-0.3 F333.3
N7785 G1 X1004 F1828.8
N7790 G1 Z2.5
N7795 G1 X1016
N7800 G1 Z-0.3 F333.3
N7805 G1 X1112.67 F1828.8
N7810 G1 Z2.5
N7815 G1 X1124.67
N7820 G1 Z-0.3 F333.3
N7825 G1 X1173 F1828.8
N7830 G3 X1176.2 Y447 I0 J3.2
N7835 G1 Y495.333
N7840 G1 Z2.5
N7845 G1 Y507.333
N7850 G1 Z-0.3 F333.3
N7855 G1 Y604 F1828.8
N7860 G1 Z2.5
N7865 G1 Y610
N7870 G2 X1176.5 Y610.45 I0.488 J0
N7875 G3 X1176.8 Y610.9 I-0.188 J0.45
N7880 G1 Y616
N7885 G1 Z-0.3 F333.3
N7890 G1 Y712.667 F1828.8
N7895 G1 Z2.5
N7900 G1 Y724.667
N7905 G1 Z-0.3 F333.3
N7910 G1 Y773 F1828.8
N7915 G3 X1173 Y776.8 I-3.8 J0
N7920 G1 X1124.67
N7925 G1 Z2.5
N7930 G1 X1112.67
N7935 G1 Z-0.3 F333.3
N7940 G1 X1016 F1828.8
N7945 G1 Z2.5
N7950 G1 X1004
N7955 G1 Z-0.3 F333.3
N7960 G1 X907.333 F1828.8
N7965 G1 Z2.5
N7970 G1 X895.333
N7975 G1 Z-0.3 F333.3
N7980 G1 X847 F1828.8
N7985 G3 X843.2 Y773 I0 J-3.8
N7990 G1 Y724.667
N7995 G1 Z2.5
N8000 G1 Y712.667
N8005 G1 Z-0.3 F333.3
N8010 G1 Y616 F1828.8
N8015 G1 Z2.5
N8020 G1 Y604
N8025 G1 Z-0.3 F333.3
N8030 G1 Y507.333 F1828.8
N8035 G1 Z2.5
N8040 G1 Y495.333
N8045 G1 Z-0.3 F333.3
N8050 G1 Y447 F1828.8
N8055 G3 X847 Y443.2 I3.8 J0
N8060 G1 X895.333
N8065 G1 Z2.5
N8070 G1 X907.333
N8075 G1 Z-0.3 F333.3
N8080 G1 X1004 F1828.8
N8085 G1 Z2.5
N8090 G1 X1016
N8095 G1 Z-0.3 F333.3
N8100 G1 X1112.67 F1828.8
N8105 G1 Z2.5
N8110 G1 X1124.67
N8115 G1 Z-0.3 F333.3
N8120 G1 X1173 F1828.8
N8125 G3 X1176.8 Y447 I0 J3.8
N8130 G1 Y495.333
N8135 G1 Z2.5
N8140 G1 Y507.333
N8145 G1 Z-0.3 F333.3
N8150 G1 Y604 F1828.8
N8155 G1 Z2.5
N8160 G1 Y610.9
N8165 G3 X1176.2 Y611.5 I-0.6 J0
N8170 G1 X1175
N8175 G0 Z25
N8180 G0 X779.4 Y609.4
N8185 G1 Z24.5 F333.3
N8190 G1 Z15.6
N8195 G18 G2 X780 Z15 I0.6 K0 F1828.8
N8200 G1 X780.6
N8205 G17 G3 X781.2 Y610 I0 J0.6
N8210 G1 Y773
N8215 G3 X778 Y776.2 I-3.2 J0
N8220 G1 X452
N8225 G3 X448.8 Y773 I0 J-3.2
N8230 G1 Y447
N8235 G3 X452 Y443.8 I3.2 J0
N8240 G1 X778
N8245 G3 X781.2 Y447 I0 J3.2
N8250 G1 Y610
N8255 G3 X780.6 Y610.6 I-0.6 J0
N8260 G1 X780
N8265 G18 G3 X779.4 Z15.6 I0 K0.6
N8270 G0 Z25
N8275 G0 Y609.4
N8280 G1 Z19.5 F333.3
N8285 G1 Z10.6
N8290 G2 X780 Z10 I0.6 K0 F1828.8
N8295 G1 X780.6
N8300 G17 G3 X781.2 Y610 I0 J0.6
N8305 G1 Y773
N8310 G3 X778 Y776.2 I-3.2 J0
N8315 G1 X452
N8320 G3 X448.8 Y773 I0 J-3.2
N8325 G1 Y447
N8330 G3 X452 Y443.8 I3.2 J0
N8335 G1 X778
N8340 G3 X781.2 Y447 I0 J3.2
N8345 G1 Y610
N8350 G3 X780.6 Y610.6 I-0.6 J0
N8355 G1 X780
N8360 G18 G3 X779.4 Z10.6 I0 K0.6
N8365 G0 Z25
N8370 G0 Y609.4
N8375 G1 Z14.5 F333.3
N8380 G1 Z5.6
N8385 G2 X780 Z5 I0.6 K0 F1828.8
N8390 G1 X780.6
N8395 G17 G3 X781.2 Y610 I0 J0.6
N8400 G1 Y773
N8405 G3 X778 Y776.2 I-3.2 J0
N8410 G1 X452
N8415 G3 X448.8 Y773 I0 J-3.2
N8420 G1 Y447
N8425 G3 X452 Y443.8 I3.2 J0
N8430 G1 X778
N8435 G3 X781.2 Y447 I0 J3.2
N8440 G1 Y610
N8445 G3 X780.6 Y610.6 I-0.6 J0
N8450 G1 X780
N8455 G18 G3 X779.4 Z5.6 I0 K0.6
N8460 G0 Z25
N8465 G0 Y609.4
N8470 G1 Z9.5 F333.3
N8475 G1 Z2.95
N8480 G2 X779.603 Z2.5 I0.6 K0 F1828.8
N8485 G1 X780
N8490 G1 X780.6
N8495 G17 G3 X781.2 Y610 I0 J0.6
N8500 G1 Y616
N8505 G1 Z2.35 F333.3
N8510 G1 Y712.667 F1828.8
N8515 G1 Z2.5
N8520 G1 Y724.667
N8525 G1 Z2.35 F333.3
N8530 G1 Y773 F1828.8
N8535 G3 X778 Y776.2 I-3.2 J0
N8540 G1 X729.667
N8545 G1 Z2.5
N8550 G1 X717.667
N8555 G1 Z2.35 F333.3
N8560 G1 X621 F1828.8
N8565 G1 Z2.5
N8570 G1 X609
N8575 G1 Z2.35 F333.3
N8580 G1 X512.333 F1828.8
N8585 G1 Z2.5
N8590 G1 X500.333
N8595 G1 Z2.35 F333.3
N8600 G1 X452 F1828.8
N8605 G3 X448.8 Y773 I0 J-3.2
N8610 G1 Y724.667
N8615 G1 Z2.5
N8620 G1 Y712.667
N8625 G1 Z2.35 F333.3
N8630 G1 Y616 F1828.8
N8635 G1 Z2.5
N8640 G1 Y604
N8645 G1 Z2.35 F333.3
N8650 G1 Y507.333 F1828.8
N8655 G1 Z2.5
N8660 G1 Y495.333
N8665 G1 Z2.35 F333.3
N8670 G1 Y447 F1828.8
N8675 G3 X452 Y443.8 I3.2 J0
N8680 G1 X500.333
N8685 G1 Z2.5
N8690 G1 X512.333
N8695 G1 Z2.35 F333.3
N8700 G1 X609 F1828.8
N8705 G1 Z2.5
N8710 G1 X621
N8715 G1 Z2.35 F333.3
N8720 G1 X717.667 F1828.8
N8725 G1 Z2.5
N8730 G1 X729.667
N8735 G1 Z2.35 F333.3
N8740 G1 X778 F1828.8
N8745 G3 X781.2 Y447 I0 J3.2
N8750 G1 Y495.333
N8755 G1 Z2.5
N8760 G1 Y507.333
N8765 G1 Z2.35 F333.3
N8770 G1 Y604 F1828.8
N8775 G1 Z2.5
N8780 G1 Y610
N8785 G3 X780.6 Y610.6 I-0.6 J0
N8790 G1 X780
N8795 G1 X779.603 F333.3
N8800 G18 G3 X779.4 Z2.95 I0.397 K0.45 F1828.8
N8805 G0 Z25
N8810 G0 Y609.4
N8815 G1 Z6.85 F333.3
N8820 G1 Z2.5
N8825 G1 X780 F1828.8
N8830 G1 X780.6
N8835 G17 G3 X781.2 Y610 I0 J0.6
N8840 G1 Y616
N8845 G1 Z-0.3 F333.3
N8850 G1 Y712.667 F1828.8
N8855 G1 Z2.5
N8860 G1 Y724.667
N8865 G1 Z-0.3 F333.3
N8870 G1 Y773 F1828.8
N8875 G3 X778 Y776.2 I-3.2 J0
N8880 G1 X729.667
N8885 G1 Z2.5
N8890 G1 X717.667
N8895 G1 Z-0.3 F333.3
N8900 G1 X621 F1828.8
N8905 G1 Z2.5
N8910 G1 X609
N8915 G1 Z-0.3 F333.3
N8920 G1 X512.333 F1828.8
N8925 G1 Z2.5
N8930 G1 X500.333
N8935 G1 Z-0.3 F333.3
N8940 G1 X452 F1828.8
N8945 G3 X448.8 Y773 I0 J-3.2
N8950 G1 Y724.667
N8955 G1 Z2.5
N8960 G1 Y712.667
N8965 G1 Z-0.3 F333.3
N8970 G1 Y616 F1828.8
N8975 G1 Z2.5
N8980 G1 Y604
N8985 G1 Z-0.3 F333.3
N8990 G1 Y507.333 F1828.8
N8995 G1 Z2.5
N9000 G1 Y495.333
N9005 G1 Z-0.3 F333.3
N9010 G1 Y447 F1828.8
N9015 G3 X452 Y443.8 I3.2 J0
N9020 G1 X500.333
N9025 G1 Z2.5
N9030 G1 X512.333
N9035 G1 Z-0.3 F333.3
N9040 G1 X609 F1828.8
N9045 G1 Z2.5
N9050 G1 X621
N9055 G1 Z-0.3 F333.3
N9060 G1 X717.667 F1828.8
N9065 G1 Z2.5
N9070 G1 X729.667
N9075 G1 Z-0.3 F333.3
N9080 G1 X778 F1828.8
N9085 G3 X781.2 Y447 I0 J3.2
N9090 G1 Y495.333
N9095 G1 Z2.5
N9100 G1 Y507.333
N9105 G1 Z-0.3 F333.3
N9110 G1 Y604 F1828.8
N9115 G1 Z2.5
N9120 G1 Y610
N9125 G2 X781.5 Y610.45 I0.487 J0
N9130 G3 X781.8 Y610.9 I-0.188 J0.45
N9135 G1 Y616
N9140 G1 Z-0.3 F333.3
N9145 G1 Y712.667 F1828.8
N9150 G1 Z2.5
N9155 G1 Y724.667
N9160 G1 Z-0.3 F333.3
N9165 G1 Y773 F1828.8
N9170 G3 X778 Y776.8 I-3.8 J0
N9175 G1 X729.667
N9180 G1 Z2.5
N9185 G1 X717.667
N9190 G1 Z-0.3 F333.3
N9195 G1 X621 F1828.8
N9200 G1 Z2.5
N9205 G1 X609
N9210 G1 Z-0.3 F333.3
N9215 G1 X512.333 F1828.8
N9220 G1 Z2.5
N9225 G1 X500.333
N9230 G1 Z-0.3 F333.3
N9235 G1 X452 F1828.8
N9240 G3 X448.2 Y773 I0 J-3.8
N9245 G1 Y724.667
N9250 G1 Z2.5
N9255 G1 Y712.667
N9260 G1 Z-0.3 F333.3
N9265 G1 Y616 F1828.8
N9270 G1 Z2.5
N9275 G1 Y604
N9280 G1 Z-0.3 F333.3
N9285 G1 Y507.333 F1828.8
N9290 G1 Z2.5
N9295 G1 Y495.333
N9300 G1 Z-0.3 F333.3
N9305 G1 Y447 F1828.8
N9310 G3 X452 Y443.2 I3.8 J0
N9315 G1 X500.333
N9320 G1 Z2.5
N9325 G1 X512.333
N9330 G1 Z-0.3 F333.3
N9335 G1 X609 F1828.8
N9340 G1 Z2.5
N9345 G1 X621
N9350 G1 Z-0.3 F333.3
N9355 G1 X717.667 F1828.8
N9360 G1 Z2.5
N9365 G1 X729.667
N9370 G1 Z-0.3 F333.3
N9375 G1 X778 F1828.8
N9380 G3 X781.8 Y447 I0 J3.8
N9385 G1 Y495.333
N9390 G1 Z2.5
N9395 G1 Y507.333
N9400 G1 Z-0.3 F333.3
N9405 G1 Y604 F1828.8
N9410 G1 Z2.5
N9415 G1 Y610.9
N9420 G3 X781.2 Y611.5 I-0.6 J0
N9425 G1 X780
N9430 G0 Z25
N9435 G0 X384.4 Y609.4
N9440 G1 Z24.5 F333.3
N9445 G1 Z15.6
N9450 G18 G2 X385 Z15 I0.6 K0 F1828.8
N9455 G1 X385.6
N9460 G17 G3 X386.2 Y610 I0 J0.6
N9465 G1 Y773
N9470 G3 X383 Y776.2 I-3.2 J0
N9475 G1 X57
N9480 G3 X53.8 Y773 I0 J-3.2
N9485 G1 Y447
N9490 G3 X57 Y443.8 I3.2 J0
N9495 G1 X383
N9500 G3 X386.2 Y447 I0 J3.2
N9505 G1 Y610
N9510 G3 X385.6 Y610.6 I-0.6 J0
N9515 G1 X385
N9520 G18 G3 X384.4 Z15.6 I0 K0.6
N9525 G0 Z25
N9530 G0 Y609.4
N9535 G1 Z19.5 F333.3
N9540 G1 Z10.6
N9545 G2 X385 Z10 I0.6 K0 F1828.8
N9550 G1 X385.6
N9555 G17 G3 X386.2 Y610 I0 J0.6
N9560 G1 Y773
N9565 G3 X383 Y776.2 I-3.2 J0
N9570 G1 X57
N9575 G3 X53.8 Y773 I0 J-3.2
N9580 G1 Y447
N9585 G3 X57 Y443.8 I3.2 J0
N9590 G1 X383
N9595 G3 X386.2 Y447 I0 J3.2
N9600 G1 Y610
N9605 G3 X385.6 Y610.6 I-0.6 J0
N9610 G1 X385
N9615 G18 G3 X384.4 Z10.6 I0 K0.6
N9620 G0 Z25
N9625 G0 Y609.4
N9630 G1 Z14.5 F333.3
N9635 G1 Z5.6
N9640 G2 X385 Z5 I0.6 K0 F1828.8
N9645 G1 X385.6
N9650 G17 G3 X386.2 Y610 I0 J0.6
N9655 G1 Y773
N9660 G3 X383 Y776.2 I-3.2 J0
N9665 G1 X57
N9670 G3 X53.8 Y773 I0 J-3.2
N9675 G1 Y447
N9680 G3 X57 Y443.8 I3.2 J0
N9685 G1 X383
N9690 G3 X386.2 Y447 I0 J3.2
N9695 G1 Y610
N9700 G3 X385.6 Y610.6 I-0.6 J0
N9705 G1 X385
N9710 G18 G3 X384.4 Z5.6 I0 K0.6
N9715 G0 Z25
N9720 G0 Y609.4
N9725 G1 Z9.5 F333.3
N9730 G1 Z2.95
N9735 G2 X384.603 Z2.5 I0.6 K0 F1828.8
N9740 G1 X385
N9745 G1 X385.6
N9750 G17 G3 X386.2 Y610 I0 J0.6
N9755 G1 Y616
N9760 G1 Z2.35 F333.3
N9765 G1 Y712.667 F1828.8
N9770 G1 Z2.5
N9775 G1 Y724.667
N9780 G1 Z2.35 F333.3
N9785 G1 Y773 F1828.8
N9790 G3 X383 Y776.2 I-3.2 J0
N9795 G1 X334.667
N9800 G1 Z2.5
N9805 G1 X322.667
N9810 G1 Z2.35 F333.3
N9815 G1 X226 F1828.8
N9820 G1 Z2.5
N9825 G1 X214
N9830 G1 Z2.35 F333.3
N9835 G1 X117.333 F1828.8
N9840 G1 Z2.5
N9845 G1 X105.333
N9850 G1 Z2.35 F333.3
N9855 G1 X57 F1828.8
N9860 G3 X53.8 Y773 I0 J-3.2
N9865 G1 Y724.667
N9870 G1 Z2.5
N9875 G1 Y712.667
N9880 G1 Z2.35 F333.3
N9885 G1 Y616 F1828.8
N9890 G1 Z2.5
N9895 G1 Y604
N9900 G1 Z2.35 F333.3
N9905 G1 Y507.333 F1828.8
N9910 G1 Z2.5
N9915 G1 Y495.333
N9920 G1 Z2.35 F333.3
N9925 G1 Y447 F1828.8
N9930 G3 X57 Y443.8 I3.2 J0
N9935 G1 X105.333
N9940 G1 Z2.5
N9945 G1 X117.333
N9950 G1 Z2.35 F333.3
N9955 G1 X214 F1828.8
N9960 G1 Z2.5
N9965 G1 X226
N9970 G1 Z2.35 F333.3
N9975 G1 X322.667 F1828.8
N9980 G1 Z2.5
N9985 G1 X334.667
N9990 G1 Z2.35 F333.3
N9995 G1 X383 F1828.8
N10000 G3 X386.2 Y447 I0 J3.2
N10005 G1 Y495.333
N10010 G1 Z2.5
N10015 G1 Y507.333
N10020 G1 Z2.35 F333.3
N10025 G1 Y604 F1828.8
N10030 G1 Z2.5
N10035 G1 Y610
N10040 G3 X385.6 Y610.6 I-0.6 J0
N10045 G1 X385
N10050 G1 X384.603 F333.3
N10055 G18 G3 X384.4 Z2.95 I0.397 K0.45 F1828.8
N10060 G0 Z25
N10065 G0 Y609.4
N10070 G1 Z6.85 F333.3
N10075 G1 Z2.5
N10080 G1 X385 F1828.8
N10085 G1 X385.6
N10090 G17 G3 X386.2 Y610 I0 J0.6
N10095 G1 Y616
N10100 G1 Z-0.3 F333.3
N10105 G1 Y712.667 F1828.8
N10110 G1 Z2.5
N10115 G1 Y724.667
N10120 G1 Z-0.3 F333.3
N10125 G1 Y773 F1828.8
N10130 G3 X383 Y776.2 I-3.2 J0
N10135 G1 X334.667
N10140 G1 Z2.5
N10145 G1 X322.667
N10150 G1 Z-0.3 F333.3
N10155 G1 X226 F1828.8
N10160 G1 Z2.5
N10165 G1 X214
N10170 G1 Z-0.3 F333.3
N10175 G1 X117.333 F1828.8
N10180 G1 Z2.5
N10185 G1 X105.333
N10190 G1 Z-0.3 F333.3
N10195 G1 X57 F1828.8
N10200 G3 X53.8 Y773 I0 J-3.2
N10205 G1 Y724.667
N10210 G1 Z2.5
N10215 G1 Y712.667
N10220 G1 Z-0.3 F333.3
N10225 G1 Y616 F1828.8
N10230 G1 Z2.5
N10235 G1 Y604
N10240 G1 Z-0.3 F333.3
N10245 G1 Y507.333 F1828.8
N10250 G1 Z2.5
N10255 G1 Y495.333
N10260 G1 Z-0.3 F333.3
N10265 G1 Y447 F1828.8
N10270 G3 X57 Y443.8 I3.2 J0
N10275 G1 X105.333
N10280 G1 Z2.5
N10285 G1 X117.333
N10290 G1 Z-0.3 F333.3
N10295 G1 X214 F1828.8
N10300 G1 Z2.5
N10305 G1 X226
N10310 G1 Z-0.3 F333.3
N10315 G1 X322.667 F1828.8
N10320 G1 Z2.5
N10325 G1 X334.667
N10330 G1 Z-0.3 F333.3
N10335 G1 X383 F1828.8
N10340 G3 X386.2 Y447 I0 J3.2
N10345 G1 Y495.333
N10350 G1 Z2.5
N10355 G1 Y507.333
N10360 G1 Z-0.3 F333.3
N10365 G1 Y604 F1828.8
N10370 G1 Z2.5
N10375 G1 Y610
N10380 G2 X386.5 Y610.45 I0.487 J0
N10385 G3 X386.8 Y610.9 I-0.188 J0.45
N10390 G1 Y616
N10395 G1 Z-0.3 F333.3
N10400 G1 Y712.667 F1828.8
N10405 G1 Z2.5
N10410 G1 Y724.667
N10415 G1 Z-0.3 F333.3
N10420 G1 Y773 F1828.8
N10425 G3 X383 Y776.8 I-3.8 J0
N10430 G1 X334.667
N10435 G1 Z2.5
N10440 G1 X322.667
N10445 G1 Z-0.3 F333.3
N10450 G1 X226 F1828.8
N10455 G1 Z2.5
N10460 G1 X214
N10465 G1 Z-0.3 F333.3
N10470 G1 X117.333 F1828.8
N10475 G1 Z2.5
N10480 G1 X105.333
N10485 G1 Z-0.3 F333.3
N10490 G1 X57 F1828.8
N10495 G3 X53.2 Y773 I0 J-3.8
N10500 G1 Y724.667
N10505 G1 Z2.5
N10510 G1 Y712.667
N10515 G1 Z-0.3 F333.3
N10520 G1 Y616 F1828.8
N10525 G1 Z2.5
N10530 G1 Y604
N10535 G1 Z-0.3 F333.3
N10540 G1 Y507.333 F1828.8
N10545 G1 Z2.5
N10550 G1 Y495.333
N10555 G1 Z-0.3 F333.3
N10560 G1 Y447 F1828.8
N10565 G3 X57 Y443.2 I3.8 J0
N10570 G1 X105.333
N10575 G1 Z2.5
N10580 G1 X117.333
N10585 G1 Z-0.3 F333.3
N10590 G1 X214 F1828.8
N10595 G1 Z2.5
N10600 G1 X226
N10605 G1 Z-0.3 F333.3
N10610 G1 X322.667 F1828.8
N10615 G1 Z2.5
N10620 G1 X334.667
N10625 G1 Z-0.3 F333.3
N10630 G1 X383 F1828.8
N10635 G3 X386.8 Y447 I0 J3.8
N10640 G1 Y495.333
N10645 G1 Z2.5
N10650 G1 Y507.333
N10655 G1 Z-0.3 F333.3
N10660 G1 Y604 F1828.8
N10665 G1 Z2.5
N10670 G1 Y610.9
N10675 G3 X386.2 Y611.5 I-0.6 J0
N10680 G1 X385
N10685 G0 Z25
N10690 G0 X384.4 Y214.4
N10695 G1 Z24.5 F333.3
N10700 G1 Z15.6
N10705 G18 G2 X385 Z15 I0.6 K0 F1828.8
N10710 G1 X385.6
N10715 G17 G3 X386.2 Y215 I0 J0.6
N10720 G1 Y378
N10725 G3 X383 Y381.2 I-3.2 J0
N10730 G1 X57
N10735 G3 X53.8 Y378 I0 J-3.2
N10740 G1 Y52
N10745 G3 X57 Y48.8 I3.2 J0
N10750 G1 X383
N10755 G3 X386.2 Y52 I0 J3.2
N10760 G1 Y215
N10765 G3 X385.6 Y215.6 I-0.6 J0
N10770 G1 X385
N10775 G18 G3 X384.4 Z15.6 I0 K0.6
N10780 G0 Z25
N10785 G0 Y214.4
N10790 G1 Z19.5 F333.3
N10795 G1 Z10.6
N10800 G2 X385 Z10 I0.6 K0 F1828.8
N10805 G1 X385.6
N10810 G17 G3 X386.2 Y215 I0 J0.6
N10815 G1 Y378
N10820 G3 X383 Y381.2 I-3.2 J0
N10825 G1 X57
N10830 G3 X53.8 Y378 I0 J-3.2
N10835 G1 Y52
N10840 G3 X57 Y48.8 I3.2 J0
N10845 G1 X383
N10850 G3 X386.2 Y52 I0 J3.2
N10855 G1 Y215
N10860 G3 X385.6 Y215.6 I-0.6 J0
N10865 G1 X385
N10870 G18 G3 X384.4 Z10.6 I0 K0.6
N10875 G0 Z25
N10880 G0 Y214.4
N10885 G1 Z14.5 F333.3
N10890 G1 Z5.6
N10895 G2 X385 Z5 I0.6 K0 F1828.8
N10900 G1 X385.6
N10905 G17 G3 X386.2 Y215 I0 J0.6
N10910 G1 Y378
N10915 G3 X383 Y381.2 I-3.2 J0
N10920 G1 X57
N10925 G3 X53.8 Y378 I0 J-3.2
N10930 G1 Y52
N10935 G3 X57 Y48.8 I3.2 J0
N10940 G1 X383
N10945 G3 X386.2 Y52 I0 J3.2
N10950 G1 Y215
N10955 G3 X385.6 Y215.6 I-0.6 J0
N10960 G1 X385
N10965 G18 G3 X384.4 Z5.6 I0 K0.6
N10970 G0 Z25
N10975 G0 Y214.4
N10980 G1 Z9.5 F333.3
N10985 G1 Z2.95
N10990 G2 X384.603 Z2.5 I0.6 K0 F1828.8
N10995 G1 X385
N11000 G1 X385.6
N11005 G17 G3 X386.2 Y215 I0 J0.6
N11010 G1 Y221
N11015 G1 Z2.35 F333.3
N11020 G1 Y317.667 F1828.8
N11025 G1 Z2.5
N11030 G1 Y329.667
N11035 G1 Z2.35 F333.3
N11040 G1 Y378 F1828.8
N11045 G3 X383 Y381.2 I-3.2 J0
N11050 G1 X334.667
N11055 G1 Z2.5
N11060 G1 X322.667
N11065 G1 Z2.35 F333.3
N11070 G1 X226 F1828.8
N11075 G1 Z2.5
N11080 G1 X214
N11085 G1 Z2.35 F333.3
N11090 G1 X117.333 F1828.8
N11095 G1 Z2.5
N11100 G1 X105.333
N11105 G1 Z2.35 F333.3
N11110 G1 X57 F1828.8
N11115 G3 X53.8 Y378 I0 J-3.2
N11120 G1 Y329.667
N11125 G1 Z2.5
N11130 G1 Y317.667
N11135 G1 Z2.35 F333.3
N11140 G1 Y221 F1828.8
N11145 G1 Z2.5
N11150 G1 Y209
N11155 G1 Z2.35 F333.3
N11160 G1 Y112.333 F1828.8
N11165 G1 Z2.5
N11170 G1 Y100.333
N11175 G1 Z2.35 F333.3
N11180 G1 Y52 F1828.8
N11185 G3 X57 Y48.8 I3.2 J0
N11190 G1 X105.333
N11195 G1 Z2.5
N11200 G1 X117.333
N11205 G1 Z2.35 F333.3
N11210 G1 X214 F1828.8
N11215 G1 Z2.5
N11220 G1 X226
N11225 G1 Z2.35 F333.3
N11230 G1 X322.667 F1828.8
N11235 G1 Z2.5
N11240 G1 X334.667
N11245 G1 Z2.35 F333.3
N11250 G1 X383 F1828.8
N11255 G3 X386.2 Y52 I0 J3.2
N11260 G1 Y100.333
N11265 G1 Z2.5
N11270 G1 Y112.333
N11275 G1 Z2.35 F333.3
N11280 G1 Y209 F1828.8
N11285 G1 Z2.5
N11290 G1 Y215
N11295 G3 X385.6 Y215.6 I-0.6 J0
N11300 G1 X385
N11305 G1 X384.603 F333.3
N11310 G18 G3 X384.4 Z2.95 I0.397 K0.45 F1828.8
N11315 G0 Z25
N11320 G0 Y214.4
N11325 G1 Z6.85 F333.3
N11330 G1 Z2.5
N11335 G1 X385 F1828.8
N11340 G1 X385.6
N11345 G17 G3 X386.2 Y215 I0 J0.6
N11350 G1 Y221
N11355 G1 Z-0.3 F333.3
N11360 G1 Y317.667 F1828.8
N11365 G1 Z2.5
N11370 G1 Y329.667
N11375 G1 Z-0.3 F333.3
N11380 G1 Y378 F1828.8
N11385 G3 X383 Y381.2 I-3.2 J0
N11390 G1 X334.667
N11395 G1 Z2.5
N11400 G1 X322.667
N11405 G1 Z-0.3 F333.3
N11410 G1 X226 F1828.8
N11415 G1 Z2.5
N11420 G1 X214
N11425 G1 Z-0.3 F333.3
N11430 G1 X117.333 F1828.8
N11435 G1 Z2.5
N11440 G1 X105.333
N11445 G1 Z-0.3 F333.3
N11450 G1 X57 F1828.8
N11455 G3 X53.8 Y378 I0 J-3.2
N11460 G1 Y329.667
N11465 G1 Z2.5
N11470 G1 Y317.667
N11475 G1 Z-0.3 F333.3
N11480 G1 Y221 F1828.8
N11485 G1 Z2.5
N11490 G1 Y209
N11495 G1 Z-0.3 F333.3
N11500 G1 Y112.333 F1828.8
N11505 G1 Z2.5
N11510 G1 Y100.333
N11515 G1 Z-0.3 F333.3
N11520 G1 Y52 F1828.8
N11525 G3 X57 Y48.8 I3.2 J0
N11530 G1 X105.333
N11535 G1 Z2.5
N11540 G1 X117.333
N11545 G1 Z-0.3 F333.3
N11550 G1 X214 F1828.8
N11555 G1 Z2.5
N11560 G1 X226
N11565 G1 Z-0.3 F333.3
N11570 G1 X322.667 F1828.8
N11575 G1 Z2.5
N11580 G1 X334.667
N11585 G1 Z-0.3 F333.3
N11590 G1 X383 F1828.8
N11595 G3 X386.2 Y52 I0 J3.2
N11600 G1 Y100.333
N11605 G1 Z2.5
N11610 G1 Y112.333
N11615 G1 Z-0.3 F333.3
N11620 G1 Y209 F1828.8
N11625 G1 Z2.5
N11630 G1 Y215
N11635 G2 X386.5 Y215.45 I0.487 J0
N11640 G3 X386.8 Y215.9 I-0.188 J0.45
N11645 G1 Y221
N11650 G1 Z-0.3 F333.3
N11655 G1 Y317.667 F1828.8
N11660 G1 Z2.5
N11665 G1 Y329.667
N11670 G1 Z-0.3 F333.3
N11675 G1 Y378 F1828.8
N11680 G3 X383 Y381.8 I-3.8 J0
N11685 G1 X334.667
N11690 G1 Z2.5
N11695 G1 X322.667
N11700 G1 Z-0.3 F333.3
N11705 G1 X226 F1828.8
N11710 G1 Z2.5
N11715 G1 X214
N11720 G1 Z-0.3 F333.3
N11725 G1 X117.333 F1828.8
N11730 G1 Z2.5
N11735 G1 X105.333
N11740 G1 Z-0.3 F333.3
N11745 G1 X57 F1828.8
N11750 G3 X53.2 Y378 I0 J-3.8
N11755 G1 Y329.667
N11760 G1 Z2.5
N11765 G1 Y317.667
N11770 G1 Z-0.3 F333.3
N11775 G1 Y221 F1828.8
N11780 G1 Z2.5
N11785 G1 Y209
N11790 G1 Z-0.3 F333.3
N11795 G1 Y112.333 F1828.8
N11800 G1 Z2.5
N11805 G1 Y100.333
N11810 G1 Z-0.3 F333.3
N11815 G1 Y52 F1828.8
N11820 G3 X57 Y48.2 I3.8 J0
N11825 G1 X105.333
N11830 G1 Z2.5
N11835 G1 X117.333
N11840 G1 Z-0.3 F333.3
N11845 G1 X214 F1828.8
N11850 G1 Z2.5
N11855 G1 X226
N11860 G1 Z-0.3 F333.3
N11865 G1 X322.667 F1828.8
N11870 G1 Z2.5
N11875 G1 X334.667
N11880 G1 Z-0.3 F333.3
N11885 G1 X383 F1828.8
N11890 G3 X386.8 Y52 I0 J3.8
N11895 G1 Y100.333
N11900 G1 Z2.5
N11905 G1 Y112.333
N11910 G1 Z-0.3 F333.3
N11915 G1 Y209 F1828.8
N11920 G1 Z2.5
N11925 G1 Y215.9
N11930 G3 X386.2 Y216.5 I-0.6 J0
N11935 G1 X385
N11940 G0 Z35
N11945 G28 G91 Z0
N11950 G90
N11955 G28 G91 X0 Y0
N11960 G90
N11965 M30
%
