%
(Big_Frame_New_Parameters)
(Machine)
(  vendor: CNC-Step)
(  model: High-Z S1400T)
(  description: Generic 3-axis)
(T1 D=6 CR=0 - ZMIN=-1 - flat end mill)
N10 G90 G94
N15 G17
N20 G21
N25 G28 G91 Z0
N30 G90

(2D Adaptive2)
N35 T1 M6
N40 S14400 M3
N45 G54
N50 G0 X6.381 Y-6.851
N55 G0 G43 Z35 H1
N60 G0 Z25
N65 G0 Z16.2
N70 G1 Z15.6 F1828.8
N75 G1 X6.383 Y-6.844 Z15.506
N80 G1 X6.389 Y-6.823 Z15.415
N85 G1 X6.398 Y-6.788 Z15.328
N90 G1 X6.41 Y-6.74 Z15.247
N95 G1 X6.425 Y-6.681 Z15.176
N100 G1 X6.443 Y-6.612 Z15.115
N105 G1 X6.463 Y-6.534 Z15.065
N110 G1 X6.484 Y-6.45 Z15.029
N115 G1 X6.507 Y-6.361 Z15.007
N120 G1 X6.53 Y-6.27 Z15
N125 G3 X7 Y-3.004 I-14.839 J3.801
N130 G1 Y-2.741
N135 G1 X6.998 Y-2.704
N140 G1 X6.907 Y-2.585
N145 G1 X6.79 Y-2.454
N150 G1 X6.635 Y-2.308
N155 G1 X6.433 Y-2.146
N160 G1 X6.175 Y-1.971
N165 G1 X5.844 Y-1.783
N170 G1 X5.415 Y-1.584
N175 G1 X4.849 Y-1.374
N180 G1 X4.073 Y-1.156
N185 G1 X3.204 Y-0.985
N190 G1 X2.765 Y-0.926
N195 G1 X2.33 Y-0.839
N200 G1 X1.544 Y-0.43
N205 G1 X0.945 Y0.223
N210 G1 X0.504 Y0.991
N215 G1 X0.183 Y1.817
N220 G1 X-0.047 Y2.673
N225 G1 X-0.21 Y3.544
N230 G1 X-0.326 Y4.423
N235 G1 X-0.408 Y5.305
N240 G1 X-0.466 Y6.189
N245 G1 X-0.506 Y7.074
N250 G1 X-0.534 Y7.96
N255 G1 X-0.554 Y8.846
N260 G1 X-0.568 Y9.732
N265 G1 X-0.578 Y10.618
N270 G1 X-0.584 Y11.504
N275 G1 X-0.589 Y12.39
N280 G1 X-0.595 Y14.163
N285 G1 X-0.598 Y16.821
N290 G1 X-0.6 Y23.024
N295 G1 Y43.405
N300 G1 Y57.139
N305 G1 X-0.577 Y57.36
N310 G1 X-0.462 Y57.788
N315 G1 X-0.006 Y58.548
N320 G1 X0.668 Y59.123
N325 G1 X1.446 Y59.546
N330 G1 X2.278 Y59.853
N335 G1 X3.136 Y60.072
N340 G1 X4.009 Y60.229
N345 G1 X4.888 Y60.339
N350 G1 X5.771 Y60.417
N355 G1 X6.655 Y60.472
N360 G1 X7.54 Y60.51
N365 G1 X8.426 Y60.537
N370 G1 X9.312 Y60.556
N375 G1 X10.198 Y60.569
N380 G1 X11.084 Y60.579
N385 G1 X11.97 Y60.585
N390 G1 X12.856 Y60.59
N395 G1 X14.628 Y60.595
N400 G1 X17.287 Y60.598
N405 G1 X23.49 Y60.6
N410 G1 X35.009
N415 G1 X85.518
N420 G1 X136.027
N425 G1 X186.536
N430 G1 X237.045
N435 G1 X287.554
N440 G1 X338.063
N445 G1 X388.572
N450 G1 X439.081
N455 G1 X489.59
N460 G1 X540.099
N465 G1 X590.608
N470 G1 X641.117
N475 G1 X691.626
N480 G1 X742.135
N485 G1 X792.644
N490 G1 X843.154
N495 G1 X893.662
N500 G1 X944.172
N505 G1 X994.681
N510 G1 X1045.19
N515 G1 X1095.699
N520 G1 X1146.208
N525 G1 X1196.717
N530 G1 X1227.288
N535 G1 X1227.718 Y60.495
N540 G1 X1228.494 Y60.066
N545 G1 X1229.083 Y59.404
N550 G1 X1229.517 Y58.631
N555 G1 X1229.832 Y57.803
N560 G1 X1230.057 Y56.946
N565 G1 X1230.218 Y56.075
N570 G1 X1230.332 Y55.196
N575 G1 X1230.412 Y54.313
N580 G1 X1230.468 Y53.429
N585 G1 X1230.508 Y52.544
N590 G1 X1230.535 Y51.658
N595 G1 X1230.555 Y50.772
N600 G1 X1230.568 Y49.886
N605 G1 X1230.578 Y49
N610 G1 X1230.585 Y48.114
N615 G1 X1230.589 Y47.228
N620 G1 X1230.595 Y45.456
N625 G1 X1230.598 Y42.797
N630 G1 X1230.599 Y41.911
N635 G1 X1230.6 Y33.05
N640 G1 Y2.922
N645 G1 X1230.594 Y2.7
N650 G1 X1230.553 Y2.483
N655 G1 X1230.403 Y2.066
N660 G1 X1229.896 Y1.339
N665 G1 X1229.198 Y0.793
N670 G1 X1228.407 Y0.393
N675 G1 X1227.57 Y0.103
N680 G1 X1226.708 Y-0.104
N685 G1 X1225.834 Y-0.251
N690 G1 X1224.954 Y-0.355
N695 G1 X1224.284 Y-0.41
N700 G1 X1223.992 Y-0.466
N705 G1 X1223.719 Y-0.582
N710 G1 X1223.476 Y-0.754
N715 G1 X1223.275 Y-0.972
N720 G1 X1223.125 Y-1.228
N725 G1 X1223.031 Y-1.51
N730 G1 X1223 Y-1.806
N735 G3 X1223.465 Y-2.369 I0.6 J0.021
N740 G1 X1223.556 Y-2.39 Z15.007
N745 G1 X1223.645 Y-2.411 Z15.029
N750 G1 X1223.73 Y-2.431 Z15.065
N755 G1 X1223.808 Y-2.449 Z15.115
N760 G1 X1223.878 Y-2.465 Z15.176
N765 G1 X1223.938 Y-2.479 Z15.247
N770 G1 X1223.986 Y-2.49 Z15.328
N775 G1 X1224.021 Y-2.498 Z15.415
N780 G1 X1224.042 Y-2.503 Z15.506
N785 G1 X1224.049 Y-2.504 Z15.6
N790 G0 Z25
N795 G0 X6.472 Y-4.011
N800 G0 Z16.2
N805 G1 Z15.6 F1828.8
N810 G1 X6.476 Y-4.004 Z15.506
N815 G1 X6.487 Y-3.986 Z15.415
N820 G1 X6.505 Y-3.955 Z15.328
N825 G1 X6.531 Y-3.912 Z15.247
N830 G1 X6.562 Y-3.86 Z15.176
N835 G1 X6.598 Y-3.798 Z15.115
N840 G1 X6.639 Y-3.729 Z15.065
N845 G1 X6.684 Y-3.654 Z15.029
N850 G1 X6.731 Y-3.576 Z15.007
N855 G1 X6.779 Y-3.495 Z15
N860 G3 X7 Y-2.741 I-1.36 J0.809
N865 G1 Y-1.887
N870 G1 X6.992 Y-1.737
N875 G1 X6.93 Y-1.576
N880 G1 X6.838 Y-1.387
N885 G1 X6.726 Y-1.197
N890 G1 X6.58 Y-0.99
N895 G1 X6.387 Y-0.758
N900 G1 X6.17 Y-0.536
N905 G1 X5.888 Y-0.29
N910 G1 X5.175 Y0.237
N915 G1 X4.459 Y0.759
N920 G1 X3.854 Y1.406
N925 G1 X3.364 Y2.144
N930 G1 X2.979 Y2.943
N935 G1 X2.682 Y3.777
N940 G1 X2.456 Y4.634
N945 G1 X2.285 Y5.503
N950 G1 X2.157 Y6.38
N955 G1 X2.062 Y7.261
N960 G1 X1.992 Y8.145
N965 G1 X1.94 Y9.029
N970 G1 X1.902 Y9.915
N975 G1 X1.874 Y10.8
N980 G1 X1.854 Y11.686
N985 G1 X1.839 Y12.572
N990 G1 X1.828 Y13.458
N995 G1 X1.82 Y14.344
N1000 G1 X1.815 Y15.23
N1005 G1 X1.811 Y16.117
N1010 G1 X1.805 Y17.889
N1015 G1 X1.802 Y20.547
N1020 G1 X1.8 Y26.75
N1025 G1 Y47.131
N1030 G1 Y54.22
N1035 G1 X1.902 Y54.651
N1040 G1 X2.257 Y55.463
N1045 G1 X2.84 Y56.131
N1050 G1 X3.554 Y56.655
N1055 G1 X4.344 Y57.057
N1060 G1 X5.176 Y57.36
N1065 G1 X6.033 Y57.585
N1070 G1 X6.904 Y57.752
N1075 G1 X7.781 Y57.875
N1080 G1 X8.663 Y57.964
N1085 G1 X9.546 Y58.03
N1090 G1 X10.431 Y58.077
N1095 G1 X11.317 Y58.111
N1100 G1 X12.202 Y58.136
N1105 G1 X13.088 Y58.154
N1110 G1 X13.974 Y58.167
N1115 G1 X14.861 Y58.176
N1120 G1 X15.747 Y58.183
N1125 G1 X16.633 Y58.188
N1130 G1 X18.405 Y58.194
N1135 G1 X21.063 Y58.198
N1140 G1 X26.38 Y58.2
N1145 G1 X43.216
N1150 G1 X93.725
N1155 G1 X144.234
N1160 G1 X194.743
N1165 G1 X245.252
N1170 G1 X295.762
N1175 G1 X346.271
N1180 G1 X396.78
N1185 G1 X447.289
N1190 G1 X497.798
N1195 G1 X548.307
N1200 G1 X598.816
N1205 G1 X649.325
N1210 G1 X699.834
N1215 G1 X750.343
N1220 G1 X800.852
N1225 G1 X851.361
N1230 G1 X901.87
N1235 G1 X952.379
N1240 G1 X1002.888
N1245 G1 X1053.397
N1250 G1 X1103.906
N1255 G1 X1154.415
N1260 G1 X1204.924
N1265 G1 X1224.418
N1270 G1 X1225.259 Y57.921
N1275 G1 X1225.966 Y57.386
N1280 G1 X1226.527 Y56.7
N1285 G1 X1226.959 Y55.926
N1290 G1 X1227.286 Y55.103
N1295 G1 X1227.53 Y54.251
N1300 G1 X1227.711 Y53.384
N1305 G1 X1227.845 Y52.507
N1310 G1 X1227.942 Y51.627
N1315 G1 X1228.014 Y50.744
N1320 G1 X1228.065 Y49.859
N1325 G1 X1228.103 Y48.974
N1330 G1 X1228.13 Y48.088
N1335 G1 X1228.15 Y47.202
N1340 G1 X1228.164 Y46.316
N1345 G1 X1228.174 Y45.43
N1350 G1 X1228.181 Y44.544
N1355 G1 X1228.187 Y43.658
N1360 G1 X1228.19 Y42.772
N1365 G1 X1228.195 Y40.999
N1370 G1 X1228.198 Y38.341
N1375 G1 X1228.2 Y32.138
N1380 G1 Y28.594
N1385 G1 Y5.554
N1390 G1 X1227.91 Y4.717
N1395 G1 X1227.368 Y4.016
N1400 G1 X1226.679 Y3.459
N1405 G1 X1225.905 Y3.028
N1410 G1 X1224.292 Y2.294
N1415 G1 X1223.721 Y1.987
N1420 G1 X1223.64 Y1.935
N1425 G1 X1223.422 Y1.761
N1430 G1 X1223.243 Y1.547
N1435 G1 X1223.11 Y1.303
N1440 G1 X1223.028 Y1.036
N1445 G1 X1223 Y0.759
N1450 G1 Y0.015
N1455 G3 X1223.465 Y-0.549 I0.6 J0.021
N1460 G1 X1223.556 Y-0.57 Z15.007
N1465 G1 X1223.645 Y-0.59 Z15.029
N1470 G1 X1223.73 Y-0.61 Z15.065
N1475 G1 X1223.808 Y-0.628 Z15.115
N1480 G1 X1223.878 Y-0.644 Z15.176
N1485 G1 X1223.938 Y-0.658 Z15.247
N1490 G1 X1223.986 Y-0.669 Z15.328
N1495 G1 X1224.021 Y-0.677 Z15.415
N1500 G1 X1224.042 Y-0.682 Z15.506
N1505 G1 X1224.049 Y-0.684 Z15.6
N1510 G0 Z25
N1515 G0 X6.472 Y-3.156
N1520 G0 Z16.2
N1525 G1 Z15.6 F1828.8
N1530 G1 X6.476 Y-3.15 Z15.506
N1535 G1 X6.487 Y-3.131 Z15.415
N1540 G1 X6.505 Y-3.1 Z15.328
N1545 G1 X6.531 Y-3.057 Z15.247
N1550 G1 X6.562 Y-3.005 Z15.176
N1555 G1 X6.598 Y-2.943 Z15.115
N1560 G1 X6.639 Y-2.874 Z15.065
N1565 G1 X6.684 Y-2.8 Z15.029
N1570 G1 X6.731 Y-2.721 Z15.007
N1575 G1 X6.779 Y-2.64 Z15
N1580 G3 X7 Y-1.887 I-1.36 J0.809
N1585 G1 Y-0.679
N1590 G1 X6.996 Y-0.602
N1595 G1 X6.98 Y-0.429
N1600 G1 X6.944 Y-0.224
N1605 G1 X6.882 Y0.019
N1610 G1 X6.687 Y0.581
N1615 G1 X6.331 Y1.393
N1620 G1 X5.968 Y2.201
N1625 G1 X5.636 Y3.022
N1630 G1 X5.347 Y3.86
N1635 G1 X5.106 Y4.713
N1640 G1 X4.908 Y5.577
N1645 G1 X4.749 Y6.448
N1650 G1 X4.623 Y7.326
N1655 G1 X4.524 Y8.206
N1660 G1 X4.447 Y9.089
N1665 G1 X4.387 Y9.973
N1670 G1 X4.342 Y10.858
N1675 G1 X4.307 Y11.743
N1680 G1 X4.28 Y12.629
N1685 G1 X4.26 Y13.515
N1690 G1 X4.245 Y14.401
N1695 G1 X4.233 Y15.287
N1700 G1 X4.225 Y16.173
N1705 G1 X4.218 Y17.059
N1710 G1 X4.214 Y17.945
N1715 G1 X4.207 Y19.718
N1720 G1 X4.203 Y22.376
N1725 G1 X4.201 Y26.806
N1730 G1 X4.2 Y48.96
N1735 G1 Y51.618
N1740 G1 X4.43 Y52.474
N1745 G1 X4.912 Y53.217
N1750 G1 X5.556 Y53.826
N1755 G1 X6.3 Y54.307
N1760 G1 X7.104 Y54.679
N1765 G1 X7.943 Y54.964
N1770 G1 X8.803 Y55.179
N1775 G1 X9.674 Y55.34
N1780 G1 X10.552 Y55.46
N1785 G1 X11.434 Y55.55
N1790 G1 X12.318 Y55.616
N1795 G1 X13.202 Y55.665
N1800 G1 X14.088 Y55.701
N1805 G1 X14.973 Y55.728
N1810 G1 X15.859 Y55.747
N1815 G1 X16.745 Y55.761
N1820 G1 X17.631 Y55.772
N1825 G1 X18.517 Y55.78
N1830 G1 X19.404 Y55.785
N1835 G1 X20.29 Y55.789
N1840 G1 X22.062 Y55.794
N1845 G1 X24.72 Y55.798
N1850 G1 X30.037 Y55.8
N1855 G1 X50.418
N1860 G1 X100.927
N1865 G1 X151.436
N1870 G1 X201.945
N1875 G1 X252.454
N1880 G1 X302.963
N1885 G1 X353.472
N1890 G1 X403.981
N1895 G1 X454.49
N1900 G1 X504.999
N1905 G1 X555.508
N1910 G1 X606.017
N1915 G1 X656.526
N1920 G1 X707.035
N1925 G1 X757.544
N1930 G1 X808.053
N1935 G1 X858.562
N1940 G1 X909.071
N1945 G1 X959.58
N1950 G1 X1010.089
N1955 G1 X1060.598
N1960 G1 X1111.107
N1965 G1 X1161.616
N1970 G1 X1212.125
N1975 G1 X1220.986
N1980 G1 X1221.872 Y55.786
N1985 G1 X1222.703 Y55.477
N1990 G1 X1223.408 Y54.941
N1995 G1 X1223.979 Y54.263
N2000 G1 X1224.427 Y53.498
N2005 G1 X1224.772 Y52.682
N2010 G1 X1225.034 Y51.835
N2015 G1 X1225.232 Y50.972
N2020 G1 X1225.38 Y50.098
N2025 G1 X1225.49 Y49.219
N2030 G1 X1225.572 Y48.336
N2035 G1 X1225.633 Y47.452
N2040 G1 X1225.677 Y46.567
N2045 G1 X1225.71 Y45.682
N2050 G1 X1225.734 Y44.796
N2055 G1 X1225.752 Y43.91
N2060 G1 X1225.765 Y43.024
N2065 G1 X1225.775 Y42.138
N2070 G1 X1225.781 Y41.252
N2075 G1 X1225.786 Y40.366
N2080 G1 X1225.793 Y38.594
N2085 G1 X1225.797 Y35.935
N2090 G1 X1225.799 Y31.505
N2095 G1 X1225.8 Y16.44
N2100 G1 Y8.465
N2105 G1 X1225.609 Y7.6
N2110 G1 X1225.184 Y6.823
N2115 G1 X1224.622 Y6.137
N2120 G1 X1223.989 Y5.518
N2125 G1 X1223.459 Y5.036
N2130 G1 X1223.265 Y4.819
N2135 G1 X1223.12 Y4.567
N2140 G1 X1223.03 Y4.29
N2145 G1 X1223 Y4
N2150 G1 Y0.759
N2155 G3 X1223.465 Y0.195 I0.6 J0.021
N2160 G1 X1223.556 Y0.174 Z15.007
N2165 G1 X1223.645 Y0.154 Z15.029
N2170 G1 X1223.73 Y0.134 Z15.065
N2175 G1 X1223.808 Y0.116 Z15.115
N2180 G1 X1223.878 Y0.1 Z15.176
N2185 G1 X1223.938 Y0.086 Z15.247
N2190 G1 X1223.986 Y0.075 Z15.328
N2195 G1 X1224.021 Y0.067 Z15.415
N2200 G1 X1224.042 Y0.062 Z15.506
N2205 G1 X1224.049 Y0.06 Z15.6
N2210 G0 Z25
N2215 G0 X6.472 Y-1.949
N2220 G0 Z16.2
N2225 G1 Z15.6 F1828.8
N2230 G1 X6.476 Y-1.942 Z15.506
N2235 G1 X6.487 Y-1.923 Z15.415
N2240 G1 X6.505 Y-1.892 Z15.328
N2245 G1 X6.531 Y-1.85 Z15.247
N2250 G1 X6.562 Y-1.797 Z15.176
N2255 G1 X6.598 Y-1.736 Z15.115
N2260 G1 X6.639 Y-1.667 Z15.065
N2265 G1 X6.684 Y-1.592 Z15.029
N2270 G1 X6.731 Y-1.513 Z15.007
N2275 G1 X6.779 Y-1.433 Z15
N2280 G3 X7 Y-0.679 I-1.36 J0.809
N2285 G1 Y4.845
N2290 G1 X6.956 Y5.73
N2295 G1 X6.937 Y6.616
N2300 G1 X6.902 Y7.501
N2305 G1 X6.82 Y9.272
N2310 G1 X6.782 Y10.157
N2315 G1 X6.748 Y11.042
N2320 G1 X6.719 Y11.928
N2325 G1 X6.695 Y12.814
N2330 G1 X6.675 Y13.7
N2335 G1 X6.659 Y14.586
N2340 G1 X6.646 Y15.472
N2345 G1 X6.636 Y16.358
N2350 G1 X6.628 Y17.244
N2355 G1 X6.621 Y18.13
N2360 G1 X6.616 Y19.016
N2365 G1 X6.609 Y20.788
N2370 G1 X6.604 Y23.447
N2375 G1 X6.601 Y26.991
N2380 G1 X6.6 Y37.625
N2385 G1 Y49.144
N2390 G1 X6.851 Y49.994
N2395 G1 X6.94 Y50.154
N2400 G1 X7.006 Y50.324
N2405 G1 X7.046 Y50.502
N2410 G1 X7.05 Y50.527
N2415 G1 X7.079 Y50.671
N2420 G1 X7.093 Y50.728
N2425 G1 X7.15 Y50.929
N2430 G1 X7.222 Y51.13
N2435 G1 X7.28 Y51.256
N2440 G1 X7.317 Y51.332
N2445 G1 X7.426 Y51.533
N2450 G1 X7.553 Y51.734
N2455 G1 X7.715 Y51.935
N2460 G1 X7.884 Y52.117
N2465 G1 X8.085 Y52.307
N2470 G1 X8.287 Y52.458
N2475 G1 X8.41 Y52.539
N2480 G1 X8.488 Y52.585
N2485 G1 X8.689 Y52.695
N2490 G1 X8.891 Y52.786
N2495 G1 X8.992 Y52.824
N2500 G1 X9.092 Y52.856
N2505 G1 X9.429 Y52.942
N2510 G1 X9.495 Y52.955
N2515 G1 X9.696 Y52.982
N2520 G1 X9.898 Y52.994
N2525 G1 X10.781 Y53.063
N2530 G1 X11.665 Y53.13
N2535 G1 X12.549 Y53.186
N2540 G1 X13.434 Y53.232
N2545 G1 X14.319 Y53.269
N2550 G1 X15.205 Y53.298
N2555 G1 X16.091 Y53.322
N2560 G1 X16.977 Y53.34
N2565 G1 X17.863 Y53.354
N2570 G1 X18.749 Y53.365
N2575 G1 X19.635 Y53.374
N2580 G1 X20.521 Y53.38
N2585 G1 X21.407 Y53.385
N2590 G1 X23.179 Y53.392
N2595 G1 X25.838 Y53.397
N2600 G1 X30.268 Y53.399
N2605 G1 X56.852 Y53.4
N2610 G1 X60.396
N2615 G1 X110.906
N2620 G1 X161.415
N2625 G1 X211.924
N2630 G1 X262.433
N2635 G1 X312.942
N2640 G1 X363.451
N2645 G1 X413.96
N2650 G1 X464.469
N2655 G1 X514.978
N2660 G1 X565.487
N2665 G1 X615.996
N2670 G1 X666.505
N2675 G1 X717.014
N2680 G1 X767.523
N2685 G1 X818.032
N2690 G1 X868.541
N2695 G1 X919.05
N2700 G1 X969.559
N2705 G1 X1020.068
N2710 G1 X1070.577
N2715 G1 X1121.086
N2720 G1 X1171.595
N2725 G1 X1218.559
N2730 G1 X1219.443 Y53.341
N2735 G1 X1220.176 Y53.043
N2740 G1 X1220.283 Y53.004
N2745 G1 X1220.393 Y52.975
N2750 G1 X1220.505 Y52.955
N2755 G1 X1220.572 Y52.942
N2760 G1 X1220.908 Y52.856
N2765 G1 X1221.008 Y52.824
N2770 G1 X1221.109 Y52.786
N2775 G1 X1221.311 Y52.695
N2780 G1 X1221.512 Y52.585
N2785 G1 X1221.59 Y52.539
N2790 G1 X1221.713 Y52.458
N2795 G1 X1221.915 Y52.307
N2800 G1 X1222.116 Y52.117
N2805 G1 X1222.285 Y51.935
N2810 G1 X1222.447 Y51.734
N2815 G1 X1222.574 Y51.533
N2820 G1 X1222.683 Y51.332
N2825 G1 X1222.72 Y51.256
N2830 G1 X1222.778 Y51.13
N2835 G1 X1222.85 Y50.929
N2840 G1 X1222.907 Y50.728
N2845 G1 X1222.922 Y50.671
N2850 G1 X1222.95 Y50.527
N2855 G1 X1222.981 Y50.325
N2860 G1 X1222.995 Y50.124
N2865 G1 X1223.06 Y49.24
N2870 G1 X1223.128 Y48.357
N2875 G1 X1223.185 Y47.473
N2880 G1 X1223.231 Y46.588
N2885 G1 X1223.269 Y45.702
N2890 G1 X1223.298 Y44.817
N2895 G1 X1223.322 Y43.931
N2900 G1 X1223.34 Y43.045
N2905 G1 X1223.354 Y42.159
N2910 G1 X1223.365 Y41.273
N2915 G1 X1223.374 Y40.387
N2920 G1 X1223.38 Y39.501
N2925 G1 X1223.385 Y38.615
N2930 G1 X1223.392 Y36.842
N2935 G1 X1223.397 Y34.184
N2940 G1 X1223.399 Y29.753
N2945 G1 X1223.4 Y11.145
N2950 G1 X1223.309 Y10.263
N2955 G1 X1223.064 Y9.478
N2960 G1 X1223.028 Y9.341
N2965 G1 X1223.007 Y9.202
N2970 G1 X1223 Y9.061
N2975 G1 Y4
N2980 G3 X1223.465 Y3.436 I0.6 J0.021
N2985 G1 X1223.556 Y3.415 Z15.007
N2990 G1 X1223.645 Y3.395 Z15.029
N2995 G1 X1223.73 Y3.375 Z15.065
N3000 G1 X1223.808 Y3.357 Z15.115
N3005 G1 X1223.878 Y3.341 Z15.176
N3010 G1 X1223.938 Y3.327 Z15.247
N3015 G1 X1223.986 Y3.316 Z15.328
N3020 G1 X1224.021 Y3.308 Z15.415
N3025 G1 X1224.042 Y3.303 Z15.506
N3030 G1 X1224.049 Y3.302 Z15.6
N3035 G0 Z25
N3040 G0 X1223.492 Y51.406
N3045 G0 Z16.2
N3050 G1 Z15.6 F1828.8
N3055 G1 X1223.488 Y51.399 Z15.506
N3060 G1 X1223.477 Y51.38 Z15.415
N3065 G1 X1223.46 Y51.349 Z15.328
N3070 G1 X1223.436 Y51.306 Z15.247
N3075 G1 X1223.406 Y51.253 Z15.176
N3080 G1 X1223.371 Y51.19 Z15.115
N3085 G1 X1223.331 Y51.12 Z15.065
N3090 G1 X1223.289 Y51.044 Z15.029
N3095 G1 X1223.244 Y50.965 Z15.007
N3100 G1 X1223.198 Y50.883 Z15
N3105 G3 X1222.995 Y50.124 I1.379 J-0.776
N3110 G1 X1222.999 Y49.923
N3115 G1 X1223 Y46.703
N3120 G1 Y9.061
N3125 G3 X1223.465 Y8.497 I0.6 J0.021
N3130 G1 X1223.556 Y8.476 Z15.007
N3135 G1 X1223.645 Y8.455 Z15.029
N3140 G1 X1223.73 Y8.436 Z15.065
N3145 G1 X1223.808 Y8.418 Z15.115
N3150 G1 X1223.878 Y8.402 Z15.176
N3155 G1 X1223.938 Y8.388 Z15.247
N3160 G1 X1223.986 Y8.377 Z15.328
N3165 G1 X1224.021 Y8.369 Z15.415
N3170 G1 X1224.042 Y8.364 Z15.506
N3175 G1 X1224.049 Y8.362 Z15.6
N3180 G0 Z25
N3185 G0 X8.614 Y53.487
N3190 G0 Z16.2
N3195 G1 Z15.6 F1828.8
N3200 G1 X8.621 Y53.483 Z15.506
N3205 G1 X8.64 Y53.473 Z15.415
N3210 G1 X8.671 Y53.455 Z15.328
N3215 G1 X8.714 Y53.431 Z15.247
N3220 G1 X8.768 Y53.401 Z15.176
N3225 G1 X8.83 Y53.367 Z15.115
N3230 G1 X8.9 Y53.328 Z15.065
N3235 G1 X8.976 Y53.285 Z15.029
N3240 G1 X9.056 Y53.241 Z15.007
N3245 G1 X9.138 Y53.195 Z15
N3250 G3 X9.898 Y52.994 I0.771 J1.382
N3255 G1 X10.099 Y53
N3260 G1 X1219.901
N3265 G1 X1220.102 Y52.994
N3270 G1 X1220.304 Y52.982
N3275 G1 X1220.505 Y52.955
N3280 G3 X1221.126 Y53.341 I0.059 J0.597
N3285 G1 X1221.159 Y53.428 Z15.007
N3290 G1 X1221.191 Y53.514 Z15.029
N3295 G1 X1221.222 Y53.595 Z15.065
N3300 G1 X1221.25 Y53.671 Z15.115
N3305 G1 X1221.275 Y53.738 Z15.176
N3310 G1 X1221.297 Y53.795 Z15.247
N3315 G1 X1221.314 Y53.841 Z15.328
N3320 G1 X1221.327 Y53.875 Z15.415
N3325 G1 X1221.335 Y53.895 Z15.506
N3330 G1 X1221.337 Y53.902 Z15.6
N3335 G0 Z25
N3340 G0 X6.472 Y3.576
N3345 G0 Z16.2
N3350 G1 Z15.6 F1828.8
N3355 G1 X6.476 Y3.582 Z15.506
N3360 G1 X6.487 Y3.601 Z15.415
N3365 G1 X6.505 Y3.632 Z15.328
N3370 G1 X6.531 Y3.674 Z15.247
N3375 G1 X6.562 Y3.727 Z15.176
N3380 G1 X6.598 Y3.788 Z15.115
N3385 G1 X6.639 Y3.857 Z15.065
N3390 G1 X6.684 Y3.932 Z15.029
N3395 G1 X6.731 Y4.011 Z15.007
N3400 G1 X6.779 Y4.091 Z15
N3405 G3 X7 Y4.845 I-1.36 J0.809
N3410 G1 Y49.722
N3415 G1 X7.001 Y49.923
N3420 G1 X7.005 Y50.124
N3425 G1 X7.019 Y50.325
N3430 G1 X7.046 Y50.502
N3435 G1 X7.05 Y50.595
N3440 G1 X7.04 Y50.687
N3445 G1 X7.013 Y50.756 Z15.005
N3450 G1 X6.987 Y50.823 Z15.018
N3455 G1 X6.961 Y50.889 Z15.041
N3460 G1 X6.908 Y50.948 Z15.079
N3465 G1 X6.859 Y51.002 Z15.129
N3470 G1 X6.815 Y51.05 Z15.188
N3475 G1 X6.766 Y51.078 Z15.259
N3480 G1 X6.726 Y51.1 Z15.337
N3485 G1 X6.697 Y51.117 Z15.421
N3490 G1 X6.68 Y51.127 Z15.509
N3495 G1 X6.674 Y51.13 Z15.6
N3500 G0 Z25
N3505 G0 X6.381 Y-6.851
N3510 G0 Z11.2
N3515 G1 Z10.6 F1828.8
N3520 G1 X6.383 Y-6.844 Z10.506
N3525 G1 X6.389 Y-6.823 Z10.415
N3530 G1 X6.398 Y-6.788 Z10.328
N3535 G1 X6.41 Y-6.74 Z10.247
N3540 G1 X6.425 Y-6.681 Z10.176
N3545 G1 X6.443 Y-6.612 Z10.115
N3550 G1 X6.463 Y-6.534 Z10.065
N3555 G1 X6.484 Y-6.45 Z10.029
N3560 G1 X6.507 Y-6.361 Z10.007
N3565 G1 X6.53 Y-6.27 Z10
N3570 G3 X7 Y-3.004 I-14.839 J3.801
N3575 G1 Y-2.741
N3580 G1 X6.998 Y-2.704
N3585 G1 X6.907 Y-2.585
N3590 G1 X6.79 Y-2.454
N3595 G1 X6.635 Y-2.308
N3600 G1 X6.433 Y-2.146
N3605 G1 X6.175 Y-1.971
N3610 G1 X5.844 Y-1.783
N3615 G1 X5.415 Y-1.584
N3620 G1 X4.849 Y-1.374
N3625 G1 X4.073 Y-1.156
N3630 G1 X3.204 Y-0.985
N3635 G1 X2.765 Y-0.926
N3640 G1 X2.33 Y-0.839
N3645 G1 X1.544 Y-0.43
N3650 G1 X0.945 Y0.223
N3655 G1 X0.504 Y0.991
N3660 G1 X0.183 Y1.817
N3665 G1 X-0.047 Y2.673
N3670 G1 X-0.21 Y3.544
N3675 G1 X-0.326 Y4.423
N3680 G1 X-0.408 Y5.305
N3685 G1 X-0.466 Y6.189
N3690 G1 X-0.506 Y7.074
N3695 G1 X-0.534 Y7.96
N3700 G1 X-0.554 Y8.846
N3705 G1 X-0.568 Y9.732
N3710 G1 X-0.578 Y10.618
N3715 G1 X-0.584 Y11.504
N3720 G1 X-0.589 Y12.39
N3725 G1 X-0.595 Y14.163
N3730 G1 X-0.598 Y16.821
N3735 G1 X-0.6 Y23.024
N3740 G1 Y43.405
N3745 G1 Y57.139
N3750 G1 X-0.577 Y57.36
N3755 G1 X-0.462 Y57.788
N3760 G1 X-0.006 Y58.548
N3765 G1 X0.668 Y59.123
N3770 G1 X1.446 Y59.546
N3775 G1 X2.278 Y59.853
N3780 G1 X3.136 Y60.072
N3785 G1 X4.009 Y60.229
N3790 G1 X4.888 Y60.339
N3795 G1 X5.771 Y60.417
N3800 G1 X6.655 Y60.472
N3805 G1 X7.54 Y60.51
N3810 G1 X8.426 Y60.537
N3815 G1 X9.312 Y60.556
N3820 G1 X10.198 Y60.569
N3825 G1 X11.084 Y60.579
N3830 G1 X11.97 Y60.585
N3835 G1 X12.856 Y60.59
N3840 G1 X14.628 Y60.595
N3845 G1 X17.287 Y60.598
N3850 G1 X23.49 Y60.6
N3855 G1 X35.009
N3860 G1 X85.518
N3865 G1 X136.027
N3870 G1 X186.536
N3875 G1 X237.045
N3880 G1 X287.554
N3885 G1 X338.063
N3890 G1 X388.572
N3895 G1 X439.081
N3900 G1 X489.59
N3905 G1 X540.099
N3910 G1 X590.608
N3915 G1 X641.117
N3920 G1 X691.626
N3925 G1 X742.135
N3930 G1 X792.644
N3935 G1 X843.154
N3940 G1 X893.662
N3945 G1 X944.172
N3950 G1 X994.681
N3955 G1 X1045.19
N3960 G1 X1095.699
N3965 G1 X1146.208
N3970 G1 X1196.717
N3975 G1 X1227.288
N3980 G1 X1227.718 Y60.495
N3985 G1 X1228.494 Y60.066
N3990 G1 X1229.083 Y59.404
N3995 G1 X1229.517 Y58.631
N4000 G1 X1229.832 Y57.803
N4005 G1 X1230.057 Y56.946
N4010 G1 X1230.218 Y56.075
N4015 G1 X1230.332 Y55.196
N4020 G1 X1230.412 Y54.313
N4025 G1 X1230.468 Y53.429
N4030 G1 X1230.508 Y52.544
N4035 G1 X1230.535 Y51.658
N4040 G1 X1230.555 Y50.772
N4045 G1 X1230.568 Y49.886
N4050 G1 X1230.578 Y49
N4055 G1 X1230.585 Y48.114
N4060 G1 X1230.589 Y47.228
N4065 G1 X1230.595 Y45.456
N4070 G1 X1230.598 Y42.797
N4075 G1 X1230.599 Y41.911
N4080 G1 X1230.6 Y33.05
N4085 G1 Y2.922
N4090 G1 X1230.594 Y2.7
N4095 G1 X1230.553 Y2.483
N4100 G1 X1230.403 Y2.066
N4105 G1 X1229.896 Y1.339
N4110 G1 X1229.198 Y0.793
N4115 G1 X1228.407 Y0.393
N4120 G1 X1227.57 Y0.103
N4125 G1 X1226.708 Y-0.104
N4130 G1 X1225.834 Y-0.251
N4135 G1 X1224.954 Y-0.355
N4140 G1 X1224.284 Y-0.41
N4145 G1 X1223.992 Y-0.466
N4150 G1 X1223.719 Y-0.582
N4155 G1 X1223.476 Y-0.754
N4160 G1 X1223.275 Y-0.972
N4165 G1 X1223.125 Y-1.228
N4170 G1 X1223.031 Y-1.51
N4175 G1 X1223 Y-1.806
N4180 G3 X1223.465 Y-2.369 I0.6 J0.021
N4185 G1 X1223.556 Y-2.39 Z10.007
N4190 G1 X1223.645 Y-2.411 Z10.029
N4195 G1 X1223.73 Y-2.431 Z10.065
N4200 G1 X1223.808 Y-2.449 Z10.115
N4205 G1 X1223.878 Y-2.465 Z10.176
N4210 G1 X1223.938 Y-2.479 Z10.247
N4215 G1 X1223.986 Y-2.49 Z10.328
N4220 G1 X1224.021 Y-2.498 Z10.415
N4225 G1 X1224.042 Y-2.503 Z10.506
N4230 G1 X1224.049 Y-2.504 Z10.6
N4235 G0 Z25
N4240 G0 X6.472 Y-4.011
N4245 G0 Z11.2
N4250 G1 Z10.6 F1828.8
N4255 G1 X6.476 Y-4.004 Z10.506
N4260 G1 X6.487 Y-3.986 Z10.415
N4265 G1 X6.505 Y-3.955 Z10.328
N4270 G1 X6.531 Y-3.912 Z10.247
N4275 G1 X6.562 Y-3.86 Z10.176
N4280 G1 X6.598 Y-3.798 Z10.115
N4285 G1 X6.639 Y-3.729 Z10.065
N4290 G1 X6.684 Y-3.654 Z10.029
N4295 G1 X6.731 Y-3.576 Z10.007
N4300 G1 X6.779 Y-3.495 Z10
N4305 G3 X7 Y-2.741 I-1.36 J0.809
N4310 G1 Y-1.887
N4315 G1 X6.992 Y-1.737
N4320 G1 X6.93 Y-1.576
N4325 G1 X6.838 Y-1.387
N4330 G1 X6.726 Y-1.197
N4335 G1 X6.58 Y-0.99
N4340 G1 X6.387 Y-0.758
N4345 G1 X6.17 Y-0.536
N4350 G1 X5.888 Y-0.29
N4355 G1 X5.175 Y0.237
N4360 G1 X4.459 Y0.759
N4365 G1 X3.854 Y1.406
N4370 G1 X3.364 Y2.144
N4375 G1 X2.979 Y2.943
N4380 G1 X2.682 Y3.777
N4385 G1 X2.456 Y4.634
N4390 G1 X2.285 Y5.503
N4395 G1 X2.157 Y6.38
N4400 G1 X2.062 Y7.261
N4405 G1 X1.992 Y8.145
N4410 G1 X1.94 Y9.029
N4415 G1 X1.902 Y9.915
N4420 G1 X1.874 Y10.8
N4425 G1 X1.854 Y11.686
N4430 G1 X1.839 Y12.572
N4435 G1 X1.828 Y13.458
N4440 G1 X1.82 Y14.344
N4445 G1 X1.815 Y15.23
N4450 G1 X1.811 Y16.117
N4455 G1 X1.805 Y17.889
N4460 G1 X1.802 Y20.547
N4465 G1 X1.8 Y26.75
N4470 G1 Y47.131
N4475 G1 Y54.22
N4480 G1 X1.902 Y54.651
N4485 G1 X2.257 Y55.463
N4490 G1 X2.84 Y56.131
N4495 G1 X3.554 Y56.655
N4500 G1 X4.344 Y57.057
N4505 G1 X5.176 Y57.36
N4510 G1 X6.033 Y57.585
N4515 G1 X6.904 Y57.752
N4520 G1 X7.781 Y57.875
N4525 G1 X8.663 Y57.964
N4530 G1 X9.546 Y58.03
N4535 G1 X10.431 Y58.077
N4540 G1 X11.317 Y58.111
N4545 G1 X12.202 Y58.136
N4550 G1 X13.088 Y58.154
N4555 G1 X13.974 Y58.167
N4560 G1 X14.861 Y58.176
N4565 G1 X15.747 Y58.183
N4570 G1 X16.633 Y58.188
N4575 G1 X18.405 Y58.194
N4580 G1 X21.063 Y58.198
N4585 G1 X26.38 Y58.2
N4590 G1 X43.216
N4595 G1 X93.725
N4600 G1 X144.234
N4605 G1 X194.743
N4610 G1 X245.252
N4615 G1 X295.762
N4620 G1 X346.271
N4625 G1 X396.78
N4630 G1 X447.289
N4635 G1 X497.798
N4640 G1 X548.307
N4645 G1 X598.816
N4650 G1 X649.325
N4655 G1 X699.834
N4660 G1 X750.343
N4665 G1 X800.852
N4670 G1 X851.361
N4675 G1 X901.87
N4680 G1 X952.379
N4685 G1 X1002.888
N4690 G1 X1053.397
N4695 G1 X1103.906
N4700 G1 X1154.415
N4705 G1 X1204.924
N4710 G1 X1224.418
N4715 G1 X1225.259 Y57.921
N4720 G1 X1225.966 Y57.386
N4725 G1 X1226.527 Y56.7
N4730 G1 X1226.959 Y55.926
N4735 G1 X1227.286 Y55.103
N4740 G1 X1227.53 Y54.251
N4745 G1 X1227.711 Y53.384
N4750 G1 X1227.845 Y52.507
N4755 G1 X1227.942 Y51.627
N4760 G1 X1228.014 Y50.744
N4765 G1 X1228.065 Y49.859
N4770 G1 X1228.103 Y48.974
N4775 G1 X1228.13 Y48.088
N4780 G1 X1228.15 Y47.202
N4785 G1 X1228.164 Y46.316
N4790 G1 X1228.174 Y45.43
N4795 G1 X1228.181 Y44.544
N4800 G1 X1228.187 Y43.658
N4805 G1 X1228.19 Y42.772
N4810 G1 X1228.195 Y40.999
N4815 G1 X1228.198 Y38.341
N4820 G1 X1228.2 Y32.138
N4825 G1 Y28.594
N4830 G1 Y5.554
N4835 G1 X1227.91 Y4.717
N4840 G1 X1227.368 Y4.016
N4845 G1 X1226.679 Y3.459
N4850 G1 X1225.905 Y3.028
N4855 G1 X1224.292 Y2.294
N4860 G1 X1223.721 Y1.987
N4865 G1 X1223.64 Y1.935
N4870 G1 X1223.422 Y1.761
N4875 G1 X1223.243 Y1.547
N4880 G1 X1223.11 Y1.303
N4885 G1 X1223.028 Y1.036
N4890 G1 X1223 Y0.759
N4895 G1 Y0.015
N4900 G3 X1223.465 Y-0.549 I0.6 J0.021
N4905 G1 X1223.556 Y-0.57 Z10.007
N4910 G1 X1223.645 Y-0.59 Z10.029
N4915 G1 X1223.73 Y-0.61 Z10.065
N4920 G1 X1223.808 Y-0.628 Z10.115
N4925 G1 X1223.878 Y-0.644 Z10.176
N4930 G1 X1223.938 Y-0.658 Z10.247
N4935 G1 X1223.986 Y-0.669 Z10.328
N4940 G1 X1224.021 Y-0.677 Z10.415
N4945 G1 X1224.042 Y-0.682 Z10.506
N4950 G1 X1224.049 Y-0.684 Z10.6
N4955 G0 Z25
N4960 G0 X6.472 Y-3.156
N4965 G0 Z11.2
N4970 G1 Z10.6 F1828.8
N4975 G1 X6.476 Y-3.15 Z10.506
N4980 G1 X6.487 Y-3.131 Z10.415
N4985 G1 X6.505 Y-3.1 Z10.328
N4990 G1 X6.531 Y-3.057 Z10.247
N4995 G1 X6.562 Y-3.005 Z10.176
N5000 G1 X6.598 Y-2.943 Z10.115
N5005 G1 X6.639 Y-2.874 Z10.065
N5010 G1 X6.684 Y-2.8 Z10.029
N5015 G1 X6.731 Y-2.721 Z10.007
N5020 G1 X6.779 Y-2.64 Z10
N5025 G3 X7 Y-1.887 I-1.36 J0.809
N5030 G1 Y-0.679
N5035 G1 X6.996 Y-0.602
N5040 G1 X6.98 Y-0.429
N5045 G1 X6.944 Y-0.224
N5050 G1 X6.882 Y0.019
N5055 G1 X6.687 Y0.581
N5060 G1 X6.331 Y1.393
N5065 G1 X5.968 Y2.201
N5070 G1 X5.636 Y3.022
N5075 G1 X5.347 Y3.86
N5080 G1 X5.106 Y4.713
N5085 G1 X4.908 Y5.577
N5090 G1 X4.749 Y6.448
N5095 G1 X4.623 Y7.326
N5100 G1 X4.524 Y8.206
N5105 G1 X4.447 Y9.089
N5110 G1 X4.387 Y9.973
N5115 G1 X4.342 Y10.858
N5120 G1 X4.307 Y11.743
N5125 G1 X4.28 Y12.629
N5130 G1 X4.26 Y13.515
N5135 G1 X4.245 Y14.401
N5140 G1 X4.233 Y15.287
N5145 G1 X4.225 Y16.173
N5150 G1 X4.218 Y17.059
N5155 G1 X4.214 Y17.945
N5160 G1 X4.207 Y19.718
N5165 G1 X4.203 Y22.376
N5170 G1 X4.201 Y26.806
N5175 G1 X4.2 Y48.96
N5180 G1 Y51.618
N5185 G1 X4.43 Y52.474
N5190 G1 X4.912 Y53.217
N5195 G1 X5.556 Y53.826
N5200 G1 X6.3 Y54.307
N5205 G1 X7.104 Y54.679
N5210 G1 X7.943 Y54.964
N5215 G1 X8.803 Y55.179
N5220 G1 X9.674 Y55.34
N5225 G1 X10.552 Y55.46
N5230 G1 X11.434 Y55.55
N5235 G1 X12.318 Y55.616
N5240 G1 X13.202 Y55.665
N5245 G1 X14.088 Y55.701
N5250 G1 X14.973 Y55.728
N5255 G1 X15.859 Y55.747
N5260 G1 X16.745 Y55.761
N5265 G1 X17.631 Y55.772
N5270 G1 X18.517 Y55.78
N5275 G1 X19.404 Y55.785
N5280 G1 X20.29 Y55.789
N5285 G1 X22.062 Y55.794
N5290 G1 X24.72 Y55.798
N5295 G1 X30.037 Y55.8
N5300 G1 X50.418
N5305 G1 X100.927
N5310 G1 X151.436
N5315 G1 X201.945
N5320 G1 X252.454
N5325 G1 X302.963
N5330 G1 X353.472
N5335 G1 X403.981
N5340 G1 X454.49
N5345 G1 X504.999
N5350 G1 X555.508
N5355 G1 X606.017
N5360 G1 X656.526
N5365 G1 X707.035
N5370 G1 X757.544
N5375 G1 X808.053
N5380 G1 X858.562
N5385 G1 X909.071
N5390 G1 X959.58
N5395 G1 X1010.089
N5400 G1 X1060.598
N5405 G1 X1111.107
N5410 G1 X1161.616
N5415 G1 X1212.125
N5420 G1 X1220.986
N5425 G1 X1221.872 Y55.786
N5430 G1 X1222.703 Y55.477
N5435 G1 X1223.408 Y54.941
N5440 G1 X1223.979 Y54.263
N5445 G1 X1224.427 Y53.498
N5450 G1 X1224.772 Y52.682
N5455 G1 X1225.034 Y51.835
N5460 G1 X1225.232 Y50.972
N5465 G1 X1225.38 Y50.098
N5470 G1 X1225.49 Y49.219
N5475 G1 X1225.572 Y48.336
N5480 G1 X1225.633 Y47.452
N5485 G1 X1225.677 Y46.567
N5490 G1 X1225.71 Y45.682
N5495 G1 X1225.734 Y44.796
N5500 G1 X1225.752 Y43.91
N5505 G1 X1225.765 Y43.024
N5510 G1 X1225.775 Y42.138
N5515 G1 X1225.781 Y41.252
N5520 G1 X1225.786 Y40.366
N5525 G1 X1225.793 Y38.594
N5530 G1 X1225.797 Y35.935
N5535 G1 X1225.799 Y31.505
N5540 G1 X1225.8 Y16.44
N5545 G1 Y8.465
N5550 G1 X1225.609 Y7.6
N5555 G1 X1225.184 Y6.823
N5560 G1 X1224.622 Y6.137
N5565 G1 X1223.989 Y5.518
N5570 G1 X1223.459 Y5.036
N5575 G1 X1223.265 Y4.819
N5580 G1 X1223.12 Y4.567
N5585 G1 X1223.03 Y4.29
N5590 G1 X1223 Y4
N5595 G1 Y0.759
N5600 G3 X1223.465 Y0.195 I0.6 J0.021
N5605 G1 X1223.556 Y0.174 Z10.007
N5610 G1 X1223.645 Y0.154 Z10.029
N5615 G1 X1223.73 Y0.134 Z10.065
N5620 G1 X1223.808 Y0.116 Z10.115
N5625 G1 X1223.878 Y0.1 Z10.176
N5630 G1 X1223.938 Y0.086 Z10.247
N5635 G1 X1223.986 Y0.075 Z10.328
N5640 G1 X1224.021 Y0.067 Z10.415
N5645 G1 X1224.042 Y0.062 Z10.506
N5650 G1 X1224.049 Y0.06 Z10.6
N5655 G0 Z25
N5660 G0 X6.472 Y-1.949
N5665 G0 Z11.2
N5670 G1 Z10.6 F1828.8
N5675 G1 X6.476 Y-1.942 Z10.506
N5680 G1 X6.487 Y-1.923 Z10.415
N5685 G1 X6.505 Y-1.892 Z10.328
N5690 G1 X6.531 Y-1.85 Z10.247
N5695 G1 X6.562 Y-1.797 Z10.176
N5700 G1 X6.598 Y-1.736 Z10.115
N5705 G1 X6.639 Y-1.667 Z10.065
N5710 G1 X6.684 Y-1.592 Z10.029
N5715 G1 X6.731 Y-1.513 Z10.007
N5720 G1 X6.779 Y-1.433 Z10
N5725 G3 X7 Y-0.679 I-1.36 J0.809
N5730 G1 Y4.845
N5735 G1 X6.956 Y5.73
N5740 G1 X6.937 Y6.616
N5745 G1 X6.902 Y7.501
N5750 G1 X6.82 Y9.272
N5755 G1 X6.782 Y10.157
N5760 G1 X6.748 Y11.042
N5765 G1 X6.719 Y11.928
N5770 G1 X6.695 Y12.814
N5775 G1 X6.675 Y13.7
N5780 G1 X6.659 Y14.586
N5785 G1 X6.646 Y15.472
N5790 G1 X6.636 Y16.358
N5795 G1 X6.628 Y17.244
N5800 G1 X6.621 Y18.13
N5805 G1 X6.616 Y19.016
N5810 G1 X6.609 Y20.788
N5815 G1 X6.604 Y23.447
N5820 G1 X6.601 Y26.991
N5825 G1 X6.6 Y37.625
N5830 G1 Y49.144
N5835 G1 X6.851 Y49.994
N5840 G1 X6.94 Y50.154
N5845 G1 X7.006 Y50.324
N5850 G1 X7.046 Y50.502
N5855 G1 X7.05 Y50.527
N5860 G1 X7.079 Y50.671
N5865 G1 X7.093 Y50.728
N5870 G1 X7.15 Y50.929
N5875 G1 X7.222 Y51.13
N5880 G1 X7.28 Y51.256
N5885 G1 X7.317 Y51.332
N5890 G1 X7.426 Y51.533
N5895 G1 X7.553 Y51.734
N5900 G1 X7.715 Y51.935
N5905 G1 X7.884 Y52.117
N5910 G1 X8.085 Y52.307
N5915 G1 X8.287 Y52.458
N5920 G1 X8.41 Y52.539
N5925 G1 X8.488 Y52.585
N5930 G1 X8.689 Y52.695
N5935 G1 X8.891 Y52.786
N5940 G1 X8.992 Y52.824
N5945 G1 X9.092 Y52.856
N5950 G1 X9.429 Y52.942
N5955 G1 X9.495 Y52.955
N5960 G1 X9.696 Y52.982
N5965 G1 X9.898 Y52.994
N5970 G1 X10.781 Y53.063
N5975 G1 X11.665 Y53.13
N5980 G1 X12.549 Y53.186
N5985 G1 X13.434 Y53.232
N5990 G1 X14.319 Y53.269
N5995 G1 X15.205 Y53.298
N6000 G1 X16.091 Y53.322
N6005 G1 X16.977 Y53.34
N6010 G1 X17.863 Y53.354
N6015 G1 X18.749 Y53.365
N6020 G1 X19.635 Y53.374
N6025 G1 X20.521 Y53.38
N6030 G1 X21.407 Y53.385
N6035 G1 X23.179 Y53.392
N6040 G1 X25.838 Y53.397
N6045 G1 X30.268 Y53.399
N6050 G1 X56.852 Y53.4
N6055 G1 X60.396
N6060 G1 X110.906
N6065 G1 X161.415
N6070 G1 X211.924
N6075 G1 X262.433
N6080 G1 X312.942
N6085 G1 X363.451
N6090 G1 X413.96
N6095 G1 X464.469
N6100 G1 X514.978
N6105 G1 X565.487
N6110 G1 X615.996
N6115 G1 X666.505
N6120 G1 X717.014
N6125 G1 X767.523
N6130 G1 X818.032
N6135 G1 X868.541
N6140 G1 X919.05
N6145 G1 X969.559
N6150 G1 X1020.068
N6155 G1 X1070.577
N6160 G1 X1121.086
N6165 G1 X1171.595
N6170 G1 X1218.559
N6175 G1 X1219.443 Y53.341
N6180 G1 X1220.176 Y53.043
N6185 G1 X1220.283 Y53.004
N6190 G1 X1220.393 Y52.975
N6195 G1 X1220.505 Y52.955
N6200 G1 X1220.572 Y52.942
N6205 G1 X1220.908 Y52.856
N6210 G1 X1221.008 Y52.824
N6215 G1 X1221.109 Y52.786
N6220 G1 X1221.311 Y52.695
N6225 G1 X1221.512 Y52.585
N6230 G1 X1221.59 Y52.539
N6235 G1 X1221.713 Y52.458
N6240 G1 X1221.915 Y52.307
N6245 G1 X1222.116 Y52.117
N6250 G1 X1222.285 Y51.935
N6255 G1 X1222.447 Y51.734
N6260 G1 X1222.574 Y51.533
N6265 G1 X1222.683 Y51.332
N6270 G1 X1222.72 Y51.256
N6275 G1 X1222.778 Y51.13
N6280 G1 X1222.85 Y50.929
N6285 G1 X1222.907 Y50.728
N6290 G1 X1222.922 Y50.671
N6295 G1 X1222.95 Y50.527
N6300 G1 X1222.981 Y50.325
N6305 G1 X1222.995 Y50.124
N6310 G1 X1223.06 Y49.24
N6315 G1 X1223.128 Y48.357
N6320 G1 X1223.185 Y47.473
N6325 G1 X1223.231 Y46.588
N6330 G1 X1223.269 Y45.702
N6335 G1 X1223.298 Y44.817
N6340 G1 X1223.322 Y43.931
N6345 G1 X1223.34 Y43.045
N6350 G1 X1223.354 Y42.159
N6355 G1 X1223.365 Y41.273
N6360 G1 X1223.374 Y40.387
N6365 G1 X1223.38 Y39.501
N6370 G1 X1223.385 Y38.615
N6375 G1 X1223.392 Y36.842
N6380 G1 X1223.397 Y34.184
N6385 G1 X1223.399 Y29.753
N6390 G1 X1223.4 Y11.145
N6395 G1 X1223.309 Y10.263
N6400 G1 X1223.064 Y9.478
N6405 G1 X1223.028 Y9.341
N6410 G1 X1223.007 Y9.202
N6415 G1 X1223 Y9.061
N6420 G1 Y4
N6425 G3 X1223.465 Y3.436 I0.6 J0.021
N6430 G1 X1223.556 Y3.415 Z10.007
N6435 G1 X1223.645 Y3.395 Z10.029
N6440 G1 X1223.73 Y3.375 Z10.065
N6445 G1 X1223.808 Y3.357 Z10.115
N6450 G1 X1223.878 Y3.341 Z10.176
N6455 G1 X1223.938 Y3.327 Z10.247
N6460 G1 X1223.986 Y3.316 Z10.328
N6465 G1 X1224.021 Y3.308 Z10.415
N6470 G1 X1224.042 Y3.303 Z10.506
N6475 G1 X1224.049 Y3.302 Z10.6
N6480 G0 Z25
N6485 G0 X1223.492 Y51.406
N6490 G0 Z11.2
N6495 G1 Z10.6 F1828.8
N6500 G1 X1223.488 Y51.399 Z10.506
N6505 G1 X1223.477 Y51.38 Z10.415
N6510 G1 X1223.46 Y51.349 Z10.328
N6515 G1 X1223.436 Y51.306 Z10.247
N6520 G1 X1223.406 Y51.253 Z10.176
N6525 G1 X1223.371 Y51.19 Z10.115
N6530 G1 X1223.331 Y51.12 Z10.065
N6535 G1 X1223.289 Y51.044 Z10.029
N6540 G1 X1223.244 Y50.965 Z10.007
N6545 G1 X1223.198 Y50.883 Z10
N6550 G3 X1222.995 Y50.124 I1.379 J-0.776
N6555 G1 X1222.999 Y49.923
N6560 G1 X1223 Y46.703
N6565 G1 Y9.061
N6570 G3 X1223.465 Y8.497 I0.6 J0.021
N6575 G1 X1223.556 Y8.476 Z10.007
N6580 G1 X1223.645 Y8.455 Z10.029
N6585 G1 X1223.73 Y8.436 Z10.065
N6590 G1 X1223.808 Y8.418 Z10.115
N6595 G1 X1223.878 Y8.402 Z10.176
N6600 G1 X1223.938 Y8.388 Z10.247
N6605 G1 X1223.986 Y8.377 Z10.328
N6610 G1 X1224.021 Y8.369 Z10.415
N6615 G1 X1224.042 Y8.364 Z10.506
N6620 G1 X1224.049 Y8.362 Z10.6
N6625 G0 Z25
N6630 G0 X8.614 Y53.487
N6635 G0 Z11.2
N6640 G1 Z10.6 F1828.8
N6645 G1 X8.621 Y53.483 Z10.506
N6650 G1 X8.64 Y53.473 Z10.415
N6655 G1 X8.671 Y53.455 Z10.328
N6660 G1 X8.714 Y53.431 Z10.247
N6665 G1 X8.768 Y53.401 Z10.176
N6670 G1 X8.83 Y53.367 Z10.115
N6675 G1 X8.9 Y53.328 Z10.065
N6680 G1 X8.976 Y53.285 Z10.029
N6685 G1 X9.056 Y53.241 Z10.007
N6690 G1 X9.138 Y53.195 Z10
N6695 G3 X9.898 Y52.994 I0.771 J1.382
N6700 G1 X10.099 Y53
N6705 G1 X1219.901
N6710 G1 X1220.102 Y52.994
N6715 G1 X1220.304 Y52.982
N6720 G1 X1220.505 Y52.955
N6725 G3 X1221.126 Y53.341 I0.059 J0.597
N6730 G1 X1221.159 Y53.428 Z10.007
N6735 G1 X1221.191 Y53.514 Z10.029
N6740 G1 X1221.222 Y53.595 Z10.065
N6745 G1 X1221.25 Y53.671 Z10.115
N6750 G1 X1221.275 Y53.738 Z10.176
N6755 G1 X1221.297 Y53.795 Z10.247
N6760 G1 X1221.314 Y53.841 Z10.328
N6765 G1 X1221.327 Y53.875 Z10.415
N6770 G1 X1221.335 Y53.895 Z10.506
N6775 G1 X1221.337 Y53.902 Z10.6
N6780 G0 Z25
N6785 G0 X6.472 Y3.576
N6790 G0 Z11.2
N6795 G1 Z10.6 F1828.8
N6800 G1 X6.476 Y3.582 Z10.506
N6805 G1 X6.487 Y3.601 Z10.415
N6810 G1 X6.505 Y3.632 Z10.328
N6815 G1 X6.531 Y3.674 Z10.247
N6820 G1 X6.562 Y3.727 Z10.176
N6825 G1 X6.598 Y3.788 Z10.115
N6830 G1 X6.639 Y3.857 Z10.065
N6835 G1 X6.684 Y3.932 Z10.029
N6840 G1 X6.731 Y4.011 Z10.007
N6845 G1 X6.779 Y4.091 Z10
N6850 G3 X7 Y4.845 I-1.36 J0.809
N6855 G1 Y49.722
N6860 G1 X7.001 Y49.923
N6865 G1 X7.005 Y50.124
N6870 G1 X7.019 Y50.325
N6875 G1 X7.046 Y50.502
N6880 G3 X6.674 Y51.13 I-0.596 J0.071
N6885 G1 X6.587 Y51.165 Z10.007
N6890 G1 X6.502 Y51.199 Z10.029
N6895 G1 X6.421 Y51.232 Z10.065
N6900 G1 X6.346 Y51.261 Z10.115
N6905 G1 X6.28 Y51.288 Z10.176
N6910 G1 X6.223 Y51.311 Z10.247
N6915 G1 X6.177 Y51.329 Z10.328
N6920 G1 X6.144 Y51.342 Z10.415
N6925 G1 X6.123 Y51.351 Z10.506
N6930 G1 X6.117 Y51.353 Z10.6
N6935 G0 Z35
N6940 G0 X6.381 Y63.149
N6945 G0 Z25
N6950 G0 Z16.2
N6955 G1 Z15.6 F1828.8
N6960 G1 X6.383 Y63.156 Z15.506
N6965 G1 X6.389 Y63.177 Z15.415
N6970 G1 X6.398 Y63.212 Z15.328
N6975 G1 X6.41 Y63.26 Z15.247
N6980 G1 X6.425 Y63.319 Z15.176
N6985 G1 X6.443 Y63.388 Z15.115
N6990 G1 X6.463 Y63.466 Z15.065
N6995 G1 X6.484 Y63.55 Z15.029
N7000 G1 X6.507 Y63.639 Z15.007
N7005 G1 X6.53 Y63.73 Z15
N7010 G3 X7 Y66.996 I-14.839 J3.801
N7015 G1 Y67.259
N7020 G1 X6.998 Y67.296
N7025 G1 X6.907 Y67.415
N7030 G1 X6.79 Y67.546
N7035 G1 X6.635 Y67.692
N7040 G1 X6.433 Y67.854
N7045 G1 X6.175 Y68.029
N7050 G1 X5.844 Y68.217
N7055 G1 X5.415 Y68.416
N7060 G1 X4.849 Y68.626
N7065 G1 X4.073 Y68.844
N7070 G1 X3.204 Y69.015
N7075 G1 X2.765 Y69.074
N7080 G1 X2.33 Y69.161
N7085 G1 X1.544 Y69.57
N7090 G1 X0.945 Y70.223
N7095 G1 X0.504 Y70.991
N7100 G1 X0.183 Y71.817
N7105 G1 X-0.047 Y72.673
N7110 G1 X-0.21 Y73.544
N7115 G1 X-0.326 Y74.423
N7120 G1 X-0.408 Y75.305
N7125 G1 X-0.466 Y76.189
N7130 G1 X-0.506 Y77.074
N7135 G1 X-0.534 Y77.96
N7140 G1 X-0.554 Y78.846
N7145 G1 X-0.568 Y79.732
N7150 G1 X-0.578 Y80.618
N7155 G1 X-0.584 Y81.504
N7160 G1 X-0.589 Y82.39
N7165 G1 X-0.595 Y84.163
N7170 G1 X-0.598 Y86.821
N7175 G1 X-0.6 Y93.024
N7180 G1 Y113.405
N7185 G1 Y127.139
N7190 G1 X-0.577 Y127.36
N7195 G1 X-0.462 Y127.788
N7200 G1 X-0.006 Y128.548
N7205 G1 X0.668 Y129.123
N7210 G1 X1.446 Y129.546
N7215 G1 X2.278 Y129.853
N7220 G1 X3.136 Y130.072
N7225 G1 X4.009 Y130.229
N7230 G1 X4.888 Y130.339
N7235 G1 X5.771 Y130.417
N7240 G1 X6.655 Y130.472
N7245 G1 X7.54 Y130.51
N7250 G1 X8.426 Y130.537
N7255 G1 X9.312 Y130.556
N7260 G1 X10.198 Y130.569
N7265 G1 X11.084 Y130.579
N7270 G1 X11.97 Y130.585
N7275 G1 X12.856 Y130.59
N7280 G1 X14.628 Y130.595
N7285 G1 X17.287 Y130.598
N7290 G1 X23.49 Y130.6
N7295 G1 X35.009
N7300 G1 X85.518
N7305 G1 X136.027
N7310 G1 X186.536
N7315 G1 X237.045
N7320 G1 X287.554
N7325 G1 X338.063
N7330 G1 X388.572
N7335 G1 X439.081
N7340 G1 X489.59
N7345 G1 X540.099
N7350 G1 X590.608
N7355 G1 X641.117
N7360 G1 X691.626
N7365 G1 X742.135
N7370 G1 X792.644
N7375 G1 X843.154
N7380 G1 X893.662
N7385 G1 X944.172
N7390 G1 X994.681
N7395 G1 X1045.19
N7400 G1 X1095.699
N7405 G1 X1146.208
N7410 G1 X1196.717
N7415 G1 X1227.288
N7420 G1 X1227.718 Y130.495
N7425 G1 X1228.494 Y130.066
N7430 G1 X1229.083 Y129.404
N7435 G1 X1229.517 Y128.631
N7440 G1 X1229.832 Y127.803
N7445 G1 X1230.057 Y126.946
N7450 G1 X1230.218 Y126.075
N7455 G1 X1230.332 Y125.196
N7460 G1 X1230.412 Y124.313
N7465 G1 X1230.468 Y123.429
N7470 G1 X1230.508 Y122.544
N7475 G1 X1230.535 Y121.658
N7480 G1 X1230.555 Y120.772
N7485 G1 X1230.568 Y119.886
N7490 G1 X1230.578 Y119
N7495 G1 X1230.585 Y118.114
N7500 G1 X1230.589 Y117.228
N7505 G1 X1230.595 Y115.456
N7510 G1 X1230.598 Y112.797
N7515 G1 X1230.599 Y111.911
N7520 G1 X1230.6 Y103.05
N7525 G1 Y72.922
N7530 G1 X1230.594 Y72.7
N7535 G1 X1230.553 Y72.483
N7540 G1 X1230.403 Y72.066
N7545 G1 X1229.896 Y71.339
N7550 G1 X1229.198 Y70.793
N7555 G1 X1228.407 Y70.393
N7560 G1 X1227.57 Y70.103
N7565 G1 X1226.708 Y69.896
N7570 G1 X1225.834 Y69.749
N7575 G1 X1224.954 Y69.645
N7580 G1 X1224.284 Y69.59
N7585 G1 X1223.992 Y69.534
N7590 G1 X1223.719 Y69.418
N7595 G1 X1223.476 Y69.246
N7600 G1 X1223.275 Y69.028
N7605 G1 X1223.125 Y68.772
N7610 G1 X1223.031 Y68.49
N7615 G1 X1223 Y68.194
N7620 G3 X1223.465 Y67.631 I0.6 J0.021
N7625 G1 X1223.556 Y67.61 Z15.007
N7630 G1 X1223.645 Y67.589 Z15.029
N7635 G1 X1223.73 Y67.569 Z15.065
N7640 G1 X1223.808 Y67.551 Z15.115
N7645 G1 X1223.878 Y67.535 Z15.176
N7650 G1 X1223.938 Y67.521 Z15.247
N7655 G1 X1223.986 Y67.51 Z15.328
N7660 G1 X1224.021 Y67.502 Z15.415
N7665 G1 X1224.042 Y67.497 Z15.506
N7670 G1 X1224.049 Y67.496 Z15.6
N7675 G0 Z25
N7680 G0 X6.472 Y65.989
N7685 G0 Z16.2
N7690 G1 Z15.6 F1828.8
N7695 G1 X6.476 Y65.996 Z15.506
N7700 G1 X6.487 Y66.014 Z15.415
N7705 G1 X6.505 Y66.045 Z15.328
N7710 G1 X6.531 Y66.088 Z15.247
N7715 G1 X6.562 Y66.14 Z15.176
N7720 G1 X6.598 Y66.202 Z15.115
N7725 G1 X6.639 Y66.271 Z15.065
N7730 G1 X6.684 Y66.346 Z15.029
N7735 G1 X6.731 Y66.424 Z15.007
N7740 G1 X6.779 Y66.505 Z15
N7745 G3 X7 Y67.259 I-1.36 J0.809
N7750 G1 Y68.113
N7755 G1 X6.992 Y68.263
N7760 G1 X6.93 Y68.424
N7765 G1 X6.838 Y68.613
N7770 G1 X6.726 Y68.803
N7775 G1 X6.58 Y69.01
N7780 G1 X6.387 Y69.242
N7785 G1 X6.17 Y69.464
N7790 G1 X5.888 Y69.71
N7795 G1 X5.175 Y70.237
N7800 G1 X4.459 Y70.759
N7805 G1 X3.854 Y71.406
N7810 G1 X3.364 Y72.144
N7815 G1 X2.979 Y72.943
N7820 G1 X2.682 Y73.777
N7825 G1 X2.456 Y74.634
N7830 G1 X2.285 Y75.503
N7835 G1 X2.157 Y76.38
N7840 G1 X2.062 Y77.261
N7845 G1 X1.992 Y78.145
N7850 G1 X1.94 Y79.029
N7855 G1 X1.902 Y79.915
N7860 G1 X1.874 Y80.8
N7865 G1 X1.854 Y81.686
N7870 G1 X1.839 Y82.572
N7875 G1 X1.828 Y83.458
N7880 G1 X1.82 Y84.344
N7885 G1 X1.815 Y85.23
N7890 G1 X1.811 Y86.117
N7895 G1 X1.805 Y87.889
N7900 G1 X1.802 Y90.547
N7905 G1 X1.8 Y96.75
N7910 G1 Y117.131
N7915 G1 Y124.22
N7920 G1 X1.902 Y124.651
N7925 G1 X2.257 Y125.463
N7930 G1 X2.84 Y126.131
N7935 G1 X3.554 Y126.655
N7940 G1 X4.344 Y127.057
N7945 G1 X5.176 Y127.36
N7950 G1 X6.033 Y127.585
N7955 G1 X6.904 Y127.752
N7960 G1 X7.781 Y127.875
N7965 G1 X8.663 Y127.964
N7970 G1 X9.546 Y128.03
N7975 G1 X10.431 Y128.077
N7980 G1 X11.317 Y128.111
N7985 G1 X12.202 Y128.136
N7990 G1 X13.088 Y128.154
N7995 G1 X13.974 Y128.167
N8000 G1 X14.861 Y128.176
N8005 G1 X15.747 Y128.183
N8010 G1 X16.633 Y128.188
N8015 G1 X18.405 Y128.194
N8020 G1 X21.063 Y128.198
N8025 G1 X26.38 Y128.2
N8030 G1 X43.216
N8035 G1 X93.725
N8040 G1 X144.234
N8045 G1 X194.743
N8050 G1 X245.252
N8055 G1 X295.762
N8060 G1 X346.271
N8065 G1 X396.78
N8070 G1 X447.289
N8075 G1 X497.798
N8080 G1 X548.307
N8085 G1 X598.816
N8090 G1 X649.325
N8095 G1 X699.834
N8100 G1 X750.343
N8105 G1 X800.852
N8110 G1 X851.361
N8115 G1 X901.87
N8120 G1 X952.379
N8125 G1 X1002.888
N8130 G1 X1053.397
N8135 G1 X1103.906
N8140 G1 X1154.415
N8145 G1 X1204.924
N8150 G1 X1224.418
N8155 G1 X1225.259 Y127.921
N8160 G1 X1225.966 Y127.386
N8165 G1 X1226.527 Y126.7
N8170 G1 X1226.959 Y125.926
N8175 G1 X1227.286 Y125.103
N8180 G1 X1227.53 Y124.251
N8185 G1 X1227.711 Y123.384
N8190 G1 X1227.845 Y122.507
N8195 G1 X1227.942 Y121.627
N8200 G1 X1228.014 Y120.744
N8205 G1 X1228.065 Y119.859
N8210 G1 X1228.103 Y118.974
N8215 G1 X1228.13 Y118.088
N8220 G1 X1228.15 Y117.202
N8225 G1 X1228.164 Y116.316
N8230 G1 X1228.174 Y115.43
N8235 G1 X1228.181 Y114.544
N8240 G1 X1228.187 Y113.658
N8245 G1 X1228.19 Y112.772
N8250 G1 X1228.195 Y110.999
N8255 G1 X1228.198 Y108.341
N8260 G1 X1228.2 Y102.138
N8265 G1 Y98.594
N8270 G1 Y75.554
N8275 G1 X1227.91 Y74.717
N8280 G1 X1227.368 Y74.016
N8285 G1 X1226.679 Y73.459
N8290 G1 X1225.905 Y73.028
N8295 G1 X1224.292 Y72.294
N8300 G1 X1223.721 Y71.987
N8305 G1 X1223.64 Y71.935
N8310 G1 X1223.422 Y71.761
N8315 G1 X1223.243 Y71.547
N8320 G1 X1223.11 Y71.303
N8325 G1 X1223.028 Y71.036
N8330 G1 X1223 Y70.759
N8335 G1 Y70.015
N8340 G3 X1223.465 Y69.451 I0.6 J0.021
N8345 G1 X1223.556 Y69.43 Z15.007
N8350 G1 X1223.645 Y69.41 Z15.029
N8355 G1 X1223.73 Y69.39 Z15.065
N8360 G1 X1223.808 Y69.372 Z15.115
N8365 G1 X1223.878 Y69.356 Z15.176
N8370 G1 X1223.938 Y69.342 Z15.247
N8375 G1 X1223.986 Y69.331 Z15.328
N8380 G1 X1224.021 Y69.323 Z15.415
N8385 G1 X1224.042 Y69.318 Z15.506
N8390 G1 X1224.049 Y69.316 Z15.6
N8395 G0 Z25
N8400 G0 X6.472 Y66.844
N8405 G0 Z16.2
N8410 G1 Z15.6 F1828.8
N8415 G1 X6.476 Y66.85 Z15.506
N8420 G1 X6.487 Y66.869 Z15.415
N8425 G1 X6.505 Y66.9 Z15.328
N8430 G1 X6.531 Y66.943 Z15.247
N8435 G1 X6.562 Y66.995 Z15.176
N8440 G1 X6.598 Y67.057 Z15.115
N8445 G1 X6.639 Y67.126 Z15.065
N8450 G1 X6.684 Y67.2 Z15.029
N8455 G1 X6.731 Y67.279 Z15.007
N8460 G1 X6.779 Y67.36 Z15
N8465 G3 X7 Y68.113 I-1.36 J0.809
N8470 G1 Y69.321
N8475 G1 X6.996 Y69.398
N8480 G1 X6.98 Y69.571
N8485 G1 X6.944 Y69.776
N8490 G1 X6.882 Y70.019
N8495 G1 X6.687 Y70.581
N8500 G1 X6.331 Y71.393
N8505 G1 X5.968 Y72.201
N8510 G1 X5.636 Y73.022
N8515 G1 X5.347 Y73.86
N8520 G1 X5.106 Y74.713
N8525 G1 X4.908 Y75.577
N8530 G1 X4.749 Y76.448
N8535 G1 X4.623 Y77.326
N8540 G1 X4.524 Y78.206
N8545 G1 X4.447 Y79.089
N8550 G1 X4.387 Y79.973
N8555 G1 X4.342 Y80.858
N8560 G1 X4.307 Y81.743
N8565 G1 X4.28 Y82.629
N8570 G1 X4.26 Y83.515
N8575 G1 X4.245 Y84.401
N8580 G1 X4.233 Y85.287
N8585 G1 X4.225 Y86.173
N8590 G1 X4.218 Y87.059
N8595 G1 X4.214 Y87.945
N8600 G1 X4.207 Y89.718
N8605 G1 X4.203 Y92.376
N8610 G1 X4.201 Y96.806
N8615 G1 X4.2 Y118.96
N8620 G1 Y121.618
N8625 G1 X4.43 Y122.474
N8630 G1 X4.912 Y123.217
N8635 G1 X5.556 Y123.826
N8640 G1 X6.3 Y124.307
N8645 G1 X7.104 Y124.679
N8650 G1 X7.943 Y124.964
N8655 G1 X8.803 Y125.179
N8660 G1 X9.674 Y125.34
N8665 G1 X10.552 Y125.46
N8670 G1 X11.434 Y125.55
N8675 G1 X12.318 Y125.616
N8680 G1 X13.202 Y125.665
N8685 G1 X14.088 Y125.701
N8690 G1 X14.973 Y125.728
N8695 G1 X15.859 Y125.747
N8700 G1 X16.745 Y125.761
N8705 G1 X17.631 Y125.772
N8710 G1 X18.517 Y125.78
N8715 G1 X19.404 Y125.785
N8720 G1 X20.29 Y125.789
N8725 G1 X22.062 Y125.794
N8730 G1 X24.72 Y125.798
N8735 G1 X30.037 Y125.8
N8740 G1 X50.418
N8745 G1 X100.927
N8750 G1 X151.436
N8755 G1 X201.945
N8760 G1 X252.454
N8765 G1 X302.963
N8770 G1 X353.472
N8775 G1 X403.981
N8780 G1 X454.49
N8785 G1 X504.999
N8790 G1 X555.508
N8795 G1 X606.017
N8800 G1 X656.526
N8805 G1 X707.035
N8810 G1 X757.544
N8815 G1 X808.053
N8820 G1 X858.562
N8825 G1 X909.071
N8830 G1 X959.58
N8835 G1 X1010.089
N8840 G1 X1060.598
N8845 G1 X1111.107
N8850 G1 X1161.616
N8855 G1 X1212.125
N8860 G1 X1220.986
N8865 G1 X1221.872 Y125.786
N8870 G1 X1222.703 Y125.477
N8875 G1 X1223.408 Y124.941
N8880 G1 X1223.979 Y124.262
N8885 G1 X1224.427 Y123.498
N8890 G1 X1224.772 Y122.682
N8895 G1 X1225.034 Y121.835
N8900 G1 X1225.232 Y120.972
N8905 G1 X1225.38 Y120.098
N8910 G1 X1225.49 Y119.219
N8915 G1 X1225.572 Y118.336
N8920 G1 X1225.633 Y117.452
N8925 G1 X1225.677 Y116.567
N8930 G1 X1225.71 Y115.682
N8935 G1 X1225.734 Y114.796
N8940 G1 X1225.752 Y113.91
N8945 G1 X1225.765 Y113.024
N8950 G1 X1225.775 Y112.138
N8955 G1 X1225.781 Y111.252
N8960 G1 X1225.786 Y110.366
N8965 G1 X1225.793 Y108.594
N8970 G1 X1225.797 Y105.935
N8975 G1 X1225.799 Y101.505
N8980 G1 X1225.8 Y86.44
N8985 G1 Y78.465
N8990 G1 X1225.609 Y77.6
N8995 G1 X1225.184 Y76.823
N9000 G1 X1224.622 Y76.137
N9005 G1 X1223.989 Y75.518
N9010 G1 X1223.459 Y75.036
N9015 G1 X1223.265 Y74.819
N9020 G1 X1223.12 Y74.567
N9025 G1 X1223.03 Y74.29
N9030 G1 X1223 Y74
N9035 G1 Y70.759
N9040 G3 X1223.465 Y70.195 I0.6 J0.021
N9045 G1 X1223.556 Y70.174 Z15.007
N9050 G1 X1223.645 Y70.154 Z15.029
N9055 G1 X1223.73 Y70.134 Z15.065
N9060 G1 X1223.808 Y70.116 Z15.115
N9065 G1 X1223.878 Y70.1 Z15.176
N9070 G1 X1223.938 Y70.086 Z15.247
N9075 G1 X1223.986 Y70.075 Z15.328
N9080 G1 X1224.021 Y70.067 Z15.415
N9085 G1 X1224.042 Y70.062 Z15.506
N9090 G1 X1224.049 Y70.06 Z15.6
N9095 G0 Z25
N9100 G0 X6.472 Y68.051
N9105 G0 Z16.2
N9110 G1 Z15.6 F1828.8
N9115 G1 X6.476 Y68.058 Z15.506
N9120 G1 X6.487 Y68.077 Z15.415
N9125 G1 X6.505 Y68.108 Z15.328
N9130 G1 X6.531 Y68.15 Z15.247
N9135 G1 X6.562 Y68.203 Z15.176
N9140 G1 X6.598 Y68.264 Z15.115
N9145 G1 X6.639 Y68.333 Z15.065
N9150 G1 X6.684 Y68.408 Z15.029
N9155 G1 X6.731 Y68.487 Z15.007
N9160 G1 X6.779 Y68.567 Z15
N9165 G3 X7 Y69.321 I-1.36 J0.809
N9170 G1 Y74.845
N9175 G1 X6.956 Y75.73
N9180 G1 X6.937 Y76.616
N9185 G1 X6.902 Y77.501
N9190 G1 X6.82 Y79.272
N9195 G1 X6.782 Y80.157
N9200 G1 X6.748 Y81.042
N9205 G1 X6.719 Y81.928
N9210 G1 X6.695 Y82.814
N9215 G1 X6.675 Y83.7
N9220 G1 X6.659 Y84.586
N9225 G1 X6.646 Y85.472
N9230 G1 X6.636 Y86.358
N9235 G1 X6.628 Y87.244
N9240 G1 X6.621 Y88.13
N9245 G1 X6.616 Y89.016
N9250 G1 X6.609 Y90.788
N9255 G1 X6.604 Y93.447
N9260 G1 X6.601 Y96.991
N9265 G1 X6.6 Y107.625
N9270 G1 Y119.144
N9275 G1 X6.851 Y119.994
N9280 G1 X6.94 Y120.154
N9285 G1 X7.006 Y120.324
N9290 G1 X7.046 Y120.502
N9295 G1 X7.05 Y120.527
N9300 G1 X7.079 Y120.671
N9305 G1 X7.093 Y120.728
N9310 G1 X7.15 Y120.929
N9315 G1 X7.222 Y121.13
N9320 G1 X7.28 Y121.256
N9325 G1 X7.317 Y121.332
N9330 G1 X7.426 Y121.533
N9335 G1 X7.553 Y121.734
N9340 G1 X7.715 Y121.935
N9345 G1 X7.884 Y122.117
N9350 G1 X8.085 Y122.307
N9355 G1 X8.287 Y122.458
N9360 G1 X8.41 Y122.539
N9365 G1 X8.488 Y122.585
N9370 G1 X8.689 Y122.695
N9375 G1 X8.891 Y122.786
N9380 G1 X8.992 Y122.824
N9385 G1 X9.092 Y122.856
N9390 G1 X9.429 Y122.942
N9395 G1 X9.495 Y122.955
N9400 G1 X9.696 Y122.982
N9405 G1 X9.898 Y122.994
N9410 G1 X10.781 Y123.063
N9415 G1 X11.665 Y123.13
N9420 G1 X12.549 Y123.186
N9425 G1 X13.434 Y123.232
N9430 G1 X14.319 Y123.269
N9435 G1 X15.205 Y123.298
N9440 G1 X16.091 Y123.322
N9445 G1 X16.977 Y123.34
N9450 G1 X17.863 Y123.354
N9455 G1 X18.749 Y123.365
N9460 G1 X19.635 Y123.374
N9465 G1 X20.521 Y123.38
N9470 G1 X21.407 Y123.385
N9475 G1 X23.179 Y123.392
N9480 G1 X25.838 Y123.397
N9485 G1 X30.268 Y123.399
N9490 G1 X56.852 Y123.4
N9495 G1 X60.396
N9500 G1 X110.906
N9505 G1 X161.415
N9510 G1 X211.924
N9515 G1 X262.433
N9520 G1 X312.942
N9525 G1 X363.451
N9530 G1 X413.96
N9535 G1 X464.469
N9540 G1 X514.978
N9545 G1 X565.487
N9550 G1 X615.996
N9555 G1 X666.505
N9560 G1 X717.014
N9565 G1 X767.523
N9570 G1 X818.032
N9575 G1 X868.541
N9580 G1 X919.05
N9585 G1 X969.559
N9590 G1 X1020.068
N9595 G1 X1070.577
N9600 G1 X1121.086
N9605 G1 X1171.595
N9610 G1 X1218.559
N9615 G1 X1219.443 Y123.341
N9620 G1 X1220.176 Y123.043
N9625 G1 X1220.283 Y123.004
N9630 G1 X1220.393 Y122.975
N9635 G1 X1220.505 Y122.955
N9640 G1 X1220.572 Y122.942
N9645 G1 X1220.908 Y122.856
N9650 G1 X1221.008 Y122.824
N9655 G1 X1221.109 Y122.786
N9660 G1 X1221.311 Y122.695
N9665 G1 X1221.512 Y122.585
N9670 G1 X1221.59 Y122.539
N9675 G1 X1221.713 Y122.458
N9680 G1 X1221.915 Y122.307
N9685 G1 X1222.116 Y122.117
N9690 G1 X1222.285 Y121.935
N9695 G1 X1222.447 Y121.734
N9700 G1 X1222.574 Y121.533
N9705 G1 X1222.683 Y121.332
N9710 G1 X1222.72 Y121.256
N9715 G1 X1222.778 Y121.13
N9720 G1 X1222.85 Y120.929
N9725 G1 X1222.907 Y120.728
N9730 G1 X1222.922 Y120.671
N9735 G1 X1222.95 Y120.527
N9740 G1 X1222.981 Y120.325
N9745 G1 X1222.995 Y120.124
N9750 G1 X1223.06 Y119.24
N9755 G1 X1223.128 Y118.357
N9760 G1 X1223.185 Y117.473
N9765 G1 X1223.231 Y116.588
N9770 G1 X1223.269 Y115.702
N9775 G1 X1223.298 Y114.817
N9780 G1 X1223.322 Y113.931
N9785 G1 X1223.34 Y113.045
N9790 G1 X1223.354 Y112.159
N9795 G1 X1223.365 Y111.273
N9800 G1 X1223.374 Y110.387
N9805 G1 X1223.38 Y109.501
N9810 G1 X1223.385 Y108.615
N9815 G1 X1223.392 Y106.842
N9820 G1 X1223.397 Y104.184
N9825 G1 X1223.399 Y99.753
N9830 G1 X1223.4 Y81.145
N9835 G1 X1223.309 Y80.263
N9840 G1 X1223.064 Y79.478
N9845 G1 X1223.028 Y79.341
N9850 G1 X1223.007 Y79.202
N9855 G1 X1223 Y79.061
N9860 G1 Y74
N9865 G3 X1223.465 Y73.436 I0.6 J0.021
N9870 G1 X1223.556 Y73.415 Z15.007
N9875 G1 X1223.645 Y73.395 Z15.029
N9880 G1 X1223.73 Y73.375 Z15.065
N9885 G1 X1223.808 Y73.357 Z15.115
N9890 G1 X1223.878 Y73.341 Z15.176
N9895 G1 X1223.938 Y73.327 Z15.247
N9900 G1 X1223.986 Y73.316 Z15.328
N9905 G1 X1224.021 Y73.308 Z15.415
N9910 G1 X1224.042 Y73.303 Z15.506
N9915 G1 X1224.049 Y73.301 Z15.6
N9920 G0 Z25
N9925 G0 X1223.492 Y121.406
N9930 G0 Z16.2
N9935 G1 Z15.6 F1828.8
N9940 G1 X1223.488 Y121.399 Z15.506
N9945 G1 X1223.477 Y121.38 Z15.415
N9950 G1 X1223.46 Y121.349 Z15.328
N9955 G1 X1223.436 Y121.306 Z15.247
N9960 G1 X1223.406 Y121.253 Z15.176
N9965 G1 X1223.371 Y121.19 Z15.115
N9970 G1 X1223.331 Y121.12 Z15.065
N9975 G1 X1223.289 Y121.044 Z15.029
N9980 G1 X1223.244 Y120.965 Z15.007
N9985 G1 X1223.198 Y120.883 Z15
N9990 G3 X1222.995 Y120.124 I1.379 J-0.776
N9995 G1 X1222.999 Y119.923
N10000 G1 X1223 Y116.703
N10005 G1 Y79.061
N10010 G3 X1223.465 Y78.497 I0.6 J0.021
N10015 G1 X1223.556 Y78.476 Z15.007
N10020 G1 X1223.645 Y78.455 Z15.029
N10025 G1 X1223.73 Y78.436 Z15.065
N10030 G1 X1223.808 Y78.418 Z15.115
N10035 G1 X1223.878 Y78.402 Z15.176
N10040 G1 X1223.938 Y78.388 Z15.247
N10045 G1 X1223.986 Y78.377 Z15.328
N10050 G1 X1224.021 Y78.369 Z15.415
N10055 G1 X1224.042 Y78.364 Z15.506
N10060 G1 X1224.049 Y78.362 Z15.6
N10065 G0 Z25
N10070 G0 X8.614 Y123.487
N10075 G0 Z16.2
N10080 G1 Z15.6 F1828.8
N10085 G1 X8.621 Y123.483 Z15.506
N10090 G1 X8.64 Y123.473 Z15.415
N10095 G1 X8.671 Y123.455 Z15.328
N10100 G1 X8.714 Y123.431 Z15.247
N10105 G1 X8.768 Y123.401 Z15.176
N10110 G1 X8.83 Y123.367 Z15.115
N10115 G1 X8.9 Y123.328 Z15.065
N10120 G1 X8.976 Y123.285 Z15.029
N10125 G1 X9.056 Y123.241 Z15.007
N10130 G1 X9.138 Y123.195 Z15
N10135 G3 X9.898 Y122.994 I0.771 J1.382
N10140 G1 X10.099 Y123
N10145 G1 X1219.901
N10150 G1 X1220.102 Y122.994
N10155 G1 X1220.304 Y122.982
N10160 G1 X1220.505 Y122.955
N10165 G3 X1221.126 Y123.341 I0.059 J0.597
N10170 G1 X1221.159 Y123.428 Z15.007
N10175 G1 X1221.191 Y123.514 Z15.029
N10180 G1 X1221.222 Y123.595 Z15.065
N10185 G1 X1221.25 Y123.671 Z15.115
N10190 G1 X1221.275 Y123.738 Z15.176
N10195 G1 X1221.297 Y123.795 Z15.247
N10200 G1 X1221.314 Y123.841 Z15.328
N10205 G1 X1221.327 Y123.875 Z15.415
N10210 G1 X1221.335 Y123.895 Z15.506
N10215 G1 X1221.337 Y123.902 Z15.6
N10220 G0 Z25
N10225 G0 X6.472 Y73.576
N10230 G0 Z16.2
N10235 G1 Z15.6 F1828.8
N10240 G1 X6.476 Y73.582 Z15.506
N10245 G1 X6.487 Y73.601 Z15.415
N10250 G1 X6.505 Y73.632 Z15.328
N10255 G1 X6.531 Y73.674 Z15.247
N10260 G1 X6.562 Y73.727 Z15.176
N10265 G1 X6.598 Y73.788 Z15.115
N10270 G1 X6.639 Y73.857 Z15.065
N10275 G1 X6.684 Y73.932 Z15.029
N10280 G1 X6.731 Y74.011 Z15.007
N10285 G1 X6.779 Y74.091 Z15
N10290 G3 X7 Y74.845 I-1.36 J0.809
N10295 G1 Y119.722
N10300 G1 X7.001 Y119.923
N10305 G1 X7.005 Y120.124
N10310 G1 X7.019 Y120.325
N10315 G1 X7.046 Y120.502
N10320 G1 X7.05 Y120.595
N10325 G1 X7.04 Y120.687
N10330 G1 X7.013 Y120.756 Z15.005
N10335 G1 X6.987 Y120.823 Z15.018
N10340 G1 X6.961 Y120.889 Z15.041
N10345 G1 X6.908 Y120.948 Z15.079
N10350 G1 X6.859 Y121.002 Z15.129
N10355 G1 X6.815 Y121.05 Z15.188
N10360 G1 X6.766 Y121.078 Z15.259
N10365 G1 X6.726 Y121.1 Z15.337
N10370 G1 X6.697 Y121.117 Z15.421
N10375 G1 X6.68 Y121.127 Z15.509
N10380 G1 X6.674 Y121.13 Z15.6
N10385 G0 Z25
N10390 G0 X6.381 Y63.149
N10395 G0 Z11.2
N10400 G1 Z10.6 F1828.8
N10405 G1 X6.383 Y63.156 Z10.506
N10410 G1 X6.389 Y63.177 Z10.415
N10415 G1 X6.398 Y63.212 Z10.328
N10420 G1 X6.41 Y63.26 Z10.247
N10425 G1 X6.425 Y63.319 Z10.176
N10430 G1 X6.443 Y63.388 Z10.115
N10435 G1 X6.463 Y63.466 Z10.065
N10440 G1 X6.484 Y63.55 Z10.029
N10445 G1 X6.507 Y63.639 Z10.007
N10450 G1 X6.53 Y63.73 Z10
N10455 G3 X7 Y66.996 I-14.839 J3.801
N10460 G1 Y67.259
N10465 G1 X6.998 Y67.296
N10470 G1 X6.907 Y67.415
N10475 G1 X6.79 Y67.546
N10480 G1 X6.635 Y67.692
N10485 G1 X6.433 Y67.854
N10490 G1 X6.175 Y68.029
N10495 G1 X5.844 Y68.217
N10500 G1 X5.415 Y68.416
N10505 G1 X4.849 Y68.626
N10510 G1 X4.073 Y68.844
N10515 G1 X3.204 Y69.015
N10520 G1 X2.765 Y69.074
N10525 G1 X2.33 Y69.161
N10530 G1 X1.544 Y69.57
N10535 G1 X0.945 Y70.223
N10540 G1 X0.504 Y70.991
N10545 G1 X0.183 Y71.817
N10550 G1 X-0.047 Y72.673
N10555 G1 X-0.21 Y73.544
N10560 G1 X-0.326 Y74.423
N10565 G1 X-0.408 Y75.305
N10570 G1 X-0.466 Y76.189
N10575 G1 X-0.506 Y77.074
N10580 G1 X-0.534 Y77.96
N10585 G1 X-0.554 Y78.846
N10590 G1 X-0.568 Y79.732
N10595 G1 X-0.578 Y80.618
N10600 G1 X-0.584 Y81.504
N10605 G1 X-0.589 Y82.39
N10610 G1 X-0.595 Y84.163
N10615 G1 X-0.598 Y86.821
N10620 G1 X-0.6 Y93.024
N10625 G1 Y113.405
N10630 G1 Y127.139
N10635 G1 X-0.577 Y127.36
N10640 G1 X-0.462 Y127.788
N10645 G1 X-0.006 Y128.548
N10650 G1 X0.668 Y129.123
N10655 G1 X1.446 Y129.546
N10660 G1 X2.278 Y129.853
N10665 G1 X3.136 Y130.072
N10670 G1 X4.009 Y130.229
N10675 G1 X4.888 Y130.339
N10680 G1 X5.771 Y130.417
N10685 G1 X6.655 Y130.472
N10690 G1 X7.54 Y130.51
N10695 G1 X8.426 Y130.537
N10700 G1 X9.312 Y130.556
N10705 G1 X10.198 Y130.569
N10710 G1 X11.084 Y130.579
N10715 G1 X11.97 Y130.585
N10720 G1 X12.856 Y130.59
N10725 G1 X14.628 Y130.595
N10730 G1 X17.287 Y130.598
N10735 G1 X23.49 Y130.6
N10740 G1 X35.009
N10745 G1 X85.518
N10750 G1 X136.027
N10755 G1 X186.536
N10760 G1 X237.045
N10765 G1 X287.554
N10770 G1 X338.063
N10775 G1 X388.572
N10780 G1 X439.081
N10785 G1 X489.59
N10790 G1 X540.099
N10795 G1 X590.608
N10800 G1 X641.117
N10805 G1 X691.626
N10810 G1 X742.135
N10815 G1 X792.644
N10820 G1 X843.154
N10825 G1 X893.662
N10830 G1 X944.172
N10835 G1 X994.681
N10840 G1 X1045.19
N10845 G1 X1095.699
N10850 G1 X1146.208
N10855 G1 X1196.717
N10860 G1 X1227.288
N10865 G1 X1227.718 Y130.495
N10870 G1 X1228.494 Y130.066
N10875 G1 X1229.083 Y129.404
N10880 G1 X1229.517 Y128.631
N10885 G1 X1229.832 Y127.803
N10890 G1 X1230.057 Y126.946
N10895 G1 X1230.218 Y126.075
N10900 G1 X1230.332 Y125.196
N10905 G1 X1230.412 Y124.313
N10910 G1 X1230.468 Y123.429
N10915 G1 X1230.508 Y122.544
N10920 G1 X1230.535 Y121.658
N10925 G1 X1230.555 Y120.772
N10930 G1 X1230.568 Y119.886
N10935 G1 X1230.578 Y119
N10940 G1 X1230.585 Y118.114
N10945 G1 X1230.589 Y117.228
N10950 G1 X1230.595 Y115.456
N10955 G1 X1230.598 Y112.797
N10960 G1 X1230.599 Y111.911
N10965 G1 X1230.6 Y103.05
N10970 G1 Y72.922
N10975 G1 X1230.594 Y72.7
N10980 G1 X1230.553 Y72.483
N10985 G1 X1230.403 Y72.066
N10990 G1 X1229.896 Y71.339
N10995 G1 X1229.198 Y70.793
N11000 G1 X1228.407 Y70.393
N11005 G1 X1227.57 Y70.103
N11010 G1 X1226.708 Y69.896
N11015 G1 X1225.834 Y69.749
N11020 G1 X1224.954 Y69.645
N11025 G1 X1224.284 Y69.59
N11030 G1 X1223.992 Y69.534
N11035 G1 X1223.719 Y69.418
N11040 G1 X1223.476 Y69.246
N11045 G1 X1223.275 Y69.028
N11050 G1 X1223.125 Y68.772
N11055 G1 X1223.031 Y68.49
N11060 G1 X1223 Y68.194
N11065 G3 X1223.465 Y67.631 I0.6 J0.021
N11070 G1 X1223.556 Y67.61 Z10.007
N11075 G1 X1223.645 Y67.589 Z10.029
N11080 G1 X1223.73 Y67.569 Z10.065
N11085 G1 X1223.808 Y67.551 Z10.115
N11090 G1 X1223.878 Y67.535 Z10.176
N11095 G1 X1223.938 Y67.521 Z10.247
N11100 G1 X1223.986 Y67.51 Z10.328
N11105 G1 X1224.021 Y67.502 Z10.415
N11110 G1 X1224.042 Y67.497 Z10.506
N11115 G1 X1224.049 Y67.496 Z10.6
N11120 G0 Z25
N11125 G0 X6.472 Y65.989
N11130 G0 Z11.2
N11135 G1 Z10.6 F1828.8
N11140 G1 X6.476 Y65.996 Z10.506
N11145 G1 X6.487 Y66.014 Z10.415
N11150 G1 X6.505 Y66.045 Z10.328
N11155 G1 X6.531 Y66.088 Z10.247
N11160 G1 X6.562 Y66.14 Z10.176
N11165 G1 X6.598 Y66.202 Z10.115
N11170 G1 X6.639 Y66.271 Z10.065
N11175 G1 X6.684 Y66.346 Z10.029
N11180 G1 X6.731 Y66.424 Z10.007
N11185 G1 X6.779 Y66.505 Z10
N11190 G3 X7 Y67.259 I-1.36 J0.809
N11195 G1 Y68.113
N11200 G1 X6.992 Y68.263
N11205 G1 X6.93 Y68.424
N11210 G1 X6.838 Y68.613
N11215 G1 X6.726 Y68.803
N11220 G1 X6.58 Y69.01
N11225 G1 X6.387 Y69.242
N11230 G1 X6.17 Y69.464
N11235 G1 X5.888 Y69.71
N11240 G1 X5.175 Y70.237
N11245 G1 X4.459 Y70.759
N11250 G1 X3.854 Y71.406
N11255 G1 X3.364 Y72.144
N11260 G1 X2.979 Y72.943
N11265 G1 X2.682 Y73.777
N11270 G1 X2.456 Y74.634
N11275 G1 X2.285 Y75.503
N11280 G1 X2.157 Y76.38
N11285 G1 X2.062 Y77.261
N11290 G1 X1.992 Y78.145
N11295 G1 X1.94 Y79.029
N11300 G1 X1.902 Y79.915
N11305 G1 X1.874 Y80.8
N11310 G1 X1.854 Y81.686
N11315 G1 X1.839 Y82.572
N11320 G1 X1.828 Y83.458
N11325 G1 X1.82 Y84.344
N11330 G1 X1.815 Y85.23
N11335 G1 X1.811 Y86.117
N11340 G1 X1.805 Y87.889
N11345 G1 X1.802 Y90.547
N11350 G1 X1.8 Y96.75
N11355 G1 Y117.131
N11360 G1 Y124.22
N11365 G1 X1.902 Y124.651
N11370 G1 X2.257 Y125.463
N11375 G1 X2.84 Y126.131
N11380 G1 X3.554 Y126.655
N11385 G1 X4.344 Y127.057
N11390 G1 X5.176 Y127.36
N11395 G1 X6.033 Y127.585
N11400 G1 X6.904 Y127.752
N11405 G1 X7.781 Y127.875
N11410 G1 X8.663 Y127.964
N11415 G1 X9.546 Y128.03
N11420 G1 X10.431 Y128.077
N11425 G1 X11.317 Y128.111
N11430 G1 X12.202 Y128.136
N11435 G1 X13.088 Y128.154
N11440 G1 X13.974 Y128.167
N11445 G1 X14.861 Y128.176
N11450 G1 X15.747 Y128.183
N11455 G1 X16.633 Y128.188
N11460 G1 X18.405 Y128.194
N11465 G1 X21.063 Y128.198
N11470 G1 X26.38 Y128.2
N11475 G1 X43.216
N11480 G1 X93.725
N11485 G1 X144.234
N11490 G1 X194.743
N11495 G1 X245.252
N11500 G1 X295.762
N11505 G1 X346.271
N11510 G1 X396.78
N11515 G1 X447.289
N11520 G1 X497.798
N11525 G1 X548.307
N11530 G1 X598.816
N11535 G1 X649.325
N11540 G1 X699.834
N11545 G1 X750.343
N11550 G1 X800.852
N11555 G1 X851.361
N11560 G1 X901.87
N11565 G1 X952.379
N11570 G1 X1002.888
N11575 G1 X1053.397
N11580 G1 X1103.906
N11585 G1 X1154.415
N11590 G1 X1204.924
N11595 G1 X1224.418
N11600 G1 X1225.259 Y127.921
N11605 G1 X1225.966 Y127.386
N11610 G1 X1226.527 Y126.7
N11615 G1 X1226.959 Y125.926
N11620 G1 X1227.286 Y125.103
N11625 G1 X1227.53 Y124.251
N11630 G1 X1227.711 Y123.384
N11635 G1 X1227.845 Y122.507
N11640 G1 X1227.942 Y121.627
N11645 G1 X1228.014 Y120.744
N11650 G1 X1228.065 Y119.859
N11655 G1 X1228.103 Y118.974
N11660 G1 X1228.13 Y118.088
N11665 G1 X1228.15 Y117.202
N11670 G1 X1228.164 Y116.316
N11675 G1 X1228.174 Y115.43
N11680 G1 X1228.181 Y114.544
N11685 G1 X1228.187 Y113.658
N11690 G1 X1228.19 Y112.772
N11695 G1 X1228.195 Y110.999
N11700 G1 X1228.198 Y108.341
N11705 G1 X1228.2 Y102.138
N11710 G1 Y98.594
N11715 G1 Y75.554
N11720 G1 X1227.91 Y74.717
N11725 G1 X1227.368 Y74.016
N11730 G1 X1226.679 Y73.459
N11735 G1 X1225.905 Y73.028
N11740 G1 X1224.292 Y72.294
N11745 G1 X1223.721 Y71.987
N11750 G1 X1223.64 Y71.935
N11755 G1 X1223.422 Y71.761
N11760 G1 X1223.243 Y71.547
N11765 G1 X1223.11 Y71.303
N11770 G1 X1223.028 Y71.036
N11775 G1 X1223 Y70.759
N11780 G1 Y70.015
N11785 G3 X1223.465 Y69.451 I0.6 J0.021
N11790 G1 X1223.556 Y69.43 Z10.007
N11795 G1 X1223.645 Y69.41 Z10.029
N11800 G1 X1223.73 Y69.39 Z10.065
N11805 G1 X1223.808 Y69.372 Z10.115
N11810 G1 X1223.878 Y69.356 Z10.176
N11815 G1 X1223.938 Y69.342 Z10.247
N11820 G1 X1223.986 Y69.331 Z10.328
N11825 G1 X1224.021 Y69.323 Z10.415
N11830 G1 X1224.042 Y69.318 Z10.506
N11835 G1 X1224.049 Y69.316 Z10.6
N11840 G0 Z25
N11845 G0 X6.472 Y66.844
N11850 G0 Z11.2
N11855 G1 Z10.6 F1828.8
N11860 G1 X6.476 Y66.85 Z10.506
N11865 G1 X6.487 Y66.869 Z10.415
N11870 G1 X6.505 Y66.9 Z10.328
N11875 G1 X6.531 Y66.943 Z10.247
N11880 G1 X6.562 Y66.995 Z10.176
N11885 G1 X6.598 Y67.057 Z10.115
N11890 G1 X6.639 Y67.126 Z10.065
N11895 G1 X6.684 Y67.2 Z10.029
N11900 G1 X6.731 Y67.279 Z10.007
N11905 G1 X6.779 Y67.36 Z10
N11910 G3 X7 Y68.113 I-1.36 J0.809
N11915 G1 Y69.321
N11920 G1 X6.996 Y69.398
N11925 G1 X6.98 Y69.571
N11930 G1 X6.944 Y69.776
N11935 G1 X6.882 Y70.019
N11940 G1 X6.687 Y70.581
N11945 G1 X6.331 Y71.393
N11950 G1 X5.968 Y72.201
N11955 G1 X5.636 Y73.022
N11960 G1 X5.347 Y73.86
N11965 G1 X5.106 Y74.713
N11970 G1 X4.908 Y75.577
N11975 G1 X4.749 Y76.448
N11980 G1 X4.623 Y77.326
N11985 G1 X4.524 Y78.206
N11990 G1 X4.447 Y79.089
N11995 G1 X4.387 Y79.973
N12000 G1 X4.342 Y80.858
N12005 G1 X4.307 Y81.743
N12010 G1 X4.28 Y82.629
N12015 G1 X4.26 Y83.515
N12020 G1 X4.245 Y84.401
N12025 G1 X4.233 Y85.287
N12030 G1 X4.225 Y86.173
N12035 G1 X4.218 Y87.059
N12040 G1 X4.214 Y87.945
N12045 G1 X4.207 Y89.718
N12050 G1 X4.203 Y92.376
N12055 G1 X4.201 Y96.806
N12060 G1 X4.2 Y118.96
N12065 G1 Y121.618
N12070 G1 X4.43 Y122.474
N12075 G1 X4.912 Y123.217
N12080 G1 X5.556 Y123.826
N12085 G1 X6.3 Y124.307
N12090 G1 X7.104 Y124.679
N12095 G1 X7.943 Y124.964
N12100 G1 X8.803 Y125.179
N12105 G1 X9.674 Y125.34
N12110 G1 X10.552 Y125.46
N12115 G1 X11.434 Y125.55
N12120 G1 X12.318 Y125.616
N12125 G1 X13.202 Y125.665
N12130 G1 X14.088 Y125.701
N12135 G1 X14.973 Y125.728
N12140 G1 X15.859 Y125.747
N12145 G1 X16.745 Y125.761
N12150 G1 X17.631 Y125.772
N12155 G1 X18.517 Y125.78
N12160 G1 X19.404 Y125.785
N12165 G1 X20.29 Y125.789
N12170 G1 X22.062 Y125.794
N12175 G1 X24.72 Y125.798
N12180 G1 X30.037 Y125.8
N12185 G1 X50.418
N12190 G1 X100.927
N12195 G1 X151.436
N12200 G1 X201.945
N12205 G1 X252.454
N12210 G1 X302.963
N12215 G1 X353.472
N12220 G1 X403.981
N12225 G1 X454.49
N12230 G1 X504.999
N12235 G1 X555.508
N12240 G1 X606.017
N12245 G1 X656.526
N12250 G1 X707.035
N12255 G1 X757.544
N12260 G1 X808.053
N12265 G1 X858.562
N12270 G1 X909.071
N12275 G1 X959.58
N12280 G1 X1010.089
N12285 G1 X1060.598
N12290 G1 X1111.107
N12295 G1 X1161.616
N12300 G1 X1212.125
N12305 G1 X1220.986
N12310 G1 X1221.872 Y125.786
N12315 G1 X1222.703 Y125.477
N12320 G1 X1223.408 Y124.941
N12325 G1 X1223.979 Y124.262
N12330 G1 X1224.427 Y123.498
N12335 G1 X1224.772 Y122.682
N12340 G1 X1225.034 Y121.835
N12345 G1 X1225.232 Y120.972
N12350 G1 X1225.38 Y120.098
N12355 G1 X1225.49 Y119.219
N12360 G1 X1225.572 Y118.336
N12365 G1 X1225.633 Y117.452
N12370 G1 X1225.677 Y116.567
N12375 G1 X1225.71 Y115.682
N12380 G1 X1225.734 Y114.796
N12385 G1 X1225.752 Y113.91
N12390 G1 X1225.765 Y113.024
N12395 G1 X1225.775 Y112.138
N12400 G1 X1225.781 Y111.252
N12405 G1 X1225.786 Y110.366
N12410 G1 X1225.793 Y108.594
N12415 G1 X1225.797 Y105.935
N12420 G1 X1225.799 Y101.505
N12425 G1 X1225.8 Y86.44
N12430 G1 Y78.465
N12435 G1 X1225.609 Y77.6
N12440 G1 X1225.184 Y76.823
N12445 G1 X1224.622 Y76.137
N12450 G1 X1223.989 Y75.518
N12455 G1 X1223.459 Y75.036
N12460 G1 X1223.265 Y74.819
N12465 G1 X1223.12 Y74.567
N12470 G1 X1223.03 Y74.29
N12475 G1 X1223 Y74
N12480 G1 Y70.759
N12485 G3 X1223.465 Y70.195 I0.6 J0.021
N12490 G1 X1223.556 Y70.174 Z10.007
N12495 G1 X1223.645 Y70.154 Z10.029
N12500 G1 X1223.73 Y70.134 Z10.065
N12505 G1 X1223.808 Y70.116 Z10.115
N12510 G1 X1223.878 Y70.1 Z10.176
N12515 G1 X1223.938 Y70.086 Z10.247
N12520 G1 X1223.986 Y70.075 Z10.328
N12525 G1 X1224.021 Y70.067 Z10.415
N12530 G1 X1224.042 Y70.062 Z10.506
N12535 G1 X1224.049 Y70.06 Z10.6
N12540 G0 Z25
N12545 G0 X6.472 Y68.051
N12550 G0 Z11.2
N12555 G1 Z10.6 F1828.8
N12560 G1 X6.476 Y68.058 Z10.506
N12565 G1 X6.487 Y68.077 Z10.415
N12570 G1 X6.505 Y68.108 Z10.328
N12575 G1 X6.531 Y68.15 Z10.247
N12580 G1 X6.562 Y68.203 Z10.176
N12585 G1 X6.598 Y68.264 Z10.115
N12590 G1 X6.639 Y68.333 Z10.065
N12595 G1 X6.684 Y68.408 Z10.029
N12600 G1 X6.731 Y68.487 Z10.007
N12605 G1 X6.779 Y68.567 Z10
N12610 G3 X7 Y69.321 I-1.36 J0.809
N12615 G1 Y74.845
N12620 G1 X6.956 Y75.73
N12625 G1 X6.937 Y76.616
N12630 G1 X6.902 Y77.501
N12635 G1 X6.82 Y79.272
N12640 G1 X6.782 Y80.157
N12645 G1 X6.748 Y81.042
N12650 G1 X6.719 Y81.928
N12655 G1 X6.695 Y82.814
N12660 G1 X6.675 Y83.7
N12665 G1 X6.659 Y84.586
N12670 G1 X6.646 Y85.472
N12675 G1 X6.636 Y86.358
N12680 G1 X6.628 Y87.244
N12685 G1 X6.621 Y88.13
N12690 G1 X6.616 Y89.016
N12695 G1 X6.609 Y90.788
N12700 G1 X6.604 Y93.447
N12705 G1 X6.601 Y96.991
N12710 G1 X6.6 Y107.625
N12715 G1 Y119.144
N12720 G1 X6.851 Y119.994
N12725 G1 X6.94 Y120.154
N12730 G1 X7.006 Y120.324
N12735 G1 X7.046 Y120.502
N12740 G1 X7.05 Y120.527
N12745 G1 X7.079 Y120.671
N12750 G1 X7.093 Y120.728
N12755 G1 X7.15 Y120.929
N12760 G1 X7.222 Y121.13
N12765 G1 X7.28 Y121.256
N12770 G1 X7.317 Y121.332
N12775 G1 X7.426 Y121.533
N12780 G1 X7.553 Y121.734
N12785 G1 X7.715 Y121.935
N12790 G1 X7.884 Y122.117
N12795 G1 X8.085 Y122.307
N12800 G1 X8.287 Y122.458
N12805 G1 X8.41 Y122.539
N12810 G1 X8.488 Y122.585
N12815 G1 X8.689 Y122.695
N12820 G1 X8.891 Y122.786
N12825 G1 X8.992 Y122.824
N12830 G1 X9.092 Y122.856
N12835 G1 X9.429 Y122.942
N12840 G1 X9.495 Y122.955
N12845 G1 X9.696 Y122.982
N12850 G1 X9.898 Y122.994
N12855 G1 X10.781 Y123.063
N12860 G1 X11.665 Y123.13
N12865 G1 X12.549 Y123.186
N12870 G1 X13.434 Y123.232
N12875 G1 X14.319 Y123.269
N12880 G1 X15.205 Y123.298
N12885 G1 X16.091 Y123.322
N12890 G1 X16.977 Y123.34
N12895 G1 X17.863 Y123.354
N12900 G1 X18.749 Y123.365
N12905 G1 X19.635 Y123.374
N12910 G1 X20.521 Y123.38
N12915 G1 X21.407 Y123.385
N12920 G1 X23.179 Y123.392
N12925 G1 X25.838 Y123.397
N12930 G1 X30.268 Y123.399
N12935 G1 X56.852 Y123.4
N12940 G1 X60.396
N12945 G1 X110.906
N12950 G1 X161.415
N12955 G1 X211.924
N12960 G1 X262.433
N12965 G1 X312.942
N12970 G1 X363.451
N12975 G1 X413.96
N12980 G1 X464.469
N12985 G1 X514.978
N12990 G1 X565.487
N12995 G1 X615.996
N13000 G1 X666.505
N13005 G1 X717.014
N13010 G1 X767.523
N13015 G1 X818.032
N13020 G1 X868.541
N13025 G1 X919.05
N13030 G1 X969.559
N13035 G1 X1020.068
N13040 G1 X1070.577
N13045 G1 X1121.086
N13050 G1 X1171.595
N13055 G1 X1218.559
N13060 G1 X1219.443 Y123.341
N13065 G1 X1220.176 Y123.043
N13070 G1 X1220.283 Y123.004
N13075 G1 X1220.393 Y122.975
N13080 G1 X1220.505 Y122.955
N13085 G1 X1220.572 Y122.942
N13090 G1 X1220.908 Y122.856
N13095 G1 X1221.008 Y122.824
N13100 G1 X1221.109 Y122.786
N13105 G1 X1221.311 Y122.695
N13110 G1 X1221.512 Y122.585
N13115 G1 X1221.59 Y122.539
N13120 G1 X1221.713 Y122.458
N13125 G1 X1221.915 Y122.307
N13130 G1 X1222.116 Y122.117
N13135 G1 X1222.285 Y121.935
N13140 G1 X1222.447 Y121.734
N13145 G1 X1222.574 Y121.533
N13150 G1 X1222.683 Y121.332
N13155 G1 X1222.72 Y121.256
N13160 G1 X1222.778 Y121.13
N13165 G1 X1222.85 Y120.929
N13170 G1 X1222.907 Y120.728
N13175 G1 X1222.922 Y120.671
N13180 G1 X1222.95 Y120.527
N13185 G1 X1222.981 Y120.325
N13190 G1 X1222.995 Y120.124
N13195 G1 X1223.06 Y119.24
N13200 G1 X1223.128 Y118.357
N13205 G1 X1223.185 Y117.473
N13210 G1 X1223.231 Y116.588
N13215 G1 X1223.269 Y115.702
N13220 G1 X1223.298 Y114.817
N13225 G1 X1223.322 Y113.931
N13230 G1 X1223.34 Y113.045
N13235 G1 X1223.354 Y112.159
N13240 G1 X1223.365 Y111.273
N13245 G1 X1223.374 Y110.387
N13250 G1 X1223.38 Y109.501
N13255 G1 X1223.385 Y108.615
N13260 G1 X1223.392 Y106.842
N13265 G1 X1223.397 Y104.184
N13270 G1 X1223.399 Y99.753
N13275 G1 X1223.4 Y81.145
N13280 G1 X1223.309 Y80.263
N13285 G1 X1223.064 Y79.478
N13290 G1 X1223.028 Y79.341
N13295 G1 X1223.007 Y79.202
N13300 G1 X1223 Y79.061
N13305 G1 Y74
N13310 G3 X1223.465 Y73.436 I0.6 J0.021
N13315 G1 X1223.556 Y73.415 Z10.007
N13320 G1 X1223.645 Y73.395 Z10.029
N13325 G1 X1223.73 Y73.375 Z10.065
N13330 G1 X1223.808 Y73.357 Z10.115
N13335 G1 X1223.878 Y73.341 Z10.176
N13340 G1 X1223.938 Y73.327 Z10.247
N13345 G1 X1223.986 Y73.316 Z10.328
N13350 G1 X1224.021 Y73.308 Z10.415
N13355 G1 X1224.042 Y73.303 Z10.506
N13360 G1 X1224.049 Y73.301 Z10.6
N13365 G0 Z25
N13370 G0 X1223.492 Y121.406
N13375 G0 Z11.2
N13380 G1 Z10.6 F1828.8
N13385 G1 X1223.488 Y121.399 Z10.506
N13390 G1 X1223.477 Y121.38 Z10.415
N13395 G1 X1223.46 Y121.349 Z10.328
N13400 G1 X1223.436 Y121.306 Z10.247
N13405 G1 X1223.406 Y121.253 Z10.176
N13410 G1 X1223.371 Y121.19 Z10.115
N13415 G1 X1223.331 Y121.12 Z10.065
N13420 G1 X1223.289 Y121.044 Z10.029
N13425 G1 X1223.244 Y120.965 Z10.007
N13430 G1 X1223.198 Y120.883 Z10
N13435 G3 X1222.995 Y120.124 I1.379 J-0.776
N13440 G1 X1222.999 Y119.923
N13445 G1 X1223 Y116.703
N13450 G1 Y79.061
N13455 G3 X1223.465 Y78.497 I0.6 J0.021
N13460 G1 X1223.556 Y78.476 Z10.007
N13465 G1 X1223.645 Y78.455 Z10.029
N13470 G1 X1223.73 Y78.436 Z10.065
N13475 G1 X1223.808 Y78.418 Z10.115
N13480 G1 X1223.878 Y78.402 Z10.176
N13485 G1 X1223.938 Y78.388 Z10.247
N13490 G1 X1223.986 Y78.377 Z10.328
N13495 G1 X1224.021 Y78.369 Z10.415
N13500 G1 X1224.042 Y78.364 Z10.506
N13505 G1 X1224.049 Y78.362 Z10.6
N13510 G0 Z25
N13515 G0 X8.614 Y123.487
N13520 G0 Z11.2
N13525 G1 Z10.6 F1828.8
N13530 G1 X8.621 Y123.483 Z10.506
N13535 G1 X8.64 Y123.473 Z10.415
N13540 G1 X8.671 Y123.455 Z10.328
N13545 G1 X8.714 Y123.431 Z10.247
N13550 G1 X8.768 Y123.401 Z10.176
N13555 G1 X8.83 Y123.367 Z10.115
N13560 G1 X8.9 Y123.328 Z10.065
N13565 G1 X8.976 Y123.285 Z10.029
N13570 G1 X9.056 Y123.241 Z10.007
N13575 G1 X9.138 Y123.195 Z10
N13580 G3 X9.898 Y122.994 I0.771 J1.382
N13585 G1 X10.099 Y123
N13590 G1 X1219.901
N13595 G1 X1220.102 Y122.994
N13600 G1 X1220.304 Y122.982
N13605 G1 X1220.505 Y122.955
N13610 G3 X1221.126 Y123.341 I0.059 J0.597
N13615 G1 X1221.159 Y123.428 Z10.007
N13620 G1 X1221.191 Y123.514 Z10.029
N13625 G1 X1221.222 Y123.595 Z10.065
N13630 G1 X1221.25 Y123.671 Z10.115
N13635 G1 X1221.275 Y123.738 Z10.176
N13640 G1 X1221.297 Y123.795 Z10.247
N13645 G1 X1221.314 Y123.841 Z10.328
N13650 G1 X1221.327 Y123.875 Z10.415
N13655 G1 X1221.335 Y123.895 Z10.506
N13660 G1 X1221.337 Y123.902 Z10.6
N13665 G0 Z25
N13670 G0 X6.472 Y73.576
N13675 G0 Z11.2
N13680 G1 Z10.6 F1828.8
N13685 G1 X6.476 Y73.582 Z10.506
N13690 G1 X6.487 Y73.601 Z10.415
N13695 G1 X6.505 Y73.632 Z10.328
N13700 G1 X6.531 Y73.674 Z10.247
N13705 G1 X6.562 Y73.727 Z10.176
N13710 G1 X6.598 Y73.788 Z10.115
N13715 G1 X6.639 Y73.857 Z10.065
N13720 G1 X6.684 Y73.932 Z10.029
N13725 G1 X6.731 Y74.011 Z10.007
N13730 G1 X6.779 Y74.091 Z10
N13735 G3 X7 Y74.845 I-1.36 J0.809
N13740 G1 Y119.722
N13745 G1 X7.001 Y119.923
N13750 G1 X7.005 Y120.124
N13755 G1 X7.019 Y120.325
N13760 G1 X7.046 Y120.502
N13765 G3 X6.674 Y121.13 I-0.596 J0.071
N13770 G1 X6.587 Y121.165 Z10.007
N13775 G1 X6.502 Y121.199 Z10.029
N13780 G1 X6.421 Y121.232 Z10.065
N13785 G1 X6.346 Y121.261 Z10.115
N13790 G1 X6.28 Y121.288 Z10.176
N13795 G1 X6.223 Y121.311 Z10.247
N13800 G1 X6.177 Y121.329 Z10.328
N13805 G1 X6.144 Y121.342 Z10.415
N13810 G1 X6.123 Y121.351 Z10.506
N13815 G1 X6.117 Y121.353 Z10.6
N13820 G0 Z35
N13825 G0 X6.381 Y133.149
N13830 G0 Z25
N13835 G0 Z16.2
N13840 G1 Z15.6 F1828.8
N13845 G1 X6.383 Y133.156 Z15.506
N13850 G1 X6.389 Y133.177 Z15.415
N13855 G1 X6.398 Y133.212 Z15.328
N13860 G1 X6.41 Y133.26 Z15.247
N13865 G1 X6.425 Y133.319 Z15.176
N13870 G1 X6.443 Y133.388 Z15.115
N13875 G1 X6.463 Y133.466 Z15.065
N13880 G1 X6.484 Y133.55 Z15.029
N13885 G1 X6.507 Y133.639 Z15.007
N13890 G1 X6.53 Y133.73 Z15
N13895 G3 X7 Y136.996 I-14.839 J3.801
N13900 G1 Y137.259
N13905 G1 X6.998 Y137.296
N13910 G1 X6.907 Y137.415
N13915 G1 X6.79 Y137.546
N13920 G1 X6.635 Y137.692
N13925 G1 X6.433 Y137.854
N13930 G1 X6.175 Y138.029
N13935 G1 X5.844 Y138.217
N13940 G1 X5.415 Y138.416
N13945 G1 X4.849 Y138.626
N13950 G1 X4.073 Y138.844
N13955 G1 X3.204 Y139.015
N13960 G1 X2.765 Y139.074
N13965 G1 X2.33 Y139.161
N13970 G1 X1.544 Y139.57
N13975 G1 X0.945 Y140.223
N13980 G1 X0.504 Y140.991
N13985 G1 X0.183 Y141.817
N13990 G1 X-0.047 Y142.673
N13995 G1 X-0.21 Y143.544
N14000 G1 X-0.326 Y144.423
N14005 G1 X-0.408 Y145.305
N14010 G1 X-0.466 Y146.189
N14015 G1 X-0.506 Y147.074
N14020 G1 X-0.534 Y147.96
N14025 G1 X-0.554 Y148.846
N14030 G1 X-0.568 Y149.732
N14035 G1 X-0.578 Y150.618
N14040 G1 X-0.584 Y151.504
N14045 G1 X-0.589 Y152.39
N14050 G1 X-0.595 Y154.163
N14055 G1 X-0.598 Y156.821
N14060 G1 X-0.6 Y163.024
N14065 G1 Y183.405
N14070 G1 Y197.139
N14075 G1 X-0.577 Y197.36
N14080 G1 X-0.462 Y197.788
N14085 G1 X-0.006 Y198.548
N14090 G1 X0.668 Y199.123
N14095 G1 X1.446 Y199.546
N14100 G1 X2.278 Y199.853
N14105 G1 X3.136 Y200.072
N14110 G1 X4.009 Y200.229
N14115 G1 X4.888 Y200.339
N14120 G1 X5.771 Y200.417
N14125 G1 X6.655 Y200.472
N14130 G1 X7.54 Y200.51
N14135 G1 X8.426 Y200.537
N14140 G1 X9.312 Y200.556
N14145 G1 X10.198 Y200.569
N14150 G1 X11.084 Y200.579
N14155 G1 X11.97 Y200.585
N14160 G1 X12.856 Y200.59
N14165 G1 X14.628 Y200.595
N14170 G1 X17.287 Y200.598
N14175 G1 X23.49 Y200.6
N14180 G1 X35.009
N14185 G1 X85.518
N14190 G1 X136.027
N14195 G1 X186.536
N14200 G1 X237.045
N14205 G1 X287.554
N14210 G1 X338.063
N14215 G1 X388.572
N14220 G1 X439.081
N14225 G1 X489.59
N14230 G1 X540.099
N14235 G1 X590.608
N14240 G1 X641.117
N14245 G1 X691.626
N14250 G1 X742.135
N14255 G1 X792.644
N14260 G1 X843.154
N14265 G1 X852.236
N14270 G1 X852.455 Y200.565
N14275 G1 X852.876 Y200.427
N14280 G1 X853.616 Y199.939
N14285 G1 X854.174 Y199.251
N14290 G1 X854.583 Y198.465
N14295 G1 X854.879 Y197.63
N14300 G1 X855.091 Y196.769
N14305 G1 X855.242 Y195.896
N14310 G1 X855.349 Y195.017
N14315 G1 X855.424 Y194.134
N14320 G1 X855.477 Y193.249
N14325 G1 X855.514 Y192.364
N14330 G1 X855.54 Y191.478
N14335 G1 X855.558 Y190.592
N14340 G1 X855.57 Y189.706
N14345 G1 X855.579 Y188.82
N14350 G1 X855.586 Y187.934
N14355 G1 X855.59 Y187.048
N14360 G1 X855.595 Y185.275
N14365 G1 X855.598 Y182.617
N14370 G1 X855.6 Y176.414
N14375 G1 Y160.464
N14380 G1 Y142.742
N14385 G1 X855.505 Y142.309
N14390 G1 X855.087 Y141.528
N14395 G1 X854.43 Y140.933
N14400 G1 X853.66 Y140.494
N14405 G1 X852.833 Y140.177
N14410 G1 X851.976 Y139.949
N14415 G1 X851.105 Y139.786
N14420 G1 X850.227 Y139.671
N14425 G1 X849.344 Y139.59
N14430 G1 X849.31 Y139.588
N14435 G1 X849.014 Y139.537
N14440 G1 X848.735 Y139.423
N14445 G1 X848.487 Y139.253
N14450 G1 X848.282 Y139.033
N14455 G1 X848.128 Y138.775
N14460 G1 X848.032 Y138.49
N14465 G1 X848 Y138.191
N14470 G3 X848.465 Y137.627 I0.6 J0.021
N14475 G1 X848.556 Y137.606 Z15.007
N14480 G1 X848.645 Y137.586 Z15.029
N14485 G1 X848.73 Y137.566 Z15.065
N14490 G1 X848.808 Y137.548 Z15.115
N14495 G1 X848.878 Y137.532 Z15.176
N14500 G1 X848.938 Y137.518 Z15.247
N14505 G1 X848.986 Y137.507 Z15.328
N14510 G1 X849.021 Y137.499 Z15.415
N14515 G1 X849.042 Y137.494 Z15.506
N14520 G1 X849.049 Y137.492 Z15.6
N14525 G0 Z25
N14530 G0 X6.472 Y135.989
N14535 G0 Z16.2
N14540 G1 Z15.6 F1828.8
N14545 G1 X6.476 Y135.996 Z15.506
N14550 G1 X6.487 Y136.014 Z15.415
N14555 G1 X6.505 Y136.045 Z15.328
N14560 G1 X6.531 Y136.088 Z15.247
N14565 G1 X6.562 Y136.14 Z15.176
N14570 G1 X6.598 Y136.202 Z15.115
N14575 G1 X6.639 Y136.271 Z15.065
N14580 G1 X6.684 Y136.346 Z15.029
N14585 G1 X6.731 Y136.424 Z15.007
N14590 G1 X6.779 Y136.505 Z15
N14595 G3 X7 Y137.259 I-1.36 J0.809
N14600 G1 Y138.113
N14605 G1 X6.992 Y138.263
N14610 G1 X6.93 Y138.424
N14615 G1 X6.838 Y138.613
N14620 G1 X6.726 Y138.803
N14625 G1 X6.58 Y139.01
N14630 G1 X6.387 Y139.242
N14635 G1 X6.17 Y139.464
N14640 G1 X5.888 Y139.71
N14645 G1 X5.175 Y140.237
N14650 G1 X4.459 Y140.759
N14655 G1 X3.854 Y141.406
N14660 G1 X3.364 Y142.144
N14665 G1 X2.979 Y142.943
N14670 G1 X2.682 Y143.777
N14675 G1 X2.456 Y144.634
N14680 G1 X2.285 Y145.503
N14685 G1 X2.157 Y146.38
N14690 G1 X2.062 Y147.261
N14695 G1 X1.992 Y148.145
N14700 G1 X1.94 Y149.029
N14705 G1 X1.902 Y149.915
N14710 G1 X1.874 Y150.8
N14715 G1 X1.854 Y151.686
N14720 G1 X1.839 Y152.572
N14725 G1 X1.828 Y153.458
N14730 G1 X1.82 Y154.344
N14735 G1 X1.815 Y155.23
N14740 G1 X1.811 Y156.117
N14745 G1 X1.805 Y157.889
N14750 G1 X1.802 Y160.547
N14755 G1 X1.8 Y166.75
N14760 G1 Y187.131
N14765 G1 Y194.22
N14770 G1 X1.902 Y194.651
N14775 G1 X2.257 Y195.463
N14780 G1 X2.84 Y196.131
N14785 G1 X3.554 Y196.655
N14790 G1 X4.344 Y197.057
N14795 G1 X5.176 Y197.36
N14800 G1 X6.033 Y197.585
N14805 G1 X6.904 Y197.752
N14810 G1 X7.781 Y197.875
N14815 G1 X8.663 Y197.964
N14820 G1 X9.546 Y198.03
N14825 G1 X10.431 Y198.077
N14830 G1 X11.317 Y198.111
N14835 G1 X12.202 Y198.136
N14840 G1 X13.088 Y198.154
N14845 G1 X13.974 Y198.167
N14850 G1 X14.861 Y198.176
N14855 G1 X15.747 Y198.183
N14860 G1 X16.633 Y198.188
N14865 G1 X18.405 Y198.194
N14870 G1 X21.063 Y198.198
N14875 G1 X26.38 Y198.2
N14880 G1 X43.216
N14885 G1 X93.725
N14890 G1 X144.234
N14895 G1 X194.743
N14900 G1 X245.252
N14905 G1 X295.762
N14910 G1 X346.271
N14915 G1 X396.78
N14920 G1 X447.289
N14925 G1 X497.798
N14930 G1 X548.307
N14935 G1 X598.816
N14940 G1 X649.325
N14945 G1 X699.834
N14950 G1 X750.343
N14955 G1 X800.852
N14960 G1 X849.145
N14965 G1 X849.58 Y198.113
N14970 G1 X850.401 Y197.78
N14975 G1 X851.082 Y197.213
N14980 G1 X851.618 Y196.507
N14985 G1 X852.029 Y195.722
N14990 G1 X852.338 Y194.892
N14995 G1 X852.57 Y194.036
N15000 G1 X852.741 Y193.167
N15005 G1 X852.866 Y192.29
N15010 G1 X852.958 Y191.408
N15015 G1 X853.025 Y190.525
N15020 G1 X853.074 Y189.64
N15025 G1 X853.109 Y188.755
N15030 G1 X853.135 Y187.869
N15035 G1 X853.153 Y186.983
N15040 G1 X853.166 Y186.097
N15045 G1 X853.176 Y185.211
N15050 G1 X853.183 Y184.325
N15055 G1 X853.188 Y183.439
N15060 G1 X853.191 Y182.553
N15065 G1 X853.195 Y180.78
N15070 G1 X853.198 Y178.122
N15075 G1 X853.2 Y171.033
N15080 G1 Y147.108
N15085 G1 Y146.221
N15090 G1 X853.188 Y145.779
N15095 G1 X853.089 Y145.347
N15100 G1 X852.735 Y144.534
N15105 G1 X852.153 Y143.866
N15110 G1 X851.439 Y143.342
N15115 G1 X850.655 Y142.929
N15120 G1 X849.849 Y142.561
N15125 G1 X849.06 Y142.182
N15130 G1 X848.695 Y141.969
N15135 G1 X848.459 Y141.797
N15140 G1 X848.265 Y141.579
N15145 G1 X848.12 Y141.327
N15150 G1 X848.03 Y141.049
N15155 G1 X848 Y140.76
N15160 G1 Y140.015
N15165 G3 X848.465 Y139.451 I0.6 J0.021
N15170 G1 X848.556 Y139.43 Z15.007
N15175 G1 X848.645 Y139.41 Z15.029
N15180 G1 X848.73 Y139.39 Z15.065
N15185 G1 X848.808 Y139.372 Z15.115
N15190 G1 X848.878 Y139.356 Z15.176
N15195 G1 X848.938 Y139.342 Z15.247
N15200 G1 X848.986 Y139.331 Z15.328
N15205 G1 X849.021 Y139.323 Z15.415
N15210 G1 X849.042 Y139.318 Z15.506
N15215 G1 X849.049 Y139.316 Z15.6
N15220 G0 Z25
N15225 G0 X6.472 Y136.844
N15230 G0 Z16.2
N15235 G1 Z15.6 F1828.8
N15240 G1 X6.476 Y136.85 Z15.506
N15245 G1 X6.487 Y136.869 Z15.415
N15250 G1 X6.505 Y136.9 Z15.328
N15255 G1 X6.531 Y136.943 Z15.247
N15260 G1 X6.562 Y136.995 Z15.176
N15265 G1 X6.598 Y137.057 Z15.115
N15270 G1 X6.639 Y137.126 Z15.065
N15275 G1 X6.684 Y137.2 Z15.029
N15280 G1 X6.731 Y137.279 Z15.007
N15285 G1 X6.779 Y137.36 Z15
N15290 G3 X7 Y138.113 I-1.36 J0.809
N15295 G1 Y139.321
N15300 G1 X6.996 Y139.398
N15305 G1 X6.98 Y139.57
N15310 G1 X6.944 Y139.776
N15315 G1 X6.882 Y140.019
N15320 G1 X6.687 Y140.581
N15325 G1 X6.331 Y141.393
N15330 G1 X5.968 Y142.201
N15335 G1 X5.636 Y143.022
N15340 G1 X5.347 Y143.86
N15345 G1 X5.106 Y144.713
N15350 G1 X4.908 Y145.577
N15355 G1 X4.749 Y146.448
N15360 G1 X4.623 Y147.326
N15365 G1 X4.524 Y148.206
N15370 G1 X4.447 Y149.089
N15375 G1 X4.387 Y149.973
N15380 G1 X4.342 Y150.858
N15385 G1 X4.307 Y151.743
N15390 G1 X4.28 Y152.629
N15395 G1 X4.26 Y153.515
N15400 G1 X4.245 Y154.401
N15405 G1 X4.233 Y155.287
N15410 G1 X4.225 Y156.173
N15415 G1 X4.218 Y157.059
N15420 G1 X4.214 Y157.945
N15425 G1 X4.207 Y159.718
N15430 G1 X4.203 Y162.376
N15435 G1 X4.201 Y166.806
N15440 G1 X4.2 Y188.96
N15445 G1 Y191.618
N15450 G1 X4.43 Y192.474
N15455 G1 X4.912 Y193.217
N15460 G1 X5.556 Y193.826
N15465 G1 X6.3 Y194.307
N15470 G1 X7.104 Y194.679
N15475 G1 X7.943 Y194.964
N15480 G1 X8.803 Y195.179
N15485 G1 X9.674 Y195.34
N15490 G1 X10.552 Y195.46
N15495 G1 X11.434 Y195.55
N15500 G1 X12.318 Y195.616
N15505 G1 X13.202 Y195.665
N15510 G1 X14.088 Y195.701
N15515 G1 X14.973 Y195.728
N15520 G1 X15.859 Y195.747
N15525 G1 X16.745 Y195.761
N15530 G1 X17.631 Y195.772
N15535 G1 X18.517 Y195.78
N15540 G1 X19.404 Y195.785
N15545 G1 X20.29 Y195.789
N15550 G1 X22.062 Y195.794
N15555 G1 X24.72 Y195.798
N15560 G1 X30.037 Y195.8
N15565 G1 X50.418
N15570 G1 X100.927
N15575 G1 X151.436
N15580 G1 X201.945
N15585 G1 X252.454
N15590 G1 X302.963
N15595 G1 X353.472
N15600 G1 X403.981
N15605 G1 X454.49
N15610 G1 X504.999
N15615 G1 X555.508
N15620 G1 X606.017
N15625 G1 X656.526
N15630 G1 X707.035
N15635 G1 X757.544
N15640 G1 X808.053
N15645 G1 X846.156
N15650 G1 X847.039 Y195.724
N15655 G1 X847.848 Y195.362
N15660 G1 X848.527 Y194.792
N15665 G1 X849.072 Y194.094
N15670 G1 X849.498 Y193.317
N15675 G1 X849.826 Y192.494
N15680 G1 X850.075 Y191.644
N15685 G1 X850.263 Y190.777
N15690 G1 X850.403 Y189.902
N15695 G1 X850.508 Y189.023
N15700 G1 X850.585 Y188.14
N15705 G1 X850.642 Y187.256
N15710 G1 X850.684 Y186.37
N15715 G1 X850.715 Y185.485
N15720 G1 X850.738 Y184.599
N15725 G1 X850.755 Y183.713
N15730 G1 X850.767 Y182.827
N15735 G1 X850.776 Y181.941
N15740 G1 X850.783 Y181.055
N15745 G1 X850.787 Y180.169
N15750 G1 X850.793 Y178.396
N15755 G1 X850.797 Y175.738
N15760 G1 X850.8 Y170.421
N15765 G1 Y149.154
N15770 G1 X850.799 Y148.268
N15775 G1 X850.537 Y147.422
N15780 G1 X850.072 Y146.667
N15785 G1 X849.489 Y146
N15790 G1 X848.848 Y145.389
N15795 G1 X848.456 Y145.031
N15800 G1 X848.263 Y144.814
N15805 G1 X848.119 Y144.562
N15810 G1 X848.03 Y144.286
N15815 G1 X848 Y143.997
N15820 G1 Y140.76
N15825 G3 X848.465 Y140.196 I0.6 J0.021
N15830 G1 X848.556 Y140.175 Z15.007
N15835 G1 X848.645 Y140.154 Z15.029
N15840 G1 X848.73 Y140.135 Z15.065
N15845 G1 X848.808 Y140.117 Z15.115
N15850 G1 X848.878 Y140.1 Z15.176
N15855 G1 X848.938 Y140.087 Z15.247
N15860 G1 X848.986 Y140.076 Z15.328
N15865 G1 X849.021 Y140.067 Z15.415
N15870 G1 X849.042 Y140.063 Z15.506
N15875 G1 X849.049 Y140.061 Z15.6
N15880 G0 Z25
N15885 G0 X6.472 Y138.051
N15890 G0 Z16.2
N15895 G1 Z15.6 F1828.8
N15900 G1 X6.476 Y138.058 Z15.506
N15905 G1 X6.487 Y138.077 Z15.415
N15910 G1 X6.505 Y138.108 Z15.328
N15915 G1 X6.531 Y138.15 Z15.247
N15920 G1 X6.562 Y138.203 Z15.176
N15925 G1 X6.598 Y138.264 Z15.115
N15930 G1 X6.639 Y138.333 Z15.065
N15935 G1 X6.684 Y138.408 Z15.029
N15940 G1 X6.731 Y138.487 Z15.007
N15945 G1 X6.779 Y138.567 Z15
N15950 G3 X7 Y139.321 I-1.36 J0.809
N15955 G1 Y144.845
N15960 G1 X6.956 Y145.73
N15965 G1 X6.937 Y146.616
N15970 G1 X6.902 Y147.501
N15975 G1 X6.82 Y149.272
N15980 G1 X6.782 Y150.157
N15985 G1 X6.748 Y151.042
N15990 G1 X6.719 Y151.928
N15995 G1 X6.695 Y152.814
N16000 G1 X6.675 Y153.7
N16005 G1 X6.659 Y154.586
N16010 G1 X6.646 Y155.472
N16015 G1 X6.636 Y156.358
N16020 G1 X6.628 Y157.244
N16025 G1 X6.621 Y158.13
N16030 G1 X6.616 Y159.016
N16035 G1 X6.609 Y160.788
N16040 G1 X6.604 Y163.447
N16045 G1 X6.601 Y166.991
N16050 G1 X6.6 Y177.625
N16055 G1 Y189.144
N16060 G1 X6.851 Y189.994
N16065 G1 X6.94 Y190.154
N16070 G1 X7.006 Y190.324
N16075 G1 X7.046 Y190.502
N16080 G1 X7.05 Y190.527
N16085 G1 X7.076 Y190.663
N16090 G1 X7.093 Y190.728
N16095 G1 X7.15 Y190.929
N16100 G1 X7.223 Y191.13
N16105 G1 X7.278 Y191.251
N16110 G1 X7.317 Y191.332
N16115 G1 X7.426 Y191.533
N16120 G1 X7.553 Y191.734
N16125 G1 X7.716 Y191.935
N16130 G1 X7.882 Y192.115
N16135 G1 X8.083 Y192.305
N16140 G1 X8.285 Y192.456
N16145 G1 X8.409 Y192.539
N16150 G1 X8.486 Y192.584
N16155 G1 X8.687 Y192.694
N16160 G1 X8.889 Y192.785
N16165 G1 X8.989 Y192.823
N16170 G1 X9.09 Y192.856
N16175 G1 X9.43 Y192.942
N16180 G1 X9.493 Y192.955
N16185 G1 X9.694 Y192.982
N16190 G1 X9.895 Y192.994
N16195 G1 X10.779 Y193.064
N16200 G1 X11.662 Y193.13
N16205 G1 X12.547 Y193.186
N16210 G1 X13.432 Y193.232
N16215 G1 X14.317 Y193.269
N16220 G1 X15.203 Y193.298
N16225 G1 X16.089 Y193.322
N16230 G1 X16.974 Y193.34
N16235 G1 X17.86 Y193.354
N16240 G1 X18.747 Y193.365
N16245 G1 X19.633 Y193.374
N16250 G1 X20.519 Y193.38
N16255 G1 X21.405 Y193.385
N16260 G1 X23.177 Y193.392
N16265 G1 X25.835 Y193.397
N16270 G1 X30.266 Y193.399
N16275 G1 X56.85 Y193.4
N16280 G1 X60.394
N16285 G1 X110.903
N16290 G1 X161.412
N16295 G1 X211.921
N16300 G1 X262.43
N16305 G1 X312.939
N16310 G1 X363.448
N16315 G1 X413.957
N16320 G1 X464.466
N16325 G1 X514.975
N16330 G1 X565.484
N16335 G1 X615.993
N16340 G1 X666.502
N16345 G1 X717.011
N16350 G1 X767.52
N16355 G1 X818.029
N16360 G1 X843.727
N16365 G1 X844.606 Y193.286
N16370 G1 X845.017 Y193.089
N16375 G1 X845.152 Y193.033
N16380 G1 X845.293 Y192.991
N16385 G1 X845.437 Y192.964
N16390 G1 X845.507 Y192.955
N16395 G1 X845.57 Y192.942
N16400 G1 X845.91 Y192.856
N16405 G1 X846.011 Y192.823
N16410 G1 X846.111 Y192.785
N16415 G1 X846.313 Y192.694
N16420 G1 X846.514 Y192.584
N16425 G1 X846.591 Y192.539
N16430 G1 X846.715 Y192.456
N16435 G1 X846.917 Y192.305
N16440 G1 X847.118 Y192.115
N16445 G1 X847.284 Y191.935
N16450 G1 X847.447 Y191.734
N16455 G1 X847.574 Y191.533
N16460 G1 X847.683 Y191.332
N16465 G1 X847.722 Y191.251
N16470 G1 X847.777 Y191.13
N16475 G1 X847.85 Y190.929
N16480 G1 X847.907 Y190.728
N16485 G1 X847.924 Y190.663
N16490 G1 X847.95 Y190.527
N16495 G1 X847.981 Y190.325
N16500 G1 X847.995 Y190.124
N16505 G1 X848.06 Y189.24
N16510 G1 X848.128 Y188.357
N16515 G1 X848.184 Y187.473
N16520 G1 X848.231 Y186.588
N16525 G1 X848.268 Y185.702
N16530 G1 X848.298 Y184.817
N16535 G1 X848.322 Y183.931
N16540 G1 X848.34 Y183.045
N16545 G1 X848.354 Y182.159
N16550 G1 X848.365 Y181.273
N16555 G1 X848.374 Y180.387
N16560 G1 X848.38 Y179.501
N16565 G1 X848.385 Y178.615
N16570 G1 X848.392 Y176.842
N16575 G1 X848.397 Y174.184
N16580 G1 X848.399 Y169.753
N16585 G1 X848.4 Y151.145
N16590 G1 X848.309 Y150.263
N16595 G1 X848.064 Y149.481
N16600 G1 X848.029 Y149.344
N16605 G1 X848.007 Y149.204
N16610 G1 X848 Y149.063
N16615 G1 Y143.997
N16620 G3 X848.465 Y143.434 I0.6 J0.021
N16625 G1 X848.556 Y143.413 Z15.007
N16630 G1 X848.645 Y143.392 Z15.029
N16635 G1 X848.73 Y143.373 Z15.065
N16640 G1 X848.808 Y143.354 Z15.115
N16645 G1 X848.878 Y143.338 Z15.176
N16650 G1 X848.938 Y143.325 Z15.247
N16655 G1 X848.986 Y143.314 Z15.328
N16660 G1 X849.021 Y143.305 Z15.415
N16665 G1 X849.042 Y143.3 Z15.506
N16670 G1 X849.049 Y143.299 Z15.6
N16675 G0 Z25
N16680 G0 X848.492 Y191.406
N16685 G0 Z16.2
N16690 G1 Z15.6 F1828.8
N16695 G1 X848.488 Y191.399 Z15.506
N16700 G1 X848.477 Y191.38 Z15.415
N16705 G1 X848.46 Y191.349 Z15.328
N16710 G1 X848.436 Y191.306 Z15.247
N16715 G1 X848.406 Y191.253 Z15.176
N16720 G1 X848.371 Y191.19 Z15.115
N16725 G1 X848.331 Y191.12 Z15.065
N16730 G1 X848.289 Y191.044 Z15.029
N16735 G1 X848.244 Y190.965 Z15.007
N16740 G1 X848.198 Y190.883 Z15
N16745 G3 X847.995 Y190.124 I1.379 J-0.776
N16750 G1 X847.999 Y189.923
N16755 G1 X848 Y186.703
N16760 G1 Y149.063
N16765 G3 X848.465 Y148.499 I0.6 J0.021
N16770 G1 X848.556 Y148.478 Z15.007
N16775 G1 X848.645 Y148.458 Z15.029
N16780 G1 X848.73 Y148.438 Z15.065
N16785 G1 X848.808 Y148.42 Z15.115
N16790 G1 X848.878 Y148.404 Z15.176
N16795 G1 X848.938 Y148.39 Z15.247
N16800 G1 X848.986 Y148.379 Z15.328
N16805 G1 X849.021 Y148.371 Z15.415
N16810 G1 X849.042 Y148.366 Z15.506
N16815 G1 X849.049 Y148.364 Z15.6
N16820 G0 Z25
N16825 G0 X8.612 Y193.486
N16830 G0 Z16.2
N16835 G1 Z15.6 F1828.8
N16840 G1 X8.618 Y193.483 Z15.506
N16845 G1 X8.637 Y193.472 Z15.415
N16850 G1 X8.669 Y193.455 Z15.328
N16855 G1 X8.712 Y193.431 Z15.247
N16860 G1 X8.765 Y193.401 Z15.176
N16865 G1 X8.828 Y193.366 Z15.115
N16870 G1 X8.898 Y193.327 Z15.065
N16875 G1 X8.974 Y193.285 Z15.029
N16880 G1 X9.054 Y193.24 Z15.007
N16885 G1 X9.136 Y193.194 Z15
N16890 G3 X9.895 Y192.994 I0.77 J1.382
N16895 G1 X10.097 Y193
N16900 G1 X844.903
N16905 G1 X845.105 Y192.994
N16910 G1 X845.306 Y192.982
N16915 G1 X845.437 Y192.964
N16920 G3 X846.057 Y193.351 I0.058 J0.597
N16925 G1 X846.09 Y193.439 Z15.007
N16930 G1 X846.122 Y193.524 Z15.029
N16935 G1 X846.153 Y193.606 Z15.065
N16940 G1 X846.181 Y193.681 Z15.115
N16945 G1 X846.206 Y193.748 Z15.176
N16950 G1 X846.227 Y193.805 Z15.247
N16955 G1 X846.245 Y193.851 Z15.328
N16960 G1 X846.257 Y193.885 Z15.415
N16965 G1 X846.265 Y193.905 Z15.506
N16970 G1 X846.268 Y193.912 Z15.6
N16975 G0 Z25
N16980 G0 X6.472 Y143.576
N16985 G0 Z16.2
N16990 G1 Z15.6 F1828.8
N16995 G1 X6.476 Y143.582 Z15.506
N17000 G1 X6.487 Y143.601 Z15.415
N17005 G1 X6.505 Y143.632 Z15.328
N17010 G1 X6.531 Y143.674 Z15.247
N17015 G1 X6.562 Y143.727 Z15.176
N17020 G1 X6.598 Y143.788 Z15.115
N17025 G1 X6.639 Y143.857 Z15.065
N17030 G1 X6.684 Y143.932 Z15.029
N17035 G1 X6.731 Y144.011 Z15.007
N17040 G1 X6.779 Y144.091 Z15
N17045 G3 X7 Y144.845 I-1.36 J0.809
N17050 G1 Y189.722
N17055 G1 X7.001 Y189.923
N17060 G1 X7.005 Y190.124
N17065 G1 X7.019 Y190.325
N17070 G1 X7.046 Y190.502
N17075 G1 X7.05 Y190.595
N17080 G1 X7.04 Y190.687
N17085 G1 X7.013 Y190.756 Z15.005
N17090 G1 X6.987 Y190.823 Z15.018
N17095 G1 X6.961 Y190.889 Z15.041
N17100 G1 X6.908 Y190.948 Z15.079
N17105 G1 X6.859 Y191.002 Z15.129
N17110 G1 X6.815 Y191.05 Z15.188
N17115 G1 X6.766 Y191.078 Z15.259
N17120 G1 X6.726 Y191.1 Z15.337
N17125 G1 X6.697 Y191.117 Z15.421
N17130 G1 X6.68 Y191.127 Z15.509
N17135 G1 X6.674 Y191.13 Z15.6
N17140 G0 Z25
N17145 G0 X6.381 Y133.149
N17150 G0 Z11.2
N17155 G1 Z10.6 F1828.8
N17160 G1 X6.383 Y133.156 Z10.506
N17165 G1 X6.389 Y133.177 Z10.415
N17170 G1 X6.398 Y133.212 Z10.328
N17175 G1 X6.41 Y133.26 Z10.247
N17180 G1 X6.425 Y133.319 Z10.176
N17185 G1 X6.443 Y133.388 Z10.115
N17190 G1 X6.463 Y133.466 Z10.065
N17195 G1 X6.484 Y133.55 Z10.029
N17200 G1 X6.507 Y133.639 Z10.007
N17205 G1 X6.53 Y133.73 Z10
N17210 G3 X7 Y136.996 I-14.839 J3.801
N17215 G1 Y137.259
N17220 G1 X6.998 Y137.296
N17225 G1 X6.907 Y137.415
N17230 G1 X6.79 Y137.546
N17235 G1 X6.635 Y137.692
N17240 G1 X6.433 Y137.854
N17245 G1 X6.175 Y138.029
N17250 G1 X5.844 Y138.217
N17255 G1 X5.415 Y138.416
N17260 G1 X4.849 Y138.626
N17265 G1 X4.073 Y138.844
N17270 G1 X3.204 Y139.015
N17275 G1 X2.765 Y139.074
N17280 G1 X2.33 Y139.161
N17285 G1 X1.544 Y139.57
N17290 G1 X0.945 Y140.223
N17295 G1 X0.504 Y140.991
N17300 G1 X0.183 Y141.817
N17305 G1 X-0.047 Y142.673
N17310 G1 X-0.21 Y143.544
N17315 G1 X-0.326 Y144.423
N17320 G1 X-0.408 Y145.305
N17325 G1 X-0.466 Y146.189
N17330 G1 X-0.506 Y147.074
N17335 G1 X-0.534 Y147.96
N17340 G1 X-0.554 Y148.846
N17345 G1 X-0.568 Y149.732
N17350 G1 X-0.578 Y150.618
N17355 G1 X-0.584 Y151.504
N17360 G1 X-0.589 Y152.39
N17365 G1 X-0.595 Y154.163
N17370 G1 X-0.598 Y156.821
N17375 G1 X-0.6 Y163.024
N17380 G1 Y183.405
N17385 G1 Y197.139
N17390 G1 X-0.577 Y197.36
N17395 G1 X-0.462 Y197.788
N17400 G1 X-0.006 Y198.548
N17405 G1 X0.668 Y199.123
N17410 G1 X1.446 Y199.546
N17415 G1 X2.278 Y199.853
N17420 G1 X3.136 Y200.072
N17425 G1 X4.009 Y200.229
N17430 G1 X4.888 Y200.339
N17435 G1 X5.771 Y200.417
N17440 G1 X6.655 Y200.472
N17445 G1 X7.54 Y200.51
N17450 G1 X8.426 Y200.537
N17455 G1 X9.312 Y200.556
N17460 G1 X10.198 Y200.569
N17465 G1 X11.084 Y200.579
N17470 G1 X11.97 Y200.585
N17475 G1 X12.856 Y200.59
N17480 G1 X14.628 Y200.595
N17485 G1 X17.287 Y200.598
N17490 G1 X23.49 Y200.6
N17495 G1 X35.009
N17500 G1 X85.518
N17505 G1 X136.027
N17510 G1 X186.536
N17515 G1 X237.045
N17520 G1 X287.554
N17525 G1 X338.063
N17530 G1 X388.572
N17535 G1 X439.081
N17540 G1 X489.59
N17545 G1 X540.099
N17550 G1 X590.608
N17555 G1 X641.117
N17560 G1 X691.626
N17565 G1 X742.135
N17570 G1 X792.644
N17575 G1 X843.154
N17580 G1 X852.236
N17585 G1 X852.455 Y200.565
N17590 G1 X852.876 Y200.427
N17595 G1 X853.616 Y199.939
N17600 G1 X854.174 Y199.251
N17605 G1 X854.583 Y198.465
N17610 G1 X854.879 Y197.63
N17615 G1 X855.091 Y196.769
N17620 G1 X855.242 Y195.896
N17625 G1 X855.349 Y195.017
N17630 G1 X855.424 Y194.134
N17635 G1 X855.477 Y193.249
N17640 G1 X855.514 Y192.364
N17645 G1 X855.54 Y191.478
N17650 G1 X855.558 Y190.592
N17655 G1 X855.57 Y189.706
N17660 G1 X855.579 Y188.82
N17665 G1 X855.586 Y187.934
N17670 G1 X855.59 Y187.048
N17675 G1 X855.595 Y185.275
N17680 G1 X855.598 Y182.617
N17685 G1 X855.6 Y176.414
N17690 G1 Y160.464
N17695 G1 Y142.742
N17700 G1 X855.505 Y142.309
N17705 G1 X855.087 Y141.528
N17710 G1 X854.43 Y140.933
N17715 G1 X853.66 Y140.494
N17720 G1 X852.833 Y140.177
N17725 G1 X851.976 Y139.949
N17730 G1 X851.105 Y139.786
N17735 G1 X850.227 Y139.671
N17740 G1 X849.344 Y139.59
N17745 G1 X849.31 Y139.588
N17750 G1 X849.014 Y139.537
N17755 G1 X848.735 Y139.423
N17760 G1 X848.487 Y139.253
N17765 G1 X848.282 Y139.033
N17770 G1 X848.128 Y138.775
N17775 G1 X848.032 Y138.49
N17780 G1 X848 Y138.191
N17785 G3 X848.465 Y137.627 I0.6 J0.021
N17790 G1 X848.556 Y137.606 Z10.007
N17795 G1 X848.645 Y137.586 Z10.029
N17800 G1 X848.73 Y137.566 Z10.065
N17805 G1 X848.808 Y137.548 Z10.115
N17810 G1 X848.878 Y137.532 Z10.176
N17815 G1 X848.938 Y137.518 Z10.247
N17820 G1 X848.986 Y137.507 Z10.328
N17825 G1 X849.021 Y137.499 Z10.415
N17830 G1 X849.042 Y137.494 Z10.506
N17835 G1 X849.049 Y137.492 Z10.6
N17840 G0 Z25
N17845 G0 X6.472 Y135.989
N17850 G0 Z11.2
N17855 G1 Z10.6 F1828.8
N17860 G1 X6.476 Y135.996 Z10.506
N17865 G1 X6.487 Y136.014 Z10.415
N17870 G1 X6.505 Y136.045 Z10.328
N17875 G1 X6.531 Y136.088 Z10.247
N17880 G1 X6.562 Y136.14 Z10.176
N17885 G1 X6.598 Y136.202 Z10.115
N17890 G1 X6.639 Y136.271 Z10.065
N17895 G1 X6.684 Y136.346 Z10.029
N17900 G1 X6.731 Y136.424 Z10.007
N17905 G1 X6.779 Y136.505 Z10
N17910 G3 X7 Y137.259 I-1.36 J0.809
N17915 G1 Y138.113
N17920 G1 X6.992 Y138.263
N17925 G1 X6.93 Y138.424
N17930 G1 X6.838 Y138.613
N17935 G1 X6.726 Y138.803
N17940 G1 X6.58 Y139.01
N17945 G1 X6.387 Y139.242
N17950 G1 X6.17 Y139.464
N17955 G1 X5.888 Y139.71
N17960 G1 X5.175 Y140.237
N17965 G1 X4.459 Y140.759
N17970 G1 X3.854 Y141.406
N17975 G1 X3.364 Y142.144
N17980 G1 X2.979 Y142.943
N17985 G1 X2.682 Y143.777
N17990 G1 X2.456 Y144.634
N17995 G1 X2.285 Y145.503
N18000 G1 X2.157 Y146.38
N18005 G1 X2.062 Y147.261
N18010 G1 X1.992 Y148.145
N18015 G1 X1.94 Y149.029
N18020 G1 X1.902 Y149.915
N18025 G1 X1.874 Y150.8
N18030 G1 X1.854 Y151.686
N18035 G1 X1.839 Y152.572
N18040 G1 X1.828 Y153.458
N18045 G1 X1.82 Y154.344
N18050 G1 X1.815 Y155.23
N18055 G1 X1.811 Y156.117
N18060 G1 X1.805 Y157.889
N18065 G1 X1.802 Y160.547
N18070 G1 X1.8 Y166.75
N18075 G1 Y187.131
N18080 G1 Y194.22
N18085 G1 X1.902 Y194.651
N18090 G1 X2.257 Y195.463
N18095 G1 X2.84 Y196.131
N18100 G1 X3.554 Y196.655
N18105 G1 X4.344 Y197.057
N18110 G1 X5.176 Y197.36
N18115 G1 X6.033 Y197.585
N18120 G1 X6.904 Y197.752
N18125 G1 X7.781 Y197.875
N18130 G1 X8.663 Y197.964
N18135 G1 X9.546 Y198.03
N18140 G1 X10.431 Y198.077
N18145 G1 X11.317 Y198.111
N18150 G1 X12.202 Y198.136
N18155 G1 X13.088 Y198.154
N18160 G1 X13.974 Y198.167
N18165 G1 X14.861 Y198.176
N18170 G1 X15.747 Y198.183
N18175 G1 X16.633 Y198.188
N18180 G1 X18.405 Y198.194
N18185 G1 X21.063 Y198.198
N18190 G1 X26.38 Y198.2
N18195 G1 X43.216
N18200 G1 X93.725
N18205 G1 X144.234
N18210 G1 X194.743
N18215 G1 X245.252
N18220 G1 X295.762
N18225 G1 X346.271
N18230 G1 X396.78
N18235 G1 X447.289
N18240 G1 X497.798
N18245 G1 X548.307
N18250 G1 X598.816
N18255 G1 X649.325
N18260 G1 X699.834
N18265 G1 X750.343
N18270 G1 X800.852
N18275 G1 X849.145
N18280 G1 X849.58 Y198.113
N18285 G1 X850.401 Y197.78
N18290 G1 X851.082 Y197.213
N18295 G1 X851.618 Y196.507
N18300 G1 X852.029 Y195.722
N18305 G1 X852.338 Y194.892
N18310 G1 X852.57 Y194.036
N18315 G1 X852.741 Y193.167
N18320 G1 X852.866 Y192.29
N18325 G1 X852.958 Y191.408
N18330 G1 X853.025 Y190.525
N18335 G1 X853.074 Y189.64
N18340 G1 X853.109 Y188.755
N18345 G1 X853.135 Y187.869
N18350 G1 X853.153 Y186.983
N18355 G1 X853.166 Y186.097
N18360 G1 X853.176 Y185.211
N18365 G1 X853.183 Y184.325
N18370 G1 X853.188 Y183.439
N18375 G1 X853.191 Y182.553
N18380 G1 X853.195 Y180.78
N18385 G1 X853.198 Y178.122
N18390 G1 X853.2 Y171.033
N18395 G1 Y147.108
N18400 G1 Y146.221
N18405 G1 X853.188 Y145.779
N18410 G1 X853.089 Y145.347
N18415 G1 X852.735 Y144.534
N18420 G1 X852.153 Y143.866
N18425 G1 X851.439 Y143.342
N18430 G1 X850.655 Y142.929
N18435 G1 X849.849 Y142.561
N18440 G1 X849.06 Y142.182
N18445 G1 X848.695 Y141.969
N18450 G1 X848.459 Y141.797
N18455 G1 X848.265 Y141.579
N18460 G1 X848.12 Y141.327
N18465 G1 X848.03 Y141.049
N18470 G1 X848 Y140.76
N18475 G1 Y140.015
N18480 G3 X848.465 Y139.451 I0.6 J0.021
N18485 G1 X848.556 Y139.43 Z10.007
N18490 G1 X848.645 Y139.41 Z10.029
N18495 G1 X848.73 Y139.39 Z10.065
N18500 G1 X848.808 Y139.372 Z10.115
N18505 G1 X848.878 Y139.356 Z10.176
N18510 G1 X848.938 Y139.342 Z10.247
N18515 G1 X848.986 Y139.331 Z10.328
N18520 G1 X849.021 Y139.323 Z10.415
N18525 G1 X849.042 Y139.318 Z10.506
N18530 G1 X849.049 Y139.316 Z10.6
N18535 G0 Z25
N18540 G0 X6.472 Y136.844
N18545 G0 Z11.2
N18550 G1 Z10.6 F1828.8
N18555 G1 X6.476 Y136.85 Z10.506
N18560 G1 X6.487 Y136.869 Z10.415
N18565 G1 X6.505 Y136.9 Z10.328
N18570 G1 X6.531 Y136.943 Z10.247
N18575 G1 X6.562 Y136.995 Z10.176
N18580 G1 X6.598 Y137.057 Z10.115
N18585 G1 X6.639 Y137.126 Z10.065
N18590 G1 X6.684 Y137.2 Z10.029
N18595 G1 X6.731 Y137.279 Z10.007
N18600 G1 X6.779 Y137.36 Z10
N18605 G3 X7 Y138.113 I-1.36 J0.809
N18610 G1 Y139.321
N18615 G1 X6.996 Y139.398
N18620 G1 X6.98 Y139.57
N18625 G1 X6.944 Y139.776
N18630 G1 X6.882 Y140.019
N18635 G1 X6.687 Y140.581
N18640 G1 X6.331 Y141.393
N18645 G1 X5.968 Y142.201
N18650 G1 X5.636 Y143.022
N18655 G1 X5.347 Y143.86
N18660 G1 X5.106 Y144.713
N18665 G1 X4.908 Y145.577
N18670 G1 X4.749 Y146.448
N18675 G1 X4.623 Y147.326
N18680 G1 X4.524 Y148.206
N18685 G1 X4.447 Y149.089
N18690 G1 X4.387 Y149.973
N18695 G1 X4.342 Y150.858
N18700 G1 X4.307 Y151.743
N18705 G1 X4.28 Y152.629
N18710 G1 X4.26 Y153.515
N18715 G1 X4.245 Y154.401
N18720 G1 X4.233 Y155.287
N18725 G1 X4.225 Y156.173
N18730 G1 X4.218 Y157.059
N18735 G1 X4.214 Y157.945
N18740 G1 X4.207 Y159.718
N18745 G1 X4.203 Y162.376
N18750 G1 X4.201 Y166.806
N18755 G1 X4.2 Y188.96
N18760 G1 Y191.618
N18765 G1 X4.43 Y192.474
N18770 G1 X4.912 Y193.217
N18775 G1 X5.556 Y193.826
N18780 G1 X6.3 Y194.307
N18785 G1 X7.104 Y194.679
N18790 G1 X7.943 Y194.964
N18795 G1 X8.803 Y195.179
N18800 G1 X9.674 Y195.34
N18805 G1 X10.552 Y195.46
N18810 G1 X11.434 Y195.55
N18815 G1 X12.318 Y195.616
N18820 G1 X13.202 Y195.665
N18825 G1 X14.088 Y195.701
N18830 G1 X14.973 Y195.728
N18835 G1 X15.859 Y195.747
N18840 G1 X16.745 Y195.761
N18845 G1 X17.631 Y195.772
N18850 G1 X18.517 Y195.78
N18855 G1 X19.404 Y195.785
N18860 G1 X20.29 Y195.789
N18865 G1 X22.062 Y195.794
N18870 G1 X24.72 Y195.798
N18875 G1 X30.037 Y195.8
N18880 G1 X50.418
N18885 G1 X100.927
N18890 G1 X151.436
N18895 G1 X201.945
N18900 G1 X252.454
N18905 G1 X302.963
N18910 G1 X353.472
N18915 G1 X403.981
N18920 G1 X454.49
N18925 G1 X504.999
N18930 G1 X555.508
N18935 G1 X606.017
N18940 G1 X656.526
N18945 G1 X707.035
N18950 G1 X757.544
N18955 G1 X808.053
N18960 G1 X846.156
N18965 G1 X847.039 Y195.724
N18970 G1 X847.848 Y195.362
N18975 G1 X848.527 Y194.792
N18980 G1 X849.072 Y194.094
N18985 G1 X849.498 Y193.317
N18990 G1 X849.826 Y192.494
N18995 G1 X850.075 Y191.644
N19000 G1 X850.263 Y190.777
N19005 G1 X850.403 Y189.902
N19010 G1 X850.508 Y189.023
N19015 G1 X850.585 Y188.14
N19020 G1 X850.642 Y187.256
N19025 G1 X850.684 Y186.37
N19030 G1 X850.715 Y185.485
N19035 G1 X850.738 Y184.599
N19040 G1 X850.755 Y183.713
N19045 G1 X850.767 Y182.827
N19050 G1 X850.776 Y181.941
N19055 G1 X850.783 Y181.055
N19060 G1 X850.787 Y180.169
N19065 G1 X850.793 Y178.396
N19070 G1 X850.797 Y175.738
N19075 G1 X850.8 Y170.421
N19080 G1 Y149.154
N19085 G1 X850.799 Y148.268
N19090 G1 X850.537 Y147.422
N19095 G1 X850.072 Y146.667
N19100 G1 X849.489 Y146
N19105 G1 X848.848 Y145.389
N19110 G1 X848.456 Y145.031
N19115 G1 X848.263 Y144.814
N19120 G1 X848.119 Y144.562
N19125 G1 X848.03 Y144.286
N19130 G1 X848 Y143.997
N19135 G1 Y140.76
N19140 G3 X848.465 Y140.196 I0.6 J0.021
N19145 G1 X848.556 Y140.175 Z10.007
N19150 G1 X848.645 Y140.154 Z10.029
N19155 G1 X848.73 Y140.135 Z10.065
N19160 G1 X848.808 Y140.117 Z10.115
N19165 G1 X848.878 Y140.1 Z10.176
N19170 G1 X848.938 Y140.087 Z10.247
N19175 G1 X848.986 Y140.076 Z10.328
N19180 G1 X849.021 Y140.067 Z10.415
N19185 G1 X849.042 Y140.063 Z10.506
