%
(Short_Face_CAM)
(Machine)
(  vendor: CNC-Step)
(  model: High-Z S1400T)
(  description: Generic 3-axis)
(T1 D=6 CR=0 - ZMIN=10 - flat end mill)
N10 G90 G94
N15 G17
N20 G21
N25 G28 G91 Z0
N30 G90

(2D Adaptive1)
N35 T1 M6
N40 S18000 M3
N45 G54
N50 G0 Z35
N50 G0 X6.03 Y-6.277
N55 G0 G43 Z35 H1
N60 G0 Z25
N65 G0 Z17.6
N70 G1 Z17 F2286
N75 G1 Z15
N80 G3 X6.5 Y-3.01 I-14.839 J3.801
N85 G1 Y-2.576
N90 G1 X6.498 Y-2.539
N95 G1 X6.39 Y-2.368
N100 G1 X6.239 Y-2.173
N105 G1 X6.034 Y-1.958
N110 G1 X5.761 Y-1.723
N115 G1 X5.402 Y-1.471
N120 G1 X4.929 Y-1.205
N125 G1 X4.294 Y-0.926
N130 G1 X3.41 Y-0.639
N135 G1 X2.942 Y-0.537
N140 G1 X2.707 Y-0.49
N145 G1 X2.273 Y-0.287
N150 G1 X1.547 Y0.338
N155 G1 X1.053 Y1.158
N160 G1 X0.717 Y2.055
N165 G1 X0.488 Y2.985
N170 G1 X0.332 Y3.93
N175 G1 X0.226 Y4.882
N180 G1 X0.154 Y5.837
N185 G1 X0.105 Y6.793
N190 G1 X0.071 Y7.75
N195 G1 X0.049 Y8.708
N200 G1 X0.033 Y9.665
N205 G1 X0.023 Y10.623
N210 G1 X0.015 Y11.58
N215 G1 X0.01 Y12.538
N220 G1 X0.007 Y13.496
N225 G1 X0.003 Y15.411
N230 G1 X0.001 Y19.242
N235 G1 X0 Y37.199
N240 G1 X0.057 Y37.431
N245 G1 X0.278 Y37.856
N250 G1 X0.948 Y38.54
N255 G1 X1.785 Y39.006
N260 G1 X2.688 Y39.324
N265 G1 X3.621 Y39.54
N270 G1 X4.568 Y39.687
N275 G1 X5.52 Y39.787
N280 G1 X6.475 Y39.855
N285 G1 X6.488 Y39.859
N290 G1 X6.497 Y39.868
N295 G1 X6.5 Y39.881
N300 G3 X6.035 Y40.444 I-0.6 J-0.021
N305 G1 X5.944 Y40.465 Z15.007
N310 G1 X5.855 Y40.486 Z15.029
N315 G1 X5.77 Y40.505 Z15.065
N320 G1 X5.692 Y40.524 Z15.115
N325 G1 X5.622 Y40.54 Z15.176
N330 G1 X5.562 Y40.553 Z15.247
N335 G1 X5.514 Y40.564 Z15.328
N340 G1 X5.479 Y40.573 Z15.415
N345 G1 X5.458 Y40.578 Z15.506
N350 G1 X5.451 Y40.579 Z15.6
N355 G0 Z25
N360 G0 X5.972 Y-3.845
N365 G0 Z16.2
N370 G1 Z15.6 F2286
N375 G1 X5.976 Y-3.839 Z15.506
N380 G1 X5.987 Y-3.82 Z15.415
N385 G1 X6.005 Y-3.789 Z15.328
N390 G1 X6.031 Y-3.747 Z15.247
N395 G1 X6.062 Y-3.694 Z15.176
N400 G1 X6.098 Y-3.633 Z15.115
N405 G1 X6.139 Y-3.564 Z15.065
N410 G1 X6.184 Y-3.489 Z15.029
N415 G1 X6.231 Y-3.41 Z15.007
N420 G1 X6.279 Y-3.33 Z15
N425 G3 X6.5 Y-2.576 I-1.36 J0.809
N430 G1 Y-1.392
N435 G1 X6.492 Y-1.243
N440 G1 X6.44 Y-1.013
N445 G1 X6.359 Y-0.774
N450 G1 X6.241 Y-0.514
N455 G1 X6.068 Y-0.215
N460 G1 X5.856 Y0.081
N465 G1 X5.222 Y0.799
N470 G1 X4.675 Y1.585
N475 G1 X4.242 Y2.439
N480 G1 X3.912 Y3.338
N485 G1 X3.664 Y4.264
N490 G1 X3.482 Y5.204
N495 G1 X3.348 Y6.152
N500 G1 X3.25 Y7.105
N505 G1 X3.179 Y8.06
N510 G1 X3.128 Y9.016
N515 G1 X3.092 Y9.973
N520 G1 X3.065 Y10.93
N525 G1 X3.046 Y11.888
N530 G1 X3.033 Y12.845
N535 G1 X3.023 Y13.803
N540 G1 X3.016 Y14.761
N545 G1 X3.012 Y15.718
N550 G1 X3.008 Y16.676
N555 G1 X3.004 Y18.592
N560 G1 X3.001 Y21.465
N565 G1 X3 Y30.084
N570 G1 Y33.436
N575 G1 X3.069 Y33.91
N580 G1 X3.275 Y34.342
N585 G1 X3.856 Y35.103
N590 G1 X4.638 Y35.656
N595 G1 X5.498 Y36.078
N600 G1 X5.928 Y36.288
N605 G1 X5.972 Y36.311
N610 G1 X6.19 Y36.469
N615 G1 X6.358 Y36.679
N620 G1 X6.464 Y36.926
N625 G1 X6.5 Y37.193
N630 G1 Y39.881
N635 G3 X6.035 Y40.444 I-0.6 J-0.021
N640 G1 X5.944 Y40.465 Z15.007
N645 G1 X5.855 Y40.486 Z15.029
N650 G1 X5.77 Y40.505 Z15.065
N655 G1 X5.692 Y40.524 Z15.115
N660 G1 X5.622 Y40.54 Z15.176
N665 G1 X5.562 Y40.553 Z15.247
N670 G1 X5.514 Y40.564 Z15.328
N675 G1 X5.479 Y40.573 Z15.415
N680 G1 X5.458 Y40.578 Z15.506
N685 G1 X5.451 Y40.579 Z15.6
N690 G0 Z25
N695 G0 X5.972 Y-2.662
N700 G0 Z16.2
N705 G1 Z15.6 F2286
N710 G1 X5.976 Y-2.655 Z15.506
N715 G1 X5.987 Y-2.636 Z15.415
N720 G1 X6.005 Y-2.605 Z15.328
N725 G1 X6.031 Y-2.563 Z15.247
N730 G1 X6.062 Y-2.511 Z15.176
N735 G1 X6.098 Y-2.449 Z15.115
N740 G1 X6.139 Y-2.38 Z15.065
N745 G1 X6.184 Y-2.305 Z15.029
N750 G1 X6.231 Y-2.227 Z15.007
N755 G1 X6.279 Y-2.146 Z15
N760 G3 X6.5 Y-1.392 I-1.36 J0.809
N765 G1 Y2.517
N770 G1 X6.452 Y3.473
N775 G1 X6.414 Y4.43
N780 G1 X6.357 Y5.386
N785 G1 X6.296 Y6.342
N790 G1 X6.239 Y7.298
N795 G1 X6.19 Y8.255
N800 G1 X6.148 Y9.211
N805 G1 X6.114 Y10.168
N810 G1 X6.087 Y11.126
N815 G1 X6.066 Y12.083
N820 G1 X6.05 Y13.041
N825 G1 X6.037 Y13.998
N830 G1 X6.028 Y14.956
N835 G1 X6.021 Y15.914
N840 G1 X6.015 Y16.871
N845 G1 X6.011 Y17.829
N850 G1 X6.006 Y19.744
N855 G1 X6.002 Y22.618
N860 G1 X6 Y28.364
N865 G1 Y30.279
N870 G1 X6.164 Y31.223
N875 G1 X6.368 Y31.579
N880 G1 X6.441 Y31.736
N885 G1 X6.485 Y31.904
N890 G1 X6.5 Y32.076
N895 G1 Y37.193
N900 G3 X6.035 Y37.757 I-0.6 J-0.021
N905 G1 X5.944 Y37.778 Z15.007
N910 G1 X5.855 Y37.798 Z15.029
N915 G1 X5.77 Y37.818 Z15.065
N920 G1 X5.692 Y37.836 Z15.115
N925 G1 X5.622 Y37.852 Z15.176
N930 G1 X5.562 Y37.866 Z15.247
N935 G1 X5.514 Y37.877 Z15.328
N940 G1 X5.479 Y37.885 Z15.415
N945 G1 X5.458 Y37.89 Z15.506
N950 G1 X5.451 Y37.892 Z15.6
N955 G0 Z25
N960 G0 X5.972 Y1.248
N965 G0 Z16.2
N970 G1 Z15.6 F2286
N975 G1 X5.976 Y1.254 Z15.506
N980 G1 X5.987 Y1.273 Z15.415
N985 G1 X6.005 Y1.304 Z15.328
N990 G1 X6.031 Y1.346 Z15.247
N995 G1 X6.062 Y1.399 Z15.176
N1000 G1 X6.098 Y1.46 Z15.115
N1005 G1 X6.139 Y1.529 Z15.065
N1010 G1 X6.184 Y1.604 Z15.029
N1015 G1 X6.231 Y1.683 Z15.007
N1020 G1 X6.279 Y1.763 Z15
N1025 G3 X6.5 Y2.517 I-1.36 J0.809
N1030 G1 Y32.076
N1035 G1 X6.49 Y32.168
N1040 G1 X6.465 Y32.257
N1045 G1 X6.428 Y32.321 Z15.005
N1050 G1 X6.392 Y32.384 Z15.018
N1055 G1 X6.356 Y32.445 Z15.041
N1060 G1 X6.295 Y32.495 Z15.079
N1065 G1 X6.238 Y32.541 Z15.129
N1070 G1 X6.188 Y32.582 Z15.188
N1075 G1 X6.135 Y32.602 Z15.259
N1080 G1 X6.092 Y32.618 Z15.337
N1085 G1 X6.061 Y32.63 Z15.421
N1090 G1 X6.042 Y32.637 Z15.509
N1095 G1 X6.035 Y32.64 Z15.6
N1100 G0 Z25
N1105 G0 X6.03 Y-6.277
N1110 G0 Z12.6
N1115 G1 Z12 F2286
N1120 G1 Z10
N1125 G3 X6.5 Y-3.01 I-14.839 J3.801
N1130 G1 Y-2.576
N1135 G1 X6.498 Y-2.539
N1140 G1 X6.39 Y-2.368
N1145 G1 X6.239 Y-2.173
N1150 G1 X6.034 Y-1.958
N1155 G1 X5.761 Y-1.723
N1160 G1 X5.402 Y-1.471
N1165 G1 X4.929 Y-1.205
N1170 G1 X4.294 Y-0.926
N1175 G1 X3.41 Y-0.639
N1180 G1 X2.942 Y-0.537
N1185 G1 X2.707 Y-0.49
N1190 G1 X2.273 Y-0.287
N1195 G1 X1.547 Y0.338
N1200 G1 X1.053 Y1.158
N1205 G1 X0.717 Y2.055
N1210 G1 X0.488 Y2.985
N1215 G1 X0.332 Y3.93
N1220 G1 X0.226 Y4.882
N1225 G1 X0.154 Y5.837
N1230 G1 X0.105 Y6.793
N1235 G1 X0.071 Y7.75
N1240 G1 X0.049 Y8.708
N1245 G1 X0.033 Y9.665
N1250 G1 X0.023 Y10.623
N1255 G1 X0.015 Y11.58
N1260 G1 X0.01 Y12.538
N1265 G1 X0.007 Y13.496
N1270 G1 X0.003 Y15.411
N1275 G1 X0.001 Y19.242
N1280 G1 X0 Y37.199
N1285 G1 X0.057 Y37.431
N1290 G1 X0.278 Y37.856
N1295 G1 X0.948 Y38.54
N1300 G1 X1.785 Y39.006
N1305 G1 X2.688 Y39.324
N1310 G1 X3.621 Y39.54
N1315 G1 X4.568 Y39.687
N1320 G1 X5.52 Y39.787
N1325 G1 X6.475 Y39.855
N1330 G1 X6.488 Y39.859
N1335 G1 X6.497 Y39.868
N1340 G1 X6.5 Y39.881
N1345 G3 X6.035 Y40.444 I-0.6 J-0.021
N1350 G1 X5.944 Y40.465 Z10.007
N1355 G1 X5.855 Y40.486 Z10.029
N1360 G1 X5.77 Y40.505 Z10.065
N1365 G1 X5.692 Y40.524 Z10.115
N1370 G1 X5.622 Y40.54 Z10.176
N1375 G1 X5.562 Y40.553 Z10.247
N1380 G1 X5.514 Y40.564 Z10.328
N1385 G1 X5.479 Y40.573 Z10.415
N1390 G1 X5.458 Y40.578 Z10.506
N1395 G1 X5.451 Y40.579 Z10.6
N1400 G0 Z25
N1405 G0 X5.972 Y-3.845
N1410 G0 Z11.2
N1415 G1 Z10.6 F2286
N1420 G1 X5.976 Y-3.839 Z10.506
N1425 G1 X5.987 Y-3.82 Z10.415
N1430 G1 X6.005 Y-3.789 Z10.328
N1435 G1 X6.031 Y-3.747 Z10.247
N1440 G1 X6.062 Y-3.694 Z10.176
N1445 G1 X6.098 Y-3.633 Z10.115
N1450 G1 X6.139 Y-3.564 Z10.065
N1455 G1 X6.184 Y-3.489 Z10.029
N1460 G1 X6.231 Y-3.41 Z10.007
N1465 G1 X6.279 Y-3.33 Z10
N1470 G3 X6.5 Y-2.576 I-1.36 J0.809
N1475 G1 Y-1.392
N1480 G1 X6.492 Y-1.243
N1485 G1 X6.44 Y-1.013
N1490 G1 X6.359 Y-0.774
N1495 G1 X6.241 Y-0.514
N1500 G1 X6.068 Y-0.215
N1505 G1 X5.856 Y0.081
N1510 G1 X5.222 Y0.799
N1515 G1 X4.675 Y1.585
N1520 G1 X4.242 Y2.439
N1525 G1 X3.912 Y3.338
N1530 G1 X3.664 Y4.264
N1535 G1 X3.482 Y5.204
N1540 G1 X3.348 Y6.152
N1545 G1 X3.25 Y7.105
N1550 G1 X3.179 Y8.06
N1555 G1 X3.128 Y9.016
N1560 G1 X3.092 Y9.973
N1565 G1 X3.065 Y10.93
N1570 G1 X3.046 Y11.888
N1575 G1 X3.033 Y12.845
N1580 G1 X3.023 Y13.803
N1585 G1 X3.016 Y14.761
N1590 G1 X3.012 Y15.718
N1595 G1 X3.008 Y16.676
N1600 G1 X3.004 Y18.592
N1605 G1 X3.001 Y21.465
N1610 G1 X3 Y30.084
N1615 G1 Y33.436
N1620 G1 X3.069 Y33.91
N1625 G1 X3.275 Y34.342
N1630 G1 X3.856 Y35.103
N1635 G1 X4.638 Y35.656
N1640 G1 X5.498 Y36.078
N1645 G1 X5.928 Y36.288
N1650 G1 X5.972 Y36.311
N1655 G1 X6.19 Y36.469
N1660 G1 X6.358 Y36.679
N1665 G1 X6.464 Y36.926
N1670 G1 X6.5 Y37.193
N1675 G1 Y39.881
N1680 G3 X6.035 Y40.444 I-0.6 J-0.021
N1685 G1 X5.944 Y40.465 Z10.007
N1690 G1 X5.855 Y40.486 Z10.029
N1695 G1 X5.77 Y40.505 Z10.065
N1700 G1 X5.692 Y40.524 Z10.115
N1705 G1 X5.622 Y40.54 Z10.176
N1710 G1 X5.562 Y40.553 Z10.247
N1715 G1 X5.514 Y40.564 Z10.328
N1720 G1 X5.479 Y40.573 Z10.415
N1725 G1 X5.458 Y40.578 Z10.506
N1730 G1 X5.451 Y40.579 Z10.6
N1735 G0 Z25
N1740 G0 X5.972 Y-2.662
N1745 G0 Z11.2
N1750 G1 Z10.6 F2286
N1755 G1 X5.976 Y-2.655 Z10.506
N1760 G1 X5.987 Y-2.636 Z10.415
N1765 G1 X6.005 Y-2.605 Z10.328
N1770 G1 X6.031 Y-2.563 Z10.247
N1775 G1 X6.062 Y-2.511 Z10.176
N1780 G1 X6.098 Y-2.449 Z10.115
N1785 G1 X6.139 Y-2.38 Z10.065
N1790 G1 X6.184 Y-2.305 Z10.029
N1795 G1 X6.231 Y-2.227 Z10.007
N1800 G1 X6.279 Y-2.146 Z10
N1805 G3 X6.5 Y-1.392 I-1.36 J0.809
N1810 G1 Y2.517
N1815 G1 X6.452 Y3.473
N1820 G1 X6.414 Y4.43
N1825 G1 X6.357 Y5.386
N1830 G1 X6.296 Y6.342
N1835 G1 X6.239 Y7.298
N1840 G1 X6.19 Y8.255
N1845 G1 X6.148 Y9.211
N1850 G1 X6.114 Y10.168
N1855 G1 X6.087 Y11.126
N1860 G1 X6.066 Y12.083
N1865 G1 X6.05 Y13.041
N1870 G1 X6.037 Y13.998
N1875 G1 X6.028 Y14.956
N1880 G1 X6.021 Y15.914
N1885 G1 X6.015 Y16.871
N1890 G1 X6.011 Y17.829
N1895 G1 X6.006 Y19.744
N1900 G1 X6.002 Y22.618
N1905 G1 X6 Y28.364
N1910 G1 Y30.279
N1915 G1 X6.164 Y31.223
N1920 G1 X6.368 Y31.579
N1925 G1 X6.441 Y31.736
N1930 G1 X6.485 Y31.904
N1935 G1 X6.5 Y32.076
N1940 G1 Y37.193
N1945 G3 X6.035 Y37.757 I-0.6 J-0.021
N1950 G1 X5.944 Y37.778 Z10.007
N1955 G1 X5.855 Y37.798 Z10.029
N1960 G1 X5.77 Y37.818 Z10.065
N1965 G1 X5.692 Y37.836 Z10.115
N1970 G1 X5.622 Y37.852 Z10.176
N1975 G1 X5.562 Y37.866 Z10.247
N1980 G1 X5.514 Y37.877 Z10.328
N1985 G1 X5.479 Y37.885 Z10.415
N1990 G1 X5.458 Y37.89 Z10.506
N1995 G1 X5.451 Y37.892 Z10.6
N2000 G0 Z25
N2005 G0 X5.972 Y1.248
N2010 G0 Z11.2
N2015 G1 Z10.6 F2286
N2020 G1 X5.976 Y1.254 Z10.506
N2025 G1 X5.987 Y1.273 Z10.415
N2030 G1 X6.005 Y1.304 Z10.328
N2035 G1 X6.031 Y1.346 Z10.247
N2040 G1 X6.062 Y1.399 Z10.176
N2045 G1 X6.098 Y1.46 Z10.115
N2050 G1 X6.139 Y1.529 Z10.065
N2055 G1 X6.184 Y1.604 Z10.029
N2060 G1 X6.231 Y1.683 Z10.007
N2065 G1 X6.279 Y1.763 Z10
N2070 G3 X6.5 Y2.517 I-1.36 J0.809
N2075 G1 Y32.076
N2080 G3 X6.035 Y32.64 I-0.6 J-0.021
N2085 G1 X5.944 Y32.661 Z10.007
N2090 G1 X5.855 Y32.681 Z10.029
N2095 G1 X5.77 Y32.701 Z10.065
N2100 G1 X5.692 Y32.719 Z10.115
N2105 G1 X5.622 Y32.735 Z10.176
N2110 G1 X5.562 Y32.749 Z10.247
N2115 G1 X5.514 Y32.76 Z10.328
N2120 G1 X5.479 Y32.768 Z10.415
N2125 G1 X5.458 Y32.773 Z10.506
N2130 G1 X5.451 Y32.774 Z10.6
N2135 G0 Z35
N2140 G0 X353.97 Y46.277
N2145 G0 Z25
N2150 G0 Z17.6
N2155 G1 Z17 F2286
N2160 G1 Z15
N2165 G3 X353.5 Y43.01 I14.839 J-3.801
N2170 G1 Y42.576
N2175 G1 X353.502 Y42.539
N2180 G1 X353.61 Y42.368
N2185 G1 X353.761 Y42.173
N2190 G1 X353.966 Y41.958
N2195 G1 X354.239 Y41.723
N2200 G1 X354.598 Y41.471
N2205 G1 X355.071 Y41.205
N2210 G1 X355.706 Y40.926
N2215 G1 X356.59 Y40.639
N2220 G1 X357.058 Y40.537
N2225 G1 X357.293 Y40.49
N2230 G1 X357.727 Y40.287
N2235 G1 X358.453 Y39.662
N2240 G1 X358.947 Y38.842
N2245 G1 X359.283 Y37.945
N2250 G1 X359.512 Y37.015
N2255 G1 X359.668 Y36.07
N2260 G1 X359.774 Y35.118
N2265 G1 X359.846 Y34.163
N2270 G1 X359.895 Y33.207
N2275 G1 X359.929 Y32.25
N2280 G1 X359.951 Y31.292
N2285 G1 X359.967 Y30.335
N2290 G1 X359.977 Y29.377
N2295 G1 X359.985 Y28.42
N2300 G1 X359.99 Y27.462
N2305 G1 X359.993 Y26.504
N2310 G1 X359.997 Y24.589
N2315 G1 X359.999 Y20.758
N2320 G1 X360 Y2.801
N2325 G1 X359.943 Y2.569
N2330 G1 X359.722 Y2.144
N2335 G1 X359.052 Y1.46
N2340 G1 X358.215 Y0.994
N2345 G1 X357.312 Y0.676
N2350 G1 X356.379 Y0.46
N2355 G1 X355.432 Y0.313
N2360 G1 X354.48 Y0.213
N2365 G1 X353.525 Y0.145
N2370 G1 X353.512 Y0.141
N2375 G1 X353.503 Y0.132
N2380 G1 X353.5 Y0.119
N2385 G3 X353.965 Y-0.444 I0.6 J0.021
N2390 G1 X354.056 Y-0.465 Z15.007
N2395 G1 X354.145 Y-0.486 Z15.029
N2400 G1 X354.23 Y-0.505 Z15.065
N2405 G1 X354.308 Y-0.524 Z15.115
N2410 G1 X354.378 Y-0.54 Z15.176
N2415 G1 X354.438 Y-0.553 Z15.247
N2420 G1 X354.486 Y-0.564 Z15.328
N2425 G1 X354.521 Y-0.573 Z15.415
N2430 G1 X354.542 Y-0.578 Z15.506
N2435 G1 X354.549 Y-0.579 Z15.6
N2440 G0 Z25
N2445 G0 X354.028 Y43.845
N2450 G0 Z16.2
N2455 G1 Z15.6 F2286
N2460 G1 X354.024 Y43.839 Z15.506
N2465 G1 X354.013 Y43.82 Z15.415
N2470 G1 X353.995 Y43.789 Z15.328
N2475 G1 X353.969 Y43.747 Z15.247
N2480 G1 X353.938 Y43.694 Z15.176
N2485 G1 X353.902 Y43.633 Z15.115
N2490 G1 X353.861 Y43.564 Z15.065
N2495 G1 X353.816 Y43.489 Z15.029
N2500 G1 X353.769 Y43.41 Z15.007
N2505 G1 X353.721 Y43.33 Z15
N2510 G3 X353.5 Y42.576 I1.36 J-0.809
N2515 G1 Y41.392
N2520 G1 X353.508 Y41.243
N2525 G1 X353.56 Y41.013
N2530 G1 X353.641 Y40.774
N2535 G1 X353.759 Y40.514
N2540 G1 X353.932 Y40.215
N2545 G1 X354.144 Y39.919
N2550 G1 X354.778 Y39.201
N2555 G1 X355.325 Y38.415
N2560 G1 X355.758 Y37.561
N2565 G1 X356.088 Y36.662
N2570 G1 X356.336 Y35.736
N2575 G1 X356.518 Y34.796
N2580 G1 X356.652 Y33.848
N2585 G1 X356.75 Y32.895
N2590 G1 X356.821 Y31.94
N2595 G1 X356.872 Y30.984
N2600 G1 X356.908 Y30.027
N2605 G1 X356.935 Y29.07
N2610 G1 X356.954 Y28.112
N2615 G1 X356.967 Y27.155
N2620 G1 X356.977 Y26.197
N2625 G1 X356.984 Y25.239
N2630 G1 X356.988 Y24.282
N2635 G1 X356.992 Y23.324
N2640 G1 X356.996 Y21.408
N2645 G1 X356.999 Y18.535
N2650 G1 X357 Y9.916
N2655 G1 Y6.564
N2660 G1 X356.931 Y6.09
N2665 G1 X356.725 Y5.658
N2670 G1 X356.144 Y4.897
N2675 G1 X355.362 Y4.344
N2680 G1 X354.502 Y3.922
N2685 G1 X354.072 Y3.712
N2690 G1 X354.028 Y3.689
N2695 G1 X353.81 Y3.531
N2700 G1 X353.642 Y3.321
N2705 G1 X353.536 Y3.074
N2710 G1 X353.5 Y2.807
N2715 G1 Y0.119
N2720 G3 X353.965 Y-0.444 I0.6 J0.021
N2725 G1 X354.056 Y-0.465 Z15.007
N2730 G1 X354.145 Y-0.486 Z15.029
N2735 G1 X354.23 Y-0.505 Z15.065
N2740 G1 X354.308 Y-0.524 Z15.115
N2745 G1 X354.378 Y-0.54 Z15.176
N2750 G1 X354.438 Y-0.553 Z15.247
N2755 G1 X354.486 Y-0.564 Z15.328
N2760 G1 X354.521 Y-0.573 Z15.415
N2765 G1 X354.542 Y-0.578 Z15.506
N2770 G1 X354.549 Y-0.579 Z15.6
N2775 G0 Z25
N2780 G0 X354.028 Y42.662
N2785 G0 Z16.2
N2790 G1 Z15.6 F2286
N2795 G1 X354.024 Y42.655 Z15.506
N2800 G1 X354.013 Y42.636 Z15.415
N2805 G1 X353.995 Y42.605 Z15.328
N2810 G1 X353.969 Y42.563 Z15.247
N2815 G1 X353.938 Y42.511 Z15.176
N2820 G1 X353.902 Y42.449 Z15.115
N2825 G1 X353.861 Y42.38 Z15.065
N2830 G1 X353.816 Y42.305 Z15.029
N2835 G1 X353.769 Y42.227 Z15.007
N2840 G1 X353.721 Y42.146 Z15
N2845 G3 X353.5 Y41.392 I1.36 J-0.809
N2850 G1 Y37.483
N2855 G1 X353.548 Y36.527
N2860 G1 X353.586 Y35.57
N2865 G1 X353.643 Y34.614
N2870 G1 X353.704 Y33.658
N2875 G1 X353.761 Y32.702
N2880 G1 X353.81 Y31.745
N2885 G1 X353.852 Y30.789
N2890 G1 X353.886 Y29.832
N2895 G1 X353.913 Y28.874
N2900 G1 X353.934 Y27.917
N2905 G1 X353.95 Y26.959
N2910 G1 X353.963 Y26.002
N2915 G1 X353.972 Y25.044
N2920 G1 X353.979 Y24.086
N2925 G1 X353.985 Y23.129
N2930 G1 X353.989 Y22.171
N2935 G1 X353.994 Y20.256
N2940 G1 X353.998 Y17.382
N2945 G1 X354 Y11.636
N2950 G1 Y9.721
N2955 G1 X353.836 Y8.777
N2960 G1 X353.632 Y8.421
N2965 G1 X353.559 Y8.264
N2970 G1 X353.515 Y8.096
N2975 G1 X353.5 Y7.924
N2980 G1 Y2.807
N2985 G3 X353.965 Y2.243 I0.6 J0.021
N2990 G1 X354.056 Y2.222 Z15.007
N2995 G1 X354.145 Y2.202 Z15.029
N3000 G1 X354.23 Y2.182 Z15.065
N3005 G1 X354.308 Y2.164 Z15.115
N3010 G1 X354.378 Y2.148 Z15.176
N3015 G1 X354.438 Y2.134 Z15.247
N3020 G1 X354.486 Y2.123 Z15.328
N3025 G1 X354.521 Y2.115 Z15.415
N3030 G1 X354.542 Y2.11 Z15.506
N3035 G1 X354.549 Y2.108 Z15.6
N3040 G0 Z25
N3045 G0 X354.028 Y38.752
N3050 G0 Z16.2
N3055 G1 Z15.6 F2286
N3060 G1 X354.024 Y38.746 Z15.506
N3065 G1 X354.013 Y38.727 Z15.415
N3070 G1 X353.995 Y38.696 Z15.328
N3075 G1 X353.969 Y38.654 Z15.247
N3080 G1 X353.938 Y38.601 Z15.176
N3085 G1 X353.902 Y38.54 Z15.115
N3090 G1 X353.861 Y38.471 Z15.065
N3095 G1 X353.816 Y38.396 Z15.029
N3100 G1 X353.769 Y38.317 Z15.007
N3105 G1 X353.721 Y38.237 Z15
N3110 G3 X353.5 Y37.483 I1.36 J-0.809
N3115 G1 Y7.924
N3120 G1 X353.51 Y7.832
N3125 G1 X353.535 Y7.743
N3130 G1 X353.572 Y7.679 Z15.005
N3135 G1 X353.608 Y7.616 Z15.018
N3140 G1 X353.644 Y7.555 Z15.041
N3145 G1 X353.705 Y7.505 Z15.079
N3150 G1 X353.762 Y7.459 Z15.129
N3155 G1 X353.812 Y7.418 Z15.188
N3160 G1 X353.865 Y7.398 Z15.259
N3165 G1 X353.908 Y7.382 Z15.337
N3170 G1 X353.939 Y7.37 Z15.421
N3175 G1 X353.958 Y7.363 Z15.509
N3180 G1 X353.965 Y7.36 Z15.6
N3185 G0 Z25
N3190 G0 X353.97 Y46.277
N3195 G0 Z12.6
N3200 G1 Z12 F2286
N3205 G1 Z10
N3210 G3 X353.5 Y43.01 I14.839 J-3.801
N3215 G1 Y42.576
N3220 G1 X353.502 Y42.539
N3225 G1 X353.61 Y42.368
N3230 G1 X353.761 Y42.173
N3235 G1 X353.966 Y41.958
N3240 G1 X354.239 Y41.723
N3245 G1 X354.598 Y41.471
N3250 G1 X355.071 Y41.205
N3255 G1 X355.706 Y40.926
N3260 G1 X356.59 Y40.639
N3265 G1 X357.058 Y40.537
N3270 G1 X357.293 Y40.49
N3275 G1 X357.727 Y40.287
N3280 G1 X358.453 Y39.662
N3285 G1 X358.947 Y38.842
N3290 G1 X359.283 Y37.945
N3295 G1 X359.512 Y37.015
N3300 G1 X359.668 Y36.07
N3305 G1 X359.774 Y35.118
N3310 G1 X359.846 Y34.163
N3315 G1 X359.895 Y33.207
N3320 G1 X359.929 Y32.25
N3325 G1 X359.951 Y31.292
N3330 G1 X359.967 Y30.335
N3335 G1 X359.977 Y29.377
N3340 G1 X359.985 Y28.42
N3345 G1 X359.99 Y27.462
N3350 G1 X359.993 Y26.504
N3355 G1 X359.997 Y24.589
N3360 G1 X359.999 Y20.758
N3365 G1 X360 Y2.801
N3370 G1 X359.943 Y2.569
N3375 G1 X359.722 Y2.144
N3380 G1 X359.052 Y1.46
N3385 G1 X358.215 Y0.994
N3390 G1 X357.312 Y0.676
N3395 G1 X356.379 Y0.46
N3400 G1 X355.432 Y0.313
N3405 G1 X354.48 Y0.213
N3410 G1 X353.525 Y0.145
N3415 G1 X353.512 Y0.141
N3420 G1 X353.503 Y0.132
N3425 G1 X353.5 Y0.119
N3430 G3 X353.965 Y-0.444 I0.6 J0.021
N3435 G1 X354.056 Y-0.465 Z10.007
N3440 G1 X354.145 Y-0.486 Z10.029
N3445 G1 X354.23 Y-0.505 Z10.065
N3450 G1 X354.308 Y-0.524 Z10.115
N3455 G1 X354.378 Y-0.54 Z10.176
N3460 G1 X354.438 Y-0.553 Z10.247
N3465 G1 X354.486 Y-0.564 Z10.328
N3470 G1 X354.521 Y-0.573 Z10.415
N3475 G1 X354.542 Y-0.578 Z10.506
N3480 G1 X354.549 Y-0.579 Z10.6
N3485 G0 Z25
N3490 G0 X354.028 Y43.845
N3495 G0 Z11.2
N3500 G1 Z10.6 F2286
N3505 G1 X354.024 Y43.839 Z10.506
N3510 G1 X354.013 Y43.82 Z10.415
N3515 G1 X353.995 Y43.789 Z10.328
N3520 G1 X353.969 Y43.747 Z10.247
N3525 G1 X353.938 Y43.694 Z10.176
N3530 G1 X353.902 Y43.633 Z10.115
N3535 G1 X353.861 Y43.564 Z10.065
N3540 G1 X353.816 Y43.489 Z10.029
N3545 G1 X353.769 Y43.41 Z10.007
N3550 G1 X353.721 Y43.33 Z10
N3555 G3 X353.5 Y42.576 I1.36 J-0.809
N3560 G1 Y41.392
N3565 G1 X353.508 Y41.243
N3570 G1 X353.56 Y41.013
N3575 G1 X353.641 Y40.774
N3580 G1 X353.759 Y40.514
N3585 G1 X353.932 Y40.215
N3590 G1 X354.144 Y39.919
N3595 G1 X354.778 Y39.201
N3600 G1 X355.325 Y38.415
N3605 G1 X355.758 Y37.561
N3610 G1 X356.088 Y36.662
N3615 G1 X356.336 Y35.736
N3620 G1 X356.518 Y34.796
N3625 G1 X356.652 Y33.848
N3630 G1 X356.75 Y32.895
N3635 G1 X356.821 Y31.94
N3640 G1 X356.872 Y30.984
N3645 G1 X356.908 Y30.027
N3650 G1 X356.935 Y29.07
N3655 G1 X356.954 Y28.112
N3660 G1 X356.967 Y27.155
N3665 G1 X356.977 Y26.197
N3670 G1 X356.984 Y25.239
N3675 G1 X356.988 Y24.282
N3680 G1 X356.992 Y23.324
N3685 G1 X356.996 Y21.408
N3690 G1 X356.999 Y18.535
N3695 G1 X357 Y9.916
N3700 G1 Y6.564
N3705 G1 X356.931 Y6.09
N3710 G1 X356.725 Y5.658
N3715 G1 X356.144 Y4.897
N3720 G1 X355.362 Y4.344
N3725 G1 X354.502 Y3.922
N3730 G1 X354.072 Y3.712
N3735 G1 X354.028 Y3.689
N3740 G1 X353.81 Y3.531
N3745 G1 X353.642 Y3.321
N3750 G1 X353.536 Y3.074
N3755 G1 X353.5 Y2.807
N3760 G1 Y0.119
N3765 G3 X353.965 Y-0.444 I0.6 J0.021
N3770 G1 X354.056 Y-0.465 Z10.007
N3775 G1 X354.145 Y-0.486 Z10.029
N3780 G1 X354.23 Y-0.505 Z10.065
N3785 G1 X354.308 Y-0.524 Z10.115
N3790 G1 X354.378 Y-0.54 Z10.176
N3795 G1 X354.438 Y-0.553 Z10.247
N3800 G1 X354.486 Y-0.564 Z10.328
N3805 G1 X354.521 Y-0.573 Z10.415
N3810 G1 X354.542 Y-0.578 Z10.506
N3815 G1 X354.549 Y-0.579 Z10.6
N3820 G0 Z25
N3825 G0 X354.028 Y42.662
N3830 G0 Z11.2
N3835 G1 Z10.6 F2286
N3840 G1 X354.024 Y42.655 Z10.506
N3845 G1 X354.013 Y42.636 Z10.415
N3850 G1 X353.995 Y42.605 Z10.328
N3855 G1 X353.969 Y42.563 Z10.247
N3860 G1 X353.938 Y42.511 Z10.176
N3865 G1 X353.902 Y42.449 Z10.115
N3870 G1 X353.861 Y42.38 Z10.065
N3875 G1 X353.816 Y42.305 Z10.029
N3880 G1 X353.769 Y42.227 Z10.007
N3885 G1 X353.721 Y42.146 Z10
N3890 G3 X353.5 Y41.392 I1.36 J-0.809
N3895 G1 Y37.483
N3900 G1 X353.548 Y36.527
N3905 G1 X353.586 Y35.57
N3910 G1 X353.643 Y34.614
N3915 G1 X353.704 Y33.658
N3920 G1 X353.761 Y32.702
N3925 G1 X353.81 Y31.745
N3930 G1 X353.852 Y30.789
N3935 G1 X353.886 Y29.832
N3940 G1 X353.913 Y28.874
N3945 G1 X353.934 Y27.917
N3950 G1 X353.95 Y26.959
N3955 G1 X353.963 Y26.002
N3960 G1 X353.972 Y25.044
N3965 G1 X353.979 Y24.086
N3970 G1 X353.985 Y23.129
N3975 G1 X353.989 Y22.171
N3980 G1 X353.994 Y20.256
N3985 G1 X353.998 Y17.382
N3990 G1 X354 Y11.636
N3995 G1 Y9.721
N4000 G1 X353.836 Y8.777
N4005 G1 X353.632 Y8.421
N4010 G1 X353.559 Y8.264
N4015 G1 X353.515 Y8.096
N4020 G1 X353.5 Y7.924
N4025 G1 Y2.807
N4030 G3 X353.965 Y2.243 I0.6 J0.021
N4035 G1 X354.056 Y2.222 Z10.007
N4040 G1 X354.145 Y2.202 Z10.029
N4045 G1 X354.23 Y2.182 Z10.065
N4050 G1 X354.308 Y2.164 Z10.115
N4055 G1 X354.378 Y2.148 Z10.176
N4060 G1 X354.438 Y2.134 Z10.247
N4065 G1 X354.486 Y2.123 Z10.328
N4070 G1 X354.521 Y2.115 Z10.415
N4075 G1 X354.542 Y2.11 Z10.506
N4080 G1 X354.549 Y2.108 Z10.6
N4085 G0 Z25
N4090 G0 X354.028 Y38.752
N4095 G0 Z11.2
N4100 G1 Z10.6 F2286
N4105 G1 X354.024 Y38.746 Z10.506
N4110 G1 X354.013 Y38.727 Z10.415
N4115 G1 X353.995 Y38.696 Z10.328
N4120 G1 X353.969 Y38.654 Z10.247
N4125 G1 X353.938 Y38.601 Z10.176
N4130 G1 X353.902 Y38.54 Z10.115
N4135 G1 X353.861 Y38.471 Z10.065
N4140 G1 X353.816 Y38.396 Z10.029
N4145 G1 X353.769 Y38.317 Z10.007
N4150 G1 X353.721 Y38.237 Z10
N4155 G3 X353.5 Y37.483 I1.36 J-0.809
N4160 G1 Y7.924
N4165 G3 X353.965 Y7.36 I0.6 J0.021
N4170 G1 X354.056 Y7.339 Z10.007
N4175 G1 X354.145 Y7.319 Z10.029
N4180 G1 X354.23 Y7.299 Z10.065
N4185 G1 X354.308 Y7.281 Z10.115
N4190 G1 X354.378 Y7.265 Z10.176
N4195 G1 X354.438 Y7.251 Z10.247
N4200 G1 X354.486 Y7.24 Z10.328
N4205 G1 X354.521 Y7.232 Z10.415
N4210 G1 X354.542 Y7.227 Z10.506
N4215 G1 X354.549 Y7.226 Z10.6
N4220 G0 Z35
N4225 G28 G91 Z0
N4230 G90
N4235 G28 G91 X0 Y0
N4240 G90
N4245 M30
%
