%
(Small_Frame_New_Parameters)
(Machine)
(  vendor: CNC-Step)
(  model: High-Z S1400T)
(  description: Generic 3-axis)
(T1 D=6 CR=0 - ZMIN=-0.4 - flat end mill)
N10 G90 G94
N15 G17
N20 G21
N25 G28 G91 Z0
N30 G90

(2D Adaptive3)
N35 T1 M6
N40 S14400 M3
N45 G54
N48 G0 Z35
N50 G0 X28.71 Y53.97
N55 G0 G43 Z35 H1
N60 G0 Z25
N65 G0 Z17.6
N70 G1 Z17 F1828.8
N75 G1 Z15
N80 G3 X31.977 Y53.5 I3.801 J14.839
N85 G1 X32.302
N90 G1 X32.339 Y53.502
N95 G1 X32.459 Y53.599
N100 G1 X32.595 Y53.729
N105 G1 X32.747 Y53.899
N110 G1 X32.913 Y54.119
N115 G1 X33.093 Y54.4
N120 G1 X33.285 Y54.763
N125 G1 X33.488 Y55.234
N130 G1 X33.701 Y55.862
N135 G1 X33.922 Y56.741
N140 G1 X34.081 Y57.686
N145 G1 X34.305 Y58.108
N150 G1 X34.913 Y58.849
N155 G1 X35.706 Y59.386
N160 G1 X36.585 Y59.765
N165 G1 X37.506 Y60.03
N170 G1 X38.446 Y60.212
N175 G1 X39.395 Y60.337
N180 G1 X40.349 Y60.422
N185 G1 X41.305 Y60.479
N190 G1 X42.262 Y60.519
N195 G1 X43.219 Y60.545
N200 G1 X44.177 Y60.563
N205 G1 X45.135 Y60.575
N210 G1 X46.092 Y60.583
N215 G1 X47.05 Y60.589
N220 G1 X48.008 Y60.592
N225 G1 X49.923 Y60.597
N230 G1 X52.796 Y60.599
N235 G1 X64.288 Y60.6
N240 G1 X78.654
N245 G1 X129.412
N250 G1 X180.17
N255 G1 X230.928
N260 G1 X281.686
N265 G1 X332.444
N270 G1 X383.201
N275 G1 X412.411
N280 G1 X412.864 Y60.446
N285 G1 X413.667 Y59.923
N290 G1 X414.255 Y59.167
N295 G1 X414.674 Y58.306
N300 G1 X414.966 Y57.394
N305 G1 X415.168 Y56.458
N310 G1 X415.307 Y55.51
N315 G1 X415.381 Y54.762
N320 G1 X415.441 Y54.474
N325 G1 X415.559 Y54.205
N330 G1 X415.731 Y53.967
N335 G1 X415.949 Y53.769
N340 G1 X416.203 Y53.622
N345 G1 X416.482 Y53.531
N350 G1 X416.774 Y53.5
N355 G3 X417.338 Y53.965 I-0.021 J0.6
N360 G1 X417.359 Y54.056 Z15.007
N365 G1 X417.38 Y54.145 Z15.029
N370 G1 X417.399 Y54.23 Z15.065
N375 G1 X417.417 Y54.308 Z15.115
N380 G1 X417.433 Y54.378 Z15.176
N385 G1 X417.447 Y54.438 Z15.247
N390 G1 X417.458 Y54.486 Z15.328
N395 G1 X417.466 Y54.521 Z15.415
N400 G1 X417.471 Y54.542 Z15.506
N405 G1 X417.473 Y54.549 Z15.6
N410 G0 Z25
N415 G0 X31.033 Y54.028
N420 G0 Z16.2
N425 G1 Z15.6 F1828.8
N430 G1 X31.039 Y54.024 Z15.506
N435 G1 X31.058 Y54.013 Z15.415
N440 G1 X31.089 Y53.995 Z15.328
N445 G1 X31.131 Y53.969 Z15.247
N450 G1 X31.184 Y53.938 Z15.176
N455 G1 X31.245 Y53.902 Z15.115
N460 G1 X31.314 Y53.861 Z15.065
N465 G1 X31.389 Y53.816 Z15.029
N470 G1 X31.468 Y53.769 Z15.007
N475 G1 X31.548 Y53.721 Z15
N480 G3 X32.302 Y53.5 I0.809 J1.36
N485 G1 X33.118
N490 G1 X33.268 Y53.507
N495 G1 X33.433 Y53.571
N500 G1 X33.608 Y53.656
N505 G1 X33.811 Y53.774
N510 G1 X34.01 Y53.913
N515 G1 X34.229 Y54.094
N520 G1 X34.473 Y54.331
N525 G1 X35.104 Y55.051
N530 G1 X35.73 Y55.776
N535 G1 X36.477 Y56.375
N540 G1 X37.31 Y56.847
N545 G1 X38.197 Y57.209
N550 G1 X39.116 Y57.48
N555 G1 X40.052 Y57.681
N560 G1 X40.998 Y57.828
N565 G1 X41.95 Y57.935
N570 G1 X42.905 Y58.011
N575 G1 X43.861 Y58.066
N580 G1 X44.818 Y58.106
N585 G1 X45.775 Y58.133
N590 G1 X46.732 Y58.153
N595 G1 X47.69 Y58.167
N600 G1 X48.648 Y58.177
N605 G1 X49.605 Y58.184
N610 G1 X50.563 Y58.189
N615 G1 X51.521 Y58.192
N620 G1 X53.436 Y58.196
N625 G1 X56.309 Y58.199
N630 G1 X65.886 Y58.2
N635 G1 X82.167
N640 G1 X132.925
N645 G1 X183.683
N650 G1 X234.441
N655 G1 X285.199
N660 G1 X335.957
N665 G1 X386.715
N670 G1 X408.742
N675 G1 X409.22 Y58.199
N680 G1 X409.687 Y58.093
N685 G1 X410.561 Y57.701
N690 G1 X411.264 Y57.05
N695 G1 X411.802 Y56.258
N700 G1 X412.25 Y55.412
N705 G1 X412.692 Y54.562
N710 G1 X412.934 Y54.168
N715 G1 X413.107 Y53.941
N720 G1 X413.322 Y53.754
N725 G1 X413.571 Y53.615
N730 G1 X413.843 Y53.529
N735 G1 X414.127 Y53.5
N740 G1 X414.945
N745 G3 X415.509 Y53.965 I-0.021 J0.6
N750 G1 X415.53 Y54.056 Z15.007
N755 G1 X415.551 Y54.145 Z15.029
N760 G1 X415.57 Y54.23 Z15.065
N765 G1 X415.588 Y54.308 Z15.115
N770 G1 X415.604 Y54.378 Z15.176
N775 G1 X415.618 Y54.438 Z15.247
N780 G1 X415.629 Y54.486 Z15.328
N785 G1 X415.637 Y54.521 Z15.415
N790 G1 X415.642 Y54.542 Z15.506
N795 G1 X415.644 Y54.549 Z15.6
N800 G0 Z25
N805 G0 X31.849 Y54.028
N810 G0 Z16.2
N815 G1 Z15.6 F1828.8
N820 G1 X31.855 Y54.024 Z15.506
N825 G1 X31.874 Y54.013 Z15.415
N830 G1 X31.905 Y53.995 Z15.328
N835 G1 X31.948 Y53.969 Z15.247
N840 G1 X32 Y53.938 Z15.176
N845 G1 X32.062 Y53.902 Z15.115
N850 G1 X32.131 Y53.861 Z15.065
N855 G1 X32.205 Y53.816 Z15.029
N860 G1 X32.284 Y53.769 Z15.007
N865 G1 X32.365 Y53.721 Z15
N870 G3 X33.118 Y53.5 I0.809 J1.36
N875 G1 X34.424
N880 G1 X34.574 Y53.507
N885 G1 X34.803 Y53.539
N890 G1 X35.251 Y53.638
N895 G1 X36.167 Y53.918
N900 G1 X37.067 Y54.243
N905 G1 X37.975 Y54.548
N910 G1 X38.895 Y54.814
N915 G1 X39.827 Y55.035
N920 G1 X40.768 Y55.214
N925 G1 X41.715 Y55.356
N930 G1 X42.666 Y55.466
N935 G1 X43.62 Y55.551
N940 G1 X44.576 Y55.615
N945 G1 X45.532 Y55.664
N950 G1 X46.489 Y55.7
N955 G1 X47.447 Y55.727
N960 G1 X48.404 Y55.747
N965 G1 X49.362 Y55.761
N970 G1 X50.319 Y55.772
N975 G1 X51.277 Y55.78
N980 G1 X52.235 Y55.785
N985 G1 X53.192 Y55.79
N990 G1 X55.108 Y55.795
N995 G1 X57.981 Y55.798
N1000 G1 X64.685 Y55.8
N1005 G1 X84.796
N1010 G1 X135.554
N1015 G1 X186.312
N1020 G1 X237.07
N1025 G1 X287.828
N1030 G1 X338.586
N1035 G1 X389.344
N1040 G1 X406.582
N1045 G1 X407.515 Y55.584
N1050 G1 X408.353 Y55.119
N1055 G1 X409.096 Y54.515
N1060 G1 X409.735 Y53.895
N1065 G1 X409.945 Y53.727
N1070 G1 X410.183 Y53.603
N1075 G1 X410.441 Y53.526
N1080 G1 X410.709 Y53.5
N1085 G1 X414.127
N1090 G3 X414.691 Y53.965 I-0.021 J0.6
N1095 G1 X414.712 Y54.056 Z15.007
N1100 G1 X414.732 Y54.145 Z15.029
N1105 G1 X414.752 Y54.23 Z15.065
N1110 G1 X414.77 Y54.308 Z15.115
N1115 G1 X414.786 Y54.378 Z15.176
N1120 G1 X414.8 Y54.438 Z15.247
N1125 G1 X414.811 Y54.486 Z15.328
N1130 G1 X414.819 Y54.521 Z15.415
N1135 G1 X414.824 Y54.542 Z15.506
N1140 G1 X414.826 Y54.549 Z15.6
N1145 G0 Z25
N1150 G0 X33.154 Y54.028
N1155 G0 Z16.2
N1160 G1 Z15.6 F1828.8
N1165 G1 X33.161 Y54.024 Z15.506
N1170 G1 X33.18 Y54.013 Z15.415
N1175 G1 X33.211 Y53.995 Z15.328
N1180 G1 X33.253 Y53.969 Z15.247
N1185 G1 X33.305 Y53.938 Z15.176
N1190 G1 X33.367 Y53.902 Z15.115
N1195 G1 X33.436 Y53.861 Z15.065
N1200 G1 X33.511 Y53.816 Z15.029
N1205 G1 X33.589 Y53.769 Z15.007
N1210 G1 X33.67 Y53.721 Z15
N1215 G3 X34.424 Y53.5 I0.809 J1.36
N1220 G1 X410.709
N1225 G1 X410.801 Y53.51
N1230 G1 X410.891 Y53.535
N1235 G1 X410.955 Y53.572 Z15.005
N1240 G1 X411.017 Y53.608 Z15.018
N1245 G1 X411.078 Y53.644 Z15.041
N1250 G1 X411.128 Y53.705 Z15.079
N1255 G1 X411.174 Y53.762 Z15.129
N1260 G1 X411.215 Y53.812 Z15.188
N1265 G1 X411.235 Y53.865 Z15.259
N1270 G1 X411.251 Y53.908 Z15.337
N1275 G1 X411.263 Y53.939 Z15.421
N1280 G1 X411.271 Y53.958 Z15.509
N1285 G1 X411.273 Y53.965 Z15.6
N1290 G0 Z25
N1295 G0 X28.71 Y53.97
N1300 G0 Z12.6
N1305 G1 Z12 F1828.8
N1310 G1 Z10
N1315 G3 X31.977 Y53.5 I3.801 J14.839
N1320 G1 X32.302
N1325 G1 X32.339 Y53.502
N1330 G1 X32.459 Y53.599
N1335 G1 X32.595 Y53.729
N1340 G1 X32.747 Y53.899
N1345 G1 X32.913 Y54.119
N1350 G1 X33.093 Y54.4
N1355 G1 X33.285 Y54.763
N1360 G1 X33.488 Y55.234
N1365 G1 X33.701 Y55.862
N1370 G1 X33.922 Y56.741
N1375 G1 X34.081 Y57.686
N1380 G1 X34.305 Y58.108
N1385 G1 X34.913 Y58.849
N1390 G1 X35.706 Y59.386
N1395 G1 X36.585 Y59.765
N1400 G1 X37.506 Y60.03
N1405 G1 X38.446 Y60.212
N1410 G1 X39.395 Y60.337
N1415 G1 X40.349 Y60.422
N1420 G1 X41.305 Y60.479
N1425 G1 X42.262 Y60.519
N1430 G1 X43.219 Y60.545
N1435 G1 X44.177 Y60.563
N1440 G1 X45.135 Y60.575
N1445 G1 X46.092 Y60.583
N1450 G1 X47.05 Y60.589
N1455 G1 X48.008 Y60.592
N1460 G1 X49.923 Y60.597
N1465 G1 X52.796 Y60.599
N1470 G1 X64.288 Y60.6
N1475 G1 X78.654
N1480 G1 X129.412
N1485 G1 X180.17
N1490 G1 X230.928
N1495 G1 X281.686
N1500 G1 X332.444
N1505 G1 X383.201
N1510 G1 X412.411
N1515 G1 X412.864 Y60.446
N1520 G1 X413.667 Y59.923
N1525 G1 X414.255 Y59.167
N1530 G1 X414.674 Y58.306
N1535 G1 X414.966 Y57.394
N1540 G1 X415.168 Y56.458
N1545 G1 X415.307 Y55.51
N1550 G1 X415.381 Y54.762
N1555 G1 X415.441 Y54.474
N1560 G1 X415.559 Y54.205
N1565 G1 X415.731 Y53.967
N1570 G1 X415.949 Y53.769
N1575 G1 X416.203 Y53.622
N1580 G1 X416.482 Y53.531
N1585 G1 X416.774 Y53.5
N1590 G3 X417.338 Y53.965 I-0.021 J0.6
N1595 G1 X417.359 Y54.056 Z10.007
N1600 G1 X417.38 Y54.145 Z10.029
N1605 G1 X417.399 Y54.23 Z10.065
N1610 G1 X417.417 Y54.308 Z10.115
N1615 G1 X417.433 Y54.378 Z10.176
N1620 G1 X417.447 Y54.438 Z10.247
N1625 G1 X417.458 Y54.486 Z10.328
N1630 G1 X417.466 Y54.521 Z10.415
N1635 G1 X417.471 Y54.542 Z10.506
N1640 G1 X417.473 Y54.549 Z10.6
N1645 G0 Z25
N1650 G0 X31.033 Y54.028
N1655 G0 Z11.2
N1660 G1 Z10.6 F1828.8
N1665 G1 X31.039 Y54.024 Z10.506
N1670 G1 X31.058 Y54.013 Z10.415
N1675 G1 X31.089 Y53.995 Z10.328
N1680 G1 X31.131 Y53.969 Z10.247
N1685 G1 X31.184 Y53.938 Z10.176
N1690 G1 X31.245 Y53.902 Z10.115
N1695 G1 X31.314 Y53.861 Z10.065
N1700 G1 X31.389 Y53.816 Z10.029
N1705 G1 X31.468 Y53.769 Z10.007
N1710 G1 X31.548 Y53.721 Z10
N1715 G3 X32.302 Y53.5 I0.809 J1.36
N1720 G1 X33.118
N1725 G1 X33.268 Y53.507
N1730 G1 X33.433 Y53.571
N1735 G1 X33.608 Y53.656
N1740 G1 X33.811 Y53.774
N1745 G1 X34.01 Y53.913
N1750 G1 X34.229 Y54.094
N1755 G1 X34.473 Y54.331
N1760 G1 X35.104 Y55.051
N1765 G1 X35.73 Y55.776
N1770 G1 X36.477 Y56.375
N1775 G1 X37.31 Y56.847
N1780 G1 X38.197 Y57.209
N1785 G1 X39.116 Y57.48
N1790 G1 X40.052 Y57.681
N1795 G1 X40.998 Y57.828
N1800 G1 X41.95 Y57.935
N1805 G1 X42.905 Y58.011
N1810 G1 X43.861 Y58.066
N1815 G1 X44.818 Y58.106
N1820 G1 X45.775 Y58.133
N1825 G1 X46.732 Y58.153
N1830 G1 X47.69 Y58.167
N1835 G1 X48.648 Y58.177
N1840 G1 X49.605 Y58.184
N1845 G1 X50.563 Y58.189
N1850 G1 X51.521 Y58.192
N1855 G1 X53.436 Y58.196
N1860 G1 X56.309 Y58.199
N1865 G1 X65.886 Y58.2
N1870 G1 X82.167
N1875 G1 X132.925
N1880 G1 X183.683
N1885 G1 X234.441
N1890 G1 X285.199
N1895 G1 X335.957
N1900 G1 X386.715
N1905 G1 X408.742
N1910 G1 X409.22 Y58.199
N1915 G1 X409.687 Y58.093
N1920 G1 X410.561 Y57.701
N1925 G1 X411.264 Y57.05
N1930 G1 X411.802 Y56.258
N1935 G1 X412.25 Y55.412
N1940 G1 X412.692 Y54.562
N1945 G1 X412.934 Y54.168
N1950 G1 X413.107 Y53.941
N1955 G1 X413.322 Y53.754
N1960 G1 X413.571 Y53.615
N1965 G1 X413.843 Y53.529
N1970 G1 X414.127 Y53.5
N1975 G1 X414.945
N1980 G3 X415.509 Y53.965 I-0.021 J0.6
N1985 G1 X415.53 Y54.056 Z10.007
N1990 G1 X415.551 Y54.145 Z10.029
N1995 G1 X415.57 Y54.23 Z10.065
N2000 G1 X415.588 Y54.308 Z10.115
N2005 G1 X415.604 Y54.378 Z10.176
N2010 G1 X415.618 Y54.438 Z10.247
N2015 G1 X415.629 Y54.486 Z10.328
N2020 G1 X415.637 Y54.521 Z10.415
N2025 G1 X415.642 Y54.542 Z10.506
N2030 G1 X415.644 Y54.549 Z10.6
N2035 G0 Z25
N2040 G0 X31.849 Y54.028
N2045 G0 Z11.2
N2050 G1 Z10.6 F1828.8
N2055 G1 X31.855 Y54.024 Z10.506
N2060 G1 X31.874 Y54.013 Z10.415
N2065 G1 X31.905 Y53.995 Z10.328
N2070 G1 X31.948 Y53.969 Z10.247
N2075 G1 X32 Y53.938 Z10.176
N2080 G1 X32.062 Y53.902 Z10.115
N2085 G1 X32.131 Y53.861 Z10.065
N2090 G1 X32.205 Y53.816 Z10.029
N2095 G1 X32.284 Y53.769 Z10.007
N2100 G1 X32.365 Y53.721 Z10
N2105 G3 X33.118 Y53.5 I0.809 J1.36
N2110 G1 X34.424
N2115 G1 X34.574 Y53.507
N2120 G1 X34.803 Y53.539
N2125 G1 X35.251 Y53.638
N2130 G1 X36.167 Y53.918
N2135 G1 X37.067 Y54.243
N2140 G1 X37.975 Y54.548
N2145 G1 X38.895 Y54.814
N2150 G1 X39.827 Y55.035
N2155 G1 X40.768 Y55.214
N2160 G1 X41.715 Y55.356
N2165 G1 X42.666 Y55.466
N2170 G1 X43.62 Y55.551
N2175 G1 X44.576 Y55.615
N2180 G1 X45.532 Y55.664
N2185 G1 X46.489 Y55.7
N2190 G1 X47.447 Y55.727
N2195 G1 X48.404 Y55.747
N2200 G1 X49.362 Y55.761
N2205 G1 X50.319 Y55.772
N2210 G1 X51.277 Y55.78
N2215 G1 X52.235 Y55.785
N2220 G1 X53.192 Y55.79
N2225 G1 X55.108 Y55.795
N2230 G1 X57.981 Y55.798
N2235 G1 X64.685 Y55.8
N2240 G1 X84.796
N2245 G1 X135.554
N2250 G1 X186.312
N2255 G1 X237.07
N2260 G1 X287.828
N2265 G1 X338.586
N2270 G1 X389.344
N2275 G1 X406.582
N2280 G1 X407.515 Y55.584
N2285 G1 X408.353 Y55.119
N2290 G1 X409.096 Y54.515
N2295 G1 X409.735 Y53.895
N2300 G1 X409.945 Y53.727
N2305 G1 X410.183 Y53.603
N2310 G1 X410.441 Y53.526
N2315 G1 X410.709 Y53.5
N2320 G1 X414.127
N2325 G3 X414.691 Y53.965 I-0.021 J0.6
N2330 G1 X414.712 Y54.056 Z10.007
N2335 G1 X414.732 Y54.145 Z10.029
N2340 G1 X414.752 Y54.23 Z10.065
N2345 G1 X414.77 Y54.308 Z10.115
N2350 G1 X414.786 Y54.378 Z10.176
N2355 G1 X414.8 Y54.438 Z10.247
N2360 G1 X414.811 Y54.486 Z10.328
N2365 G1 X414.819 Y54.521 Z10.415
N2370 G1 X414.824 Y54.542 Z10.506
N2375 G1 X414.826 Y54.549 Z10.6
N2380 G0 Z25
N2385 G0 X33.154 Y54.028
N2390 G0 Z11.2
N2395 G1 Z10.6 F1828.8
N2400 G1 X33.161 Y54.024 Z10.506
N2405 G1 X33.18 Y54.013 Z10.415
N2410 G1 X33.211 Y53.995 Z10.328
N2415 G1 X33.253 Y53.969 Z10.247
N2420 G1 X33.305 Y53.938 Z10.176
N2425 G1 X33.367 Y53.902 Z10.115
N2430 G1 X33.436 Y53.861 Z10.065
N2435 G1 X33.511 Y53.816 Z10.029
N2440 G1 X33.589 Y53.769 Z10.007
N2445 G1 X33.67 Y53.721 Z10
N2450 G3 X34.424 Y53.5 I0.809 J1.36
N2455 G1 X410.709
N2460 G3 X411.273 Y53.965 I-0.021 J0.6
N2465 G1 X411.294 Y54.056 Z10.007
N2470 G1 X411.315 Y54.145 Z10.029
N2475 G1 X411.334 Y54.23 Z10.065
N2480 G1 X411.352 Y54.308 Z10.115
N2485 G1 X411.368 Y54.378 Z10.176
N2490 G1 X411.382 Y54.438 Z10.247
N2495 G1 X411.393 Y54.486 Z10.328
N2500 G1 X411.401 Y54.521 Z10.415
N2505 G1 X411.406 Y54.542 Z10.506
N2510 G1 X411.408 Y54.549 Z10.6
N2515 G0 Z35
N2520 G0 X428.71 Y53.97
N2525 G0 Z25
N2530 G0 Z17.6
N2535 G1 Z17 F1828.8
N2540 G1 Z15
N2545 G3 X431.977 Y53.5 I3.801 J14.839
N2550 G1 X432.302
N2555 G1 X432.339 Y53.502
N2560 G1 X432.459 Y53.599
N2565 G1 X432.595 Y53.729
N2570 G1 X432.747 Y53.899
N2575 G1 X432.913 Y54.119
N2580 G1 X433.093 Y54.4
N2585 G1 X433.285 Y54.763
N2590 G1 X433.488 Y55.234
N2595 G1 X433.701 Y55.862
N2600 G1 X433.922 Y56.741
N2605 G1 X434.081 Y57.686
N2610 G1 X434.305 Y58.108
N2615 G1 X434.913 Y58.849
N2620 G1 X435.706 Y59.386
N2625 G1 X436.585 Y59.765
N2630 G1 X437.506 Y60.03
N2635 G1 X438.446 Y60.212
N2640 G1 X439.395 Y60.337
N2645 G1 X440.349 Y60.422
N2650 G1 X441.305 Y60.479
N2655 G1 X442.262 Y60.519
N2660 G1 X443.219 Y60.545
N2665 G1 X444.177 Y60.563
N2670 G1 X445.135 Y60.575
N2675 G1 X446.092 Y60.583
N2680 G1 X447.05 Y60.589
N2685 G1 X448.008 Y60.592
N2690 G1 X449.923 Y60.597
N2695 G1 X452.796 Y60.599
N2700 G1 X464.288 Y60.6
N2705 G1 X478.654
N2710 G1 X529.412
N2715 G1 X580.17
N2720 G1 X630.928
N2725 G1 X681.686
N2730 G1 X732.443
N2735 G1 X783.201
N2740 G1 X812.411
N2745 G1 X812.864 Y60.446
N2750 G1 X813.667 Y59.923
N2755 G1 X814.255 Y59.167
N2760 G1 X814.674 Y58.306
N2765 G1 X814.966 Y57.394
N2770 G1 X815.168 Y56.458
N2775 G1 X815.307 Y55.51
N2780 G1 X815.381 Y54.762
N2785 G1 X815.441 Y54.474
N2790 G1 X815.559 Y54.205
N2795 G1 X815.731 Y53.967
N2800 G1 X815.949 Y53.769
N2805 G1 X816.203 Y53.622
N2810 G1 X816.482 Y53.531
N2815 G1 X816.774 Y53.5
N2820 G3 X817.338 Y53.965 I-0.021 J0.6
N2825 G1 X817.359 Y54.056 Z15.007
N2830 G1 X817.38 Y54.145 Z15.029
N2835 G1 X817.399 Y54.23 Z15.065
N2840 G1 X817.417 Y54.308 Z15.115
N2845 G1 X817.433 Y54.378 Z15.176
N2850 G1 X817.447 Y54.438 Z15.247
N2855 G1 X817.458 Y54.486 Z15.328
N2860 G1 X817.466 Y54.521 Z15.415
N2865 G1 X817.471 Y54.542 Z15.506
N2870 G1 X817.473 Y54.549 Z15.6
N2875 G0 Z25
N2880 G0 X431.033 Y54.028
N2885 G0 Z16.2
N2890 G1 Z15.6 F1828.8
N2895 G1 X431.039 Y54.024 Z15.506
N2900 G1 X431.058 Y54.013 Z15.415
N2905 G1 X431.089 Y53.995 Z15.328
N2910 G1 X431.131 Y53.969 Z15.247
N2915 G1 X431.184 Y53.938 Z15.176
N2920 G1 X431.245 Y53.902 Z15.115
N2925 G1 X431.314 Y53.861 Z15.065
N2930 G1 X431.389 Y53.816 Z15.029
N2935 G1 X431.468 Y53.769 Z15.007
N2940 G1 X431.548 Y53.721 Z15
N2945 G3 X432.302 Y53.5 I0.809 J1.36
N2950 G1 X433.118
N2955 G1 X433.268 Y53.507
N2960 G1 X433.433 Y53.571
N2965 G1 X433.608 Y53.656
N2970 G1 X433.811 Y53.774
N2975 G1 X434.01 Y53.913
N2980 G1 X434.229 Y54.094
N2985 G1 X434.473 Y54.331
N2990 G1 X435.104 Y55.051
N2995 G1 X435.73 Y55.776
N3000 G1 X436.477 Y56.375
N3005 G1 X437.31 Y56.847
N3010 G1 X438.197 Y57.209
N3015 G1 X439.116 Y57.48
N3020 G1 X440.052 Y57.681
N3025 G1 X440.998 Y57.828
N3030 G1 X441.95 Y57.935
N3035 G1 X442.905 Y58.011
N3040 G1 X443.861 Y58.066
N3045 G1 X444.818 Y58.106
N3050 G1 X445.775 Y58.133
N3055 G1 X446.732 Y58.153
N3060 G1 X447.69 Y58.167
N3065 G1 X448.648 Y58.177
N3070 G1 X449.605 Y58.184
N3075 G1 X450.563 Y58.189
N3080 G1 X451.521 Y58.192
N3085 G1 X453.436 Y58.196
N3090 G1 X456.309 Y58.199
N3095 G1 X465.886 Y58.2
N3100 G1 X482.167
N3105 G1 X532.925
N3110 G1 X583.683
N3115 G1 X634.441
N3120 G1 X685.199
N3125 G1 X735.957
N3130 G1 X786.715
N3135 G1 X808.742
N3140 G1 X809.22 Y58.199
N3145 G1 X809.687 Y58.093
N3150 G1 X810.561 Y57.701
N3155 G1 X811.264 Y57.05
N3160 G1 X811.802 Y56.258
N3165 G1 X812.25 Y55.412
N3170 G1 X812.692 Y54.562
N3175 G1 X812.933 Y54.168
N3180 G1 X813.107 Y53.941
N3185 G1 X813.322 Y53.754
N3190 G1 X813.571 Y53.615
N3195 G1 X813.843 Y53.529
N3200 G1 X814.127 Y53.5
N3205 G1 X814.945
N3210 G3 X815.509 Y53.965 I-0.021 J0.6
N3215 G1 X815.53 Y54.056 Z15.007
N3220 G1 X815.551 Y54.145 Z15.029
N3225 G1 X815.57 Y54.23 Z15.065
N3230 G1 X815.588 Y54.308 Z15.115
N3235 G1 X815.604 Y54.378 Z15.176
N3240 G1 X815.618 Y54.438 Z15.247
N3245 G1 X815.629 Y54.486 Z15.328
N3250 G1 X815.637 Y54.521 Z15.415
N3255 G1 X815.642 Y54.542 Z15.506
N3260 G1 X815.644 Y54.549 Z15.6
N3265 G0 Z25
N3270 G0 X431.849 Y54.028
N3275 G0 Z16.2
N3280 G1 Z15.6 F1828.8
N3285 G1 X431.855 Y54.024 Z15.506
N3290 G1 X431.874 Y54.013 Z15.415
N3295 G1 X431.905 Y53.995 Z15.328
N3300 G1 X431.948 Y53.969 Z15.247
N3305 G1 X432 Y53.938 Z15.176
N3310 G1 X432.062 Y53.902 Z15.115
N3315 G1 X432.131 Y53.861 Z15.065
N3320 G1 X432.205 Y53.816 Z15.029
N3325 G1 X432.284 Y53.769 Z15.007
N3330 G1 X432.365 Y53.721 Z15
N3335 G3 X433.118 Y53.5 I0.809 J1.36
N3340 G1 X434.424
N3345 G1 X434.574 Y53.507
N3350 G1 X434.803 Y53.539
N3355 G1 X435.251 Y53.638
N3360 G1 X436.167 Y53.918
N3365 G1 X437.067 Y54.243
N3370 G1 X437.975 Y54.548
N3375 G1 X438.895 Y54.814
N3380 G1 X439.827 Y55.035
N3385 G1 X440.768 Y55.214
N3390 G1 X441.715 Y55.356
N3395 G1 X442.666 Y55.466
N3400 G1 X443.62 Y55.551
N3405 G1 X444.576 Y55.615
N3410 G1 X445.532 Y55.664
N3415 G1 X446.489 Y55.7
N3420 G1 X447.447 Y55.727
N3425 G1 X448.404 Y55.747
N3430 G1 X449.362 Y55.761
N3435 G1 X450.319 Y55.772
N3440 G1 X451.277 Y55.78
N3445 G1 X452.235 Y55.785
N3450 G1 X453.192 Y55.79
N3455 G1 X455.108 Y55.795
N3460 G1 X457.981 Y55.798
N3465 G1 X464.685 Y55.8
N3470 G1 X484.796
N3475 G1 X535.554
N3480 G1 X586.312
N3485 G1 X637.07
N3490 G1 X687.828
N3495 G1 X738.586
N3500 G1 X789.344
N3505 G1 X806.582
N3510 G1 X807.515 Y55.584
N3515 G1 X808.353 Y55.119
N3520 G1 X809.096 Y54.515
N3525 G1 X809.735 Y53.895
N3530 G1 X809.945 Y53.727
N3535 G1 X810.183 Y53.603
N3540 G1 X810.441 Y53.526
N3545 G1 X810.709 Y53.5
N3550 G1 X814.127
N3555 G3 X814.691 Y53.965 I-0.021 J0.6
N3560 G1 X814.712 Y54.056 Z15.007
N3565 G1 X814.732 Y54.145 Z15.029
N3570 G1 X814.752 Y54.23 Z15.065
N3575 G1 X814.77 Y54.308 Z15.115
N3580 G1 X814.786 Y54.378 Z15.176
N3585 G1 X814.8 Y54.438 Z15.247
N3590 G1 X814.811 Y54.486 Z15.328
N3595 G1 X814.819 Y54.521 Z15.415
N3600 G1 X814.824 Y54.542 Z15.506
N3605 G1 X814.826 Y54.549 Z15.6
N3610 G0 Z25
N3615 G0 X433.154 Y54.028
N3620 G0 Z16.2
N3625 G1 Z15.6 F1828.8
N3630 G1 X433.161 Y54.024 Z15.506
N3635 G1 X433.18 Y54.013 Z15.415
N3640 G1 X433.211 Y53.995 Z15.328
N3645 G1 X433.253 Y53.969 Z15.247
N3650 G1 X433.305 Y53.938 Z15.176
N3655 G1 X433.367 Y53.902 Z15.115
N3660 G1 X433.436 Y53.861 Z15.065
N3665 G1 X433.511 Y53.816 Z15.029
N3670 G1 X433.589 Y53.769 Z15.007
N3675 G1 X433.67 Y53.721 Z15
N3680 G3 X434.424 Y53.5 I0.809 J1.36
N3685 G1 X810.709
N3690 G1 X810.801 Y53.51
N3695 G1 X810.891 Y53.535
N3700 G1 X810.954 Y53.572 Z15.005
N3705 G1 X811.017 Y53.608 Z15.018
N3710 G1 X811.078 Y53.644 Z15.041
N3715 G1 X811.128 Y53.705 Z15.079
N3720 G1 X811.174 Y53.762 Z15.129
N3725 G1 X811.215 Y53.812 Z15.188
N3730 G1 X811.235 Y53.865 Z15.259
N3735 G1 X811.251 Y53.908 Z15.337
N3740 G1 X811.263 Y53.939 Z15.421
N3745 G1 X811.271 Y53.958 Z15.509
N3750 G1 X811.273 Y53.965 Z15.6
N3755 G0 Z25
N3760 G0 X428.71 Y53.97
N3765 G0 Z12.6
N3770 G1 Z12 F1828.8
N3775 G1 Z10
N3780 G3 X431.977 Y53.5 I3.801 J14.839
N3785 G1 X432.302
N3790 G1 X432.339 Y53.502
N3795 G1 X432.459 Y53.599
N3800 G1 X432.595 Y53.729
N3805 G1 X432.747 Y53.899
N3810 G1 X432.913 Y54.119
N3815 G1 X433.093 Y54.4
N3820 G1 X433.285 Y54.763
N3825 G1 X433.488 Y55.234
N3830 G1 X433.701 Y55.862
N3835 G1 X433.922 Y56.741
N3840 G1 X434.081 Y57.686
N3845 G1 X434.305 Y58.108
N3850 G1 X434.913 Y58.849
N3855 G1 X435.706 Y59.386
N3860 G1 X436.585 Y59.765
N3865 G1 X437.506 Y60.03
N3870 G1 X438.446 Y60.212
N3875 G1 X439.395 Y60.337
N3880 G1 X440.349 Y60.422
N3885 G1 X441.305 Y60.479
N3890 G1 X442.262 Y60.519
N3895 G1 X443.219 Y60.545
N3900 G1 X444.177 Y60.563
N3905 G1 X445.135 Y60.575
N3910 G1 X446.092 Y60.583
N3915 G1 X447.05 Y60.589
N3920 G1 X448.008 Y60.592
N3925 G1 X449.923 Y60.597
N3930 G1 X452.796 Y60.599
N3935 G1 X464.288 Y60.6
N3940 G1 X478.654
N3945 G1 X529.412
N3950 G1 X580.17
N3955 G1 X630.928
N3960 G1 X681.686
N3965 G1 X732.443
N3970 G1 X783.201
N3975 G1 X812.411
N3980 G1 X812.864 Y60.446
N3985 G1 X813.667 Y59.923
N3990 G1 X814.255 Y59.167
N3995 G1 X814.674 Y58.306
N4000 G1 X814.966 Y57.394
N4005 G1 X815.168 Y56.458
N4010 G1 X815.307 Y55.51
N4015 G1 X815.381 Y54.762
N4020 G1 X815.441 Y54.474
N4025 G1 X815.559 Y54.205
N4030 G1 X815.731 Y53.967
N4035 G1 X815.949 Y53.769
N4040 G1 X816.203 Y53.622
N4045 G1 X816.482 Y53.531
N4050 G1 X816.774 Y53.5
N4055 G3 X817.338 Y53.965 I-0.021 J0.6
N4060 G1 X817.359 Y54.056 Z10.007
N4065 G1 X817.38 Y54.145 Z10.029
N4070 G1 X817.399 Y54.23 Z10.065
N4075 G1 X817.417 Y54.308 Z10.115
N4080 G1 X817.433 Y54.378 Z10.176
N4085 G1 X817.447 Y54.438 Z10.247
N4090 G1 X817.458 Y54.486 Z10.328
N4095 G1 X817.466 Y54.521 Z10.415
N4100 G1 X817.471 Y54.542 Z10.506
N4105 G1 X817.473 Y54.549 Z10.6
N4110 G0 Z25
N4115 G0 X431.033 Y54.028
N4120 G0 Z11.2
N4125 G1 Z10.6 F1828.8
N4130 G1 X431.039 Y54.024 Z10.506
N4135 G1 X431.058 Y54.013 Z10.415
N4140 G1 X431.089 Y53.995 Z10.328
N4145 G1 X431.131 Y53.969 Z10.247
N4150 G1 X431.184 Y53.938 Z10.176
N4155 G1 X431.245 Y53.902 Z10.115
N4160 G1 X431.314 Y53.861 Z10.065
N4165 G1 X431.389 Y53.816 Z10.029
N4170 G1 X431.468 Y53.769 Z10.007
N4175 G1 X431.548 Y53.721 Z10
N4180 G3 X432.302 Y53.5 I0.809 J1.36
N4185 G1 X433.118
N4190 G1 X433.268 Y53.507
N4195 G1 X433.433 Y53.571
N4200 G1 X433.608 Y53.656
N4205 G1 X433.811 Y53.774
N4210 G1 X434.01 Y53.913
N4215 G1 X434.229 Y54.094
N4220 G1 X434.473 Y54.331
N4225 G1 X435.104 Y55.051
N4230 G1 X435.73 Y55.776
N4235 G1 X436.477 Y56.375
N4240 G1 X437.31 Y56.847
N4245 G1 X438.197 Y57.209
N4250 G1 X439.116 Y57.48
N4255 G1 X440.052 Y57.681
N4260 G1 X440.998 Y57.828
N4265 G1 X441.95 Y57.935
N4270 G1 X442.905 Y58.011
N4275 G1 X443.861 Y58.066
N4280 G1 X444.818 Y58.106
N4285 G1 X445.775 Y58.133
N4290 G1 X446.732 Y58.153
N4295 G1 X447.69 Y58.167
N4300 G1 X448.648 Y58.177
N4305 G1 X449.605 Y58.184
N4310 G1 X450.563 Y58.189
N4315 G1 X451.521 Y58.192
N4320 G1 X453.436 Y58.196
N4325 G1 X456.309 Y58.199
N4330 G1 X465.886 Y58.2
N4335 G1 X482.167
N4340 G1 X532.925
N4345 G1 X583.683
N4350 G1 X634.441
N4355 G1 X685.199
N4360 G1 X735.957
N4365 G1 X786.715
N4370 G1 X808.742
N4375 G1 X809.22 Y58.199
N4380 G1 X809.687 Y58.093
N4385 G1 X810.561 Y57.701
N4390 G1 X811.264 Y57.05
N4395 G1 X811.802 Y56.258
N4400 G1 X812.25 Y55.412
N4405 G1 X812.692 Y54.562
N4410 G1 X812.933 Y54.168
N4415 G1 X813.107 Y53.941
N4420 G1 X813.322 Y53.754
N4425 G1 X813.571 Y53.615
N4430 G1 X813.843 Y53.529
N4435 G1 X814.127 Y53.5
N4440 G1 X814.945
N4445 G3 X815.509 Y53.965 I-0.021 J0.6
N4450 G1 X815.53 Y54.056 Z10.007
N4455 G1 X815.551 Y54.145 Z10.029
N4460 G1 X815.57 Y54.23 Z10.065
N4465 G1 X815.588 Y54.308 Z10.115
N4470 G1 X815.604 Y54.378 Z10.176
N4475 G1 X815.618 Y54.438 Z10.247
N4480 G1 X815.629 Y54.486 Z10.328
N4485 G1 X815.637 Y54.521 Z10.415
N4490 G1 X815.642 Y54.542 Z10.506
N4495 G1 X815.644 Y54.549 Z10.6
N4500 G0 Z25
N4505 G0 X431.849 Y54.028
N4510 G0 Z11.2
N4515 G1 Z10.6 F1828.8
N4520 G1 X431.855 Y54.024 Z10.506
N4525 G1 X431.874 Y54.013 Z10.415
N4530 G1 X431.905 Y53.995 Z10.328
N4535 G1 X431.948 Y53.969 Z10.247
N4540 G1 X432 Y53.938 Z10.176
N4545 G1 X432.062 Y53.902 Z10.115
N4550 G1 X432.131 Y53.861 Z10.065
N4555 G1 X432.205 Y53.816 Z10.029
N4560 G1 X432.284 Y53.769 Z10.007
N4565 G1 X432.365 Y53.721 Z10
N4570 G3 X433.118 Y53.5 I0.809 J1.36
N4575 G1 X434.424
N4580 G1 X434.574 Y53.507
N4585 G1 X434.803 Y53.539
N4590 G1 X435.251 Y53.638
N4595 G1 X436.167 Y53.918
N4600 G1 X437.067 Y54.243
N4605 G1 X437.975 Y54.548
N4610 G1 X438.895 Y54.814
N4615 G1 X439.827 Y55.035
N4620 G1 X440.768 Y55.214
N4625 G1 X441.715 Y55.356
N4630 G1 X442.666 Y55.466
N4635 G1 X443.62 Y55.551
N4640 G1 X444.576 Y55.615
N4645 G1 X445.532 Y55.664
N4650 G1 X446.489 Y55.7
N4655 G1 X447.447 Y55.727
N4660 G1 X448.404 Y55.747
N4665 G1 X449.362 Y55.761
N4670 G1 X450.319 Y55.772
N4675 G1 X451.277 Y55.78
N4680 G1 X452.235 Y55.785
N4685 G1 X453.192 Y55.79
N4690 G1 X455.108 Y55.795
N4695 G1 X457.981 Y55.798
N4700 G1 X464.685 Y55.8
N4705 G1 X484.796
N4710 G1 X535.554
N4715 G1 X586.312
N4720 G1 X637.07
N4725 G1 X687.828
N4730 G1 X738.586
N4735 G1 X789.344
N4740 G1 X806.582
N4745 G1 X807.515 Y55.584
N4750 G1 X808.353 Y55.119
N4755 G1 X809.096 Y54.515
N4760 G1 X809.735 Y53.895
N4765 G1 X809.945 Y53.727
N4770 G1 X810.183 Y53.603
N4775 G1 X810.441 Y53.526
N4780 G1 X810.709 Y53.5
N4785 G1 X814.127
N4790 G3 X814.691 Y53.965 I-0.021 J0.6
N4795 G1 X814.712 Y54.056 Z10.007
N4800 G1 X814.732 Y54.145 Z10.029
N4805 G1 X814.752 Y54.23 Z10.065
N4810 G1 X814.77 Y54.308 Z10.115
N4815 G1 X814.786 Y54.378 Z10.176
N4820 G1 X814.8 Y54.438 Z10.247
N4825 G1 X814.811 Y54.486 Z10.328
N4830 G1 X814.819 Y54.521 Z10.415
N4835 G1 X814.824 Y54.542 Z10.506
N4840 G1 X814.826 Y54.549 Z10.6
N4845 G0 Z25
N4850 G0 X433.154 Y54.028
N4855 G0 Z11.2
N4860 G1 Z10.6 F1828.8
N4865 G1 X433.161 Y54.024 Z10.506
N4870 G1 X433.18 Y54.013 Z10.415
N4875 G1 X433.211 Y53.995 Z10.328
N4880 G1 X433.253 Y53.969 Z10.247
N4885 G1 X433.305 Y53.938 Z10.176
N4890 G1 X433.367 Y53.902 Z10.115
N4895 G1 X433.436 Y53.861 Z10.065
N4900 G1 X433.511 Y53.816 Z10.029
N4905 G1 X433.589 Y53.769 Z10.007
N4910 G1 X433.67 Y53.721 Z10
N4915 G3 X434.424 Y53.5 I0.809 J1.36
N4920 G1 X810.709
N4925 G3 X811.273 Y53.965 I-0.021 J0.6
N4930 G1 X811.294 Y54.056 Z10.007
N4935 G1 X811.315 Y54.145 Z10.029
N4940 G1 X811.334 Y54.23 Z10.065
N4945 G1 X811.352 Y54.308 Z10.115
N4950 G1 X811.368 Y54.378 Z10.176
N4955 G1 X811.382 Y54.438 Z10.247
N4960 G1 X811.393 Y54.486 Z10.328
N4965 G1 X811.401 Y54.521 Z10.415
N4970 G1 X811.406 Y54.542 Z10.506
N4975 G1 X811.408 Y54.549 Z10.6
N4980 G0 Z35
N4985 G0 X828.71 Y53.97
N4990 G0 Z25
N4995 G0 Z17.6
N5000 G1 Z17 F1828.8
N5005 G1 Z15
N5010 G3 X831.977 Y53.5 I3.801 J14.839
N5015 G1 X832.302
N5020 G1 X832.339 Y53.502
N5025 G1 X832.459 Y53.599
N5030 G1 X832.595 Y53.729
N5035 G1 X832.747 Y53.899
N5040 G1 X832.913 Y54.119
N5045 G1 X833.093 Y54.4
N5050 G1 X833.285 Y54.763
N5055 G1 X833.488 Y55.234
N5060 G1 X833.701 Y55.862
N5065 G1 X833.922 Y56.741
N5070 G1 X834.081 Y57.686
N5075 G1 X834.305 Y58.108
N5080 G1 X834.913 Y58.849
N5085 G1 X835.706 Y59.386
N5090 G1 X836.585 Y59.765
N5095 G1 X837.506 Y60.03
N5100 G1 X838.446 Y60.212
N5105 G1 X839.395 Y60.337
N5110 G1 X840.349 Y60.422
N5115 G1 X841.305 Y60.479
N5120 G1 X842.262 Y60.519
N5125 G1 X843.219 Y60.545
N5130 G1 X844.177 Y60.563
N5135 G1 X845.135 Y60.575
N5140 G1 X846.092 Y60.583
N5145 G1 X847.05 Y60.589
N5150 G1 X848.008 Y60.592
N5155 G1 X849.923 Y60.597
N5160 G1 X852.796 Y60.599
N5165 G1 X864.288 Y60.6
N5170 G1 X878.654
N5175 G1 X929.412
N5180 G1 X980.17
N5185 G1 X1030.928
N5190 G1 X1081.686
N5195 G1 X1132.443
N5200 G1 X1183.201
N5205 G1 X1212.411
N5210 G1 X1212.864 Y60.446
N5215 G1 X1213.667 Y59.923
N5220 G1 X1214.255 Y59.167
N5225 G1 X1214.674 Y58.306
N5230 G1 X1214.966 Y57.394
N5235 G1 X1215.168 Y56.458
N5240 G1 X1215.307 Y55.51
N5245 G1 X1215.381 Y54.762
N5250 G1 X1215.441 Y54.474
N5255 G1 X1215.559 Y54.205
N5260 G1 X1215.731 Y53.967
N5265 G1 X1215.949 Y53.769
N5270 G1 X1216.203 Y53.622
N5275 G1 X1216.482 Y53.531
N5280 G1 X1216.774 Y53.5
N5285 G3 X1217.338 Y53.965 I-0.021 J0.6
N5290 G1 X1217.359 Y54.056 Z15.007
N5295 G1 X1217.38 Y54.145 Z15.029
N5300 G1 X1217.399 Y54.23 Z15.065
N5305 G1 X1217.417 Y54.308 Z15.115
N5310 G1 X1217.433 Y54.378 Z15.176
N5315 G1 X1217.447 Y54.438 Z15.247
N5320 G1 X1217.458 Y54.486 Z15.328
N5325 G1 X1217.466 Y54.521 Z15.415
N5330 G1 X1217.471 Y54.542 Z15.506
N5335 G1 X1217.473 Y54.549 Z15.6
N5340 G0 Z25
N5345 G0 X831.033 Y54.028
N5350 G0 Z16.2
N5355 G1 Z15.6 F1828.8
N5360 G1 X831.039 Y54.024 Z15.506
N5365 G1 X831.058 Y54.013 Z15.415
N5370 G1 X831.089 Y53.995 Z15.328
N5375 G1 X831.131 Y53.969 Z15.247
N5380 G1 X831.184 Y53.938 Z15.176
N5385 G1 X831.245 Y53.902 Z15.115
N5390 G1 X831.314 Y53.861 Z15.065
N5395 G1 X831.389 Y53.816 Z15.029
N5400 G1 X831.468 Y53.769 Z15.007
N5405 G1 X831.548 Y53.721 Z15
N5410 G3 X832.302 Y53.5 I0.809 J1.36
N5415 G1 X833.118
N5420 G1 X833.268 Y53.507
N5425 G1 X833.433 Y53.571
N5430 G1 X833.608 Y53.656
N5435 G1 X833.811 Y53.774
N5440 G1 X834.01 Y53.913
N5445 G1 X834.229 Y54.094
N5450 G1 X834.473 Y54.331
N5455 G1 X835.104 Y55.051
N5460 G1 X835.73 Y55.776
N5465 G1 X836.477 Y56.375
N5470 G1 X837.31 Y56.847
N5475 G1 X838.197 Y57.209
N5480 G1 X839.116 Y57.48
N5485 G1 X840.052 Y57.681
N5490 G1 X840.998 Y57.828
N5495 G1 X841.95 Y57.935
N5500 G1 X842.905 Y58.011
N5505 G1 X843.861 Y58.066
N5510 G1 X844.818 Y58.106
N5515 G1 X845.775 Y58.133
N5520 G1 X846.732 Y58.153
N5525 G1 X847.69 Y58.167
N5530 G1 X848.648 Y58.177
N5535 G1 X849.605 Y58.184
N5540 G1 X850.563 Y58.189
N5545 G1 X851.521 Y58.192
N5550 G1 X853.436 Y58.196
N5555 G1 X856.309 Y58.199
N5560 G1 X865.886 Y58.2
N5565 G1 X882.167
N5570 G1 X932.925
N5575 G1 X983.683
N5580 G1 X1034.441
N5585 G1 X1085.199
N5590 G1 X1135.957
N5595 G1 X1186.715
N5600 G1 X1208.742
N5605 G1 X1209.22 Y58.199
N5610 G1 X1209.687 Y58.093
N5615 G1 X1210.561 Y57.701
N5620 G1 X1211.264 Y57.05
N5625 G1 X1211.802 Y56.258
N5630 G1 X1212.25 Y55.412
N5635 G1 X1212.692 Y54.562
N5640 G1 X1212.933 Y54.168
N5645 G1 X1213.107 Y53.941
N5650 G1 X1213.322 Y53.754
N5655 G1 X1213.571 Y53.615
N5660 G1 X1213.843 Y53.529
N5665 G1 X1214.127 Y53.5
N5670 G1 X1214.945
N5675 G3 X1215.509 Y53.965 I-0.021 J0.6
N5680 G1 X1215.53 Y54.056 Z15.007
N5685 G1 X1215.551 Y54.145 Z15.029
N5690 G1 X1215.57 Y54.23 Z15.065
N5695 G1 X1215.588 Y54.308 Z15.115
N5700 G1 X1215.604 Y54.378 Z15.176
N5705 G1 X1215.618 Y54.438 Z15.247
N5710 G1 X1215.629 Y54.486 Z15.328
N5715 G1 X1215.637 Y54.521 Z15.415
N5720 G1 X1215.642 Y54.542 Z15.506
N5725 G1 X1215.644 Y54.549 Z15.6
N5730 G0 Z25
N5735 G0 X831.849 Y54.028
N5740 G0 Z16.2
N5745 G1 Z15.6 F1828.8
N5750 G1 X831.855 Y54.024 Z15.506
N5755 G1 X831.874 Y54.013 Z15.415
N5760 G1 X831.905 Y53.995 Z15.328
N5765 G1 X831.948 Y53.969 Z15.247
N5770 G1 X832 Y53.938 Z15.176
N5775 G1 X832.062 Y53.902 Z15.115
N5780 G1 X832.131 Y53.861 Z15.065
N5785 G1 X832.205 Y53.816 Z15.029
N5790 G1 X832.284 Y53.769 Z15.007
N5795 G1 X832.365 Y53.721 Z15
N5800 G3 X833.118 Y53.5 I0.809 J1.36
N5805 G1 X834.424
N5810 G1 X834.574 Y53.507
N5815 G1 X834.803 Y53.539
N5820 G1 X835.251 Y53.638
N5825 G1 X836.167 Y53.918
N5830 G1 X837.067 Y54.243
N5835 G1 X837.975 Y54.548
N5840 G1 X838.895 Y54.814
N5845 G1 X839.827 Y55.035
N5850 G1 X840.768 Y55.214
N5855 G1 X841.715 Y55.356
N5860 G1 X842.666 Y55.466
N5865 G1 X843.62 Y55.551
N5870 G1 X844.576 Y55.615
N5875 G1 X845.532 Y55.664
N5880 G1 X846.489 Y55.7
N5885 G1 X847.447 Y55.727
N5890 G1 X848.404 Y55.747
N5895 G1 X849.362 Y55.761
N5900 G1 X850.319 Y55.772
N5905 G1 X851.277 Y55.78
N5910 G1 X852.235 Y55.785
N5915 G1 X853.192 Y55.79
N5920 G1 X855.108 Y55.795
N5925 G1 X857.981 Y55.798
N5930 G1 X864.685 Y55.8
N5935 G1 X884.796
N5940 G1 X935.554
N5945 G1 X986.312
N5950 G1 X1037.07
N5955 G1 X1087.828
N5960 G1 X1138.586
N5965 G1 X1189.344
N5970 G1 X1206.582
N5975 G1 X1207.516 Y55.584
N5980 G1 X1208.353 Y55.119
N5985 G1 X1209.096 Y54.515
N5990 G1 X1209.735 Y53.895
N5995 G1 X1209.945 Y53.727
N6000 G1 X1210.183 Y53.603
N6005 G1 X1210.441 Y53.526
N6010 G1 X1210.709 Y53.5
N6015 G1 X1214.127
N6020 G3 X1214.691 Y53.965 I-0.021 J0.6
N6025 G1 X1214.712 Y54.056 Z15.007
N6030 G1 X1214.732 Y54.145 Z15.029
N6035 G1 X1214.752 Y54.23 Z15.065
N6040 G1 X1214.77 Y54.308 Z15.115
N6045 G1 X1214.786 Y54.378 Z15.176
N6050 G1 X1214.8 Y54.438 Z15.247
N6055 G1 X1214.811 Y54.486 Z15.328
N6060 G1 X1214.819 Y54.521 Z15.415
N6065 G1 X1214.824 Y54.542 Z15.506
N6070 G1 X1214.825 Y54.549 Z15.6
N6075 G0 Z25
N6080 G0 X833.154 Y54.028
N6085 G0 Z16.2
N6090 G1 Z15.6 F1828.8
N6095 G1 X833.161 Y54.024 Z15.506
N6100 G1 X833.18 Y54.013 Z15.415
N6105 G1 X833.211 Y53.995 Z15.328
N6110 G1 X833.253 Y53.969 Z15.247
N6115 G1 X833.305 Y53.938 Z15.176
N6120 G1 X833.367 Y53.902 Z15.115
N6125 G1 X833.436 Y53.861 Z15.065
N6130 G1 X833.511 Y53.816 Z15.029
N6135 G1 X833.589 Y53.769 Z15.007
N6140 G1 X833.67 Y53.721 Z15
N6145 G3 X834.424 Y53.5 I0.809 J1.36
N6150 G1 X1210.709
N6155 G1 X1210.801 Y53.51
N6160 G1 X1210.891 Y53.535
N6165 G1 X1210.955 Y53.572 Z15.005
N6170 G1 X1211.017 Y53.608 Z15.018
N6175 G1 X1211.078 Y53.644 Z15.041
N6180 G1 X1211.128 Y53.705 Z15.079
N6185 G1 X1211.174 Y53.762 Z15.129
N6190 G1 X1211.215 Y53.812 Z15.188
N6195 G1 X1211.235 Y53.865 Z15.259
N6200 G1 X1211.251 Y53.908 Z15.337
N6205 G1 X1211.263 Y53.939 Z15.421
N6210 G1 X1211.271 Y53.958 Z15.509
N6215 G1 X1211.273 Y53.965 Z15.6
N6220 G0 Z25
N6225 G0 X828.71 Y53.97
N6230 G0 Z12.6
N6235 G1 Z12 F1828.8
N6240 G1 Z10
N6245 G3 X831.977 Y53.5 I3.801 J14.839
N6250 G1 X832.302
N6255 G1 X832.339 Y53.502
N6260 G1 X832.459 Y53.599
N6265 G1 X832.595 Y53.729
N6270 G1 X832.747 Y53.899
N6275 G1 X832.913 Y54.119
N6280 G1 X833.093 Y54.4
N6285 G1 X833.285 Y54.763
N6290 G1 X833.488 Y55.234
N6295 G1 X833.701 Y55.862
N6300 G1 X833.922 Y56.741
N6305 G1 X834.081 Y57.686
N6310 G1 X834.305 Y58.108
N6315 G1 X834.913 Y58.849
N6320 G1 X835.706 Y59.386
N6325 G1 X836.585 Y59.765
N6330 G1 X837.506 Y60.03
N6335 G1 X838.446 Y60.212
N6340 G1 X839.395 Y60.337
N6345 G1 X840.349 Y60.422
N6350 G1 X841.305 Y60.479
N6355 G1 X842.262 Y60.519
N6360 G1 X843.219 Y60.545
N6365 G1 X844.177 Y60.563
N6370 G1 X845.135 Y60.575
N6375 G1 X846.092 Y60.583
N6380 G1 X847.05 Y60.589
N6385 G1 X848.008 Y60.592
N6390 G1 X849.923 Y60.597
N6395 G1 X852.796 Y60.599
N6400 G1 X864.288 Y60.6
N6405 G1 X878.654
N6410 G1 X929.412
N6415 G1 X980.17
N6420 G1 X1030.928
N6425 G1 X1081.686
N6430 G1 X1132.443
N6435 G1 X1183.201
N6440 G1 X1212.411
N6445 G1 X1212.864 Y60.446
N6450 G1 X1213.667 Y59.923
N6455 G1 X1214.255 Y59.167
N6460 G1 X1214.674 Y58.306
N6465 G1 X1214.966 Y57.394
N6470 G1 X1215.168 Y56.458
N6475 G1 X1215.307 Y55.51
N6480 G1 X1215.381 Y54.762
N6485 G1 X1215.441 Y54.474
N6490 G1 X1215.559 Y54.205
N6495 G1 X1215.731 Y53.967
N6500 G1 X1215.949 Y53.769
N6505 G1 X1216.203 Y53.622
N6510 G1 X1216.482 Y53.531
N6515 G1 X1216.774 Y53.5
N6520 G3 X1217.338 Y53.965 I-0.021 J0.6
N6525 G1 X1217.359 Y54.056 Z10.007
N6530 G1 X1217.38 Y54.145 Z10.029
N6535 G1 X1217.399 Y54.23 Z10.065
N6540 G1 X1217.417 Y54.308 Z10.115
N6545 G1 X1217.433 Y54.378 Z10.176
N6550 G1 X1217.447 Y54.438 Z10.247
N6555 G1 X1217.458 Y54.486 Z10.328
N6560 G1 X1217.466 Y54.521 Z10.415
N6565 G1 X1217.471 Y54.542 Z10.506
N6570 G1 X1217.473 Y54.549 Z10.6
N6575 G0 Z25
N6580 G0 X831.033 Y54.028
N6585 G0 Z11.2
N6590 G1 Z10.6 F1828.8
N6595 G1 X831.039 Y54.024 Z10.506
N6600 G1 X831.058 Y54.013 Z10.415
N6605 G1 X831.089 Y53.995 Z10.328
N6610 G1 X831.131 Y53.969 Z10.247
N6615 G1 X831.184 Y53.938 Z10.176
N6620 G1 X831.245 Y53.902 Z10.115
N6625 G1 X831.314 Y53.861 Z10.065
N6630 G1 X831.389 Y53.816 Z10.029
N6635 G1 X831.468 Y53.769 Z10.007
N6640 G1 X831.548 Y53.721 Z10
N6645 G3 X832.302 Y53.5 I0.809 J1.36
N6650 G1 X833.118
N6655 G1 X833.268 Y53.507
N6660 G1 X833.433 Y53.571
N6665 G1 X833.608 Y53.656
N6670 G1 X833.811 Y53.774
N6675 G1 X834.01 Y53.913
N6680 G1 X834.229 Y54.094
N6685 G1 X834.473 Y54.331
N6690 G1 X835.104 Y55.051
N6695 G1 X835.73 Y55.776
N6700 G1 X836.477 Y56.375
N6705 G1 X837.31 Y56.847
N6710 G1 X838.197 Y57.209
N6715 G1 X839.116 Y57.48
N6720 G1 X840.052 Y57.681
N6725 G1 X840.998 Y57.828
N6730 G1 X841.95 Y57.935
N6735 G1 X842.905 Y58.011
N6740 G1 X843.861 Y58.066
N6745 G1 X844.818 Y58.106
N6750 G1 X845.775 Y58.133
N6755 G1 X846.732 Y58.153
N6760 G1 X847.69 Y58.167
N6765 G1 X848.648 Y58.177
N6770 G1 X849.605 Y58.184
N6775 G1 X850.563 Y58.189
N6780 G1 X851.521 Y58.192
N6785 G1 X853.436 Y58.196
N6790 G1 X856.309 Y58.199
N6795 G1 X865.886 Y58.2
N6800 G1 X882.167
N6805 G1 X932.925
N6810 G1 X983.683
N6815 G1 X1034.441
N6820 G1 X1085.199
N6825 G1 X1135.957
N6830 G1 X1186.715
N6835 G1 X1208.742
N6840 G1 X1209.22 Y58.199
N6845 G1 X1209.687 Y58.093
N6850 G1 X1210.561 Y57.701
N6855 G1 X1211.264 Y57.05
N6860 G1 X1211.802 Y56.258
N6865 G1 X1212.25 Y55.412
N6870 G1 X1212.692 Y54.562
N6875 G1 X1212.933 Y54.168
N6880 G1 X1213.107 Y53.941
N6885 G1 X1213.322 Y53.754
N6890 G1 X1213.571 Y53.615
N6895 G1 X1213.843 Y53.529
N6900 G1 X1214.127 Y53.5
N6905 G1 X1214.945
N6910 G3 X1215.509 Y53.965 I-0.021 J0.6
N6915 G1 X1215.53 Y54.056 Z10.007
N6920 G1 X1215.551 Y54.145 Z10.029
N6925 G1 X1215.57 Y54.23 Z10.065
N6930 G1 X1215.588 Y54.308 Z10.115
N6935 G1 X1215.604 Y54.378 Z10.176
N6940 G1 X1215.618 Y54.438 Z10.247
N6945 G1 X1215.629 Y54.486 Z10.328
N6950 G1 X1215.637 Y54.521 Z10.415
N6955 G1 X1215.642 Y54.542 Z10.506
N6960 G1 X1215.644 Y54.549 Z10.6
N6965 G0 Z25
N6970 G0 X831.849 Y54.028
N6975 G0 Z11.2
N6980 G1 Z10.6 F1828.8
N6985 G1 X831.855 Y54.024 Z10.506
N6990 G1 X831.874 Y54.013 Z10.415
N6995 G1 X831.905 Y53.995 Z10.328
N7000 G1 X831.948 Y53.969 Z10.247
N7005 G1 X832 Y53.938 Z10.176
N7010 G1 X832.062 Y53.902 Z10.115
N7015 G1 X832.131 Y53.861 Z10.065
N7020 G1 X832.205 Y53.816 Z10.029
N7025 G1 X832.284 Y53.769 Z10.007
N7030 G1 X832.365 Y53.721 Z10
N7035 G3 X833.118 Y53.5 I0.809 J1.36
N7040 G1 X834.424
N7045 G1 X834.574 Y53.507
N7050 G1 X834.803 Y53.539
N7055 G1 X835.251 Y53.638
N7060 G1 X836.167 Y53.918
N7065 G1 X837.067 Y54.243
N7070 G1 X837.975 Y54.548
N7075 G1 X838.895 Y54.814
N7080 G1 X839.827 Y55.035
N7085 G1 X840.768 Y55.214
N7090 G1 X841.715 Y55.356
N7095 G1 X842.666 Y55.466
N7100 G1 X843.62 Y55.551
N7105 G1 X844.576 Y55.615
N7110 G1 X845.532 Y55.664
N7115 G1 X846.489 Y55.7
N7120 G1 X847.447 Y55.727
N7125 G1 X848.404 Y55.747
N7130 G1 X849.362 Y55.761
N7135 G1 X850.319 Y55.772
N7140 G1 X851.277 Y55.78
N7145 G1 X852.235 Y55.785
N7150 G1 X853.192 Y55.79
N7155 G1 X855.108 Y55.795
N7160 G1 X857.981 Y55.798
N7165 G1 X864.685 Y55.8
N7170 G1 X884.796
N7175 G1 X935.554
N7180 G1 X986.312
N7185 G1 X1037.07
N7190 G1 X1087.828
N7195 G1 X1138.586
N7200 G1 X1189.344
N7205 G1 X1206.582
N7210 G1 X1207.516 Y55.584
N7215 G1 X1208.353 Y55.119
N7220 G1 X1209.096 Y54.515
N7225 G1 X1209.735 Y53.895
N7230 G1 X1209.945 Y53.727
N7235 G1 X1210.183 Y53.603
N7240 G1 X1210.441 Y53.526
N7245 G1 X1210.709 Y53.5
N7250 G1 X1214.127
N7255 G3 X1214.691 Y53.965 I-0.021 J0.6
N7260 G1 X1214.712 Y54.056 Z10.007
N7265 G1 X1214.732 Y54.145 Z10.029
N7270 G1 X1214.752 Y54.23 Z10.065
N7275 G1 X1214.77 Y54.308 Z10.115
N7280 G1 X1214.786 Y54.378 Z10.176
N7285 G1 X1214.8 Y54.438 Z10.247
N7290 G1 X1214.811 Y54.486 Z10.328
N7295 G1 X1214.819 Y54.521 Z10.415
N7300 G1 X1214.824 Y54.542 Z10.506
N7305 G1 X1214.825 Y54.549 Z10.6
N7310 G0 Z25
N7315 G0 X833.154 Y54.028
N7320 G0 Z11.2
N7325 G1 Z10.6 F1828.8
N7330 G1 X833.161 Y54.024 Z10.506
N7335 G1 X833.18 Y54.013 Z10.415
N7340 G1 X833.211 Y53.995 Z10.328
N7345 G1 X833.253 Y53.969 Z10.247
N7350 G1 X833.305 Y53.938 Z10.176
N7355 G1 X833.367 Y53.902 Z10.115
N7360 G1 X833.436 Y53.861 Z10.065
N7365 G1 X833.511 Y53.816 Z10.029
N7370 G1 X833.589 Y53.769 Z10.007
N7375 G1 X833.67 Y53.721 Z10
N7380 G3 X834.424 Y53.5 I0.809 J1.36
N7385 G1 X1210.709
N7390 G3 X1211.273 Y53.965 I-0.021 J0.6
N7395 G1 X1211.294 Y54.056 Z10.007
N7400 G1 X1211.315 Y54.145 Z10.029
N7405 G1 X1211.334 Y54.23 Z10.065
N7410 G1 X1211.352 Y54.308 Z10.115
N7415 G1 X1211.368 Y54.378 Z10.176
N7420 G1 X1211.382 Y54.438 Z10.247
N7425 G1 X1211.393 Y54.486 Z10.328
N7430 G1 X1211.401 Y54.521 Z10.415
N7435 G1 X1211.406 Y54.542 Z10.506
N7440 G1 X1211.408 Y54.549 Z10.6
N7445 G0 Z35
N7450 G0 X828.71 Y113.97
N7455 G0 Z25
N7460 G0 Z17.6
N7465 G1 Z17 F1828.8
N7470 G1 Z15
N7475 G3 X831.977 Y113.5 I3.801 J14.839
N7480 G1 X832.302
N7485 G1 X832.339 Y113.502
N7490 G1 X832.459 Y113.599
N7495 G1 X832.595 Y113.729
N7500 G1 X832.747 Y113.899
N7505 G1 X832.913 Y114.119
N7510 G1 X833.093 Y114.4
N7515 G1 X833.285 Y114.763
N7520 G1 X833.488 Y115.234
N7525 G1 X833.701 Y115.862
N7530 G1 X833.922 Y116.741
N7535 G1 X834.081 Y117.686
N7540 G1 X834.305 Y118.108
N7545 G1 X834.913 Y118.849
N7550 G1 X835.706 Y119.386
N7555 G1 X836.585 Y119.765
N7560 G1 X837.506 Y120.03
N7565 G1 X838.446 Y120.212
N7570 G1 X839.395 Y120.337
N7575 G1 X840.349 Y120.422
N7580 G1 X841.305 Y120.479
N7585 G1 X842.262 Y120.519
N7590 G1 X843.219 Y120.545
N7595 G1 X844.177 Y120.563
N7600 G1 X845.135 Y120.575
N7605 G1 X846.092 Y120.583
N7610 G1 X847.05 Y120.589
N7615 G1 X848.008 Y120.592
N7620 G1 X849.923 Y120.597
N7625 G1 X852.796 Y120.599
N7630 G1 X864.288 Y120.6
N7635 G1 X878.654
N7640 G1 X929.412
N7645 G1 X980.17
N7650 G1 X1030.928
N7655 G1 X1081.686
N7660 G1 X1132.443
N7665 G1 X1183.201
N7670 G1 X1212.411
N7675 G1 X1212.864 Y120.446
N7680 G1 X1213.667 Y119.923
N7685 G1 X1214.255 Y119.167
N7690 G1 X1214.674 Y118.306
N7695 G1 X1214.966 Y117.394
N7700 G1 X1215.168 Y116.458
N7705 G1 X1215.307 Y115.51
N7710 G1 X1215.381 Y114.762
N7715 G1 X1215.441 Y114.474
N7720 G1 X1215.559 Y114.205
N7725 G1 X1215.731 Y113.967
N7730 G1 X1215.949 Y113.769
N7735 G1 X1216.203 Y113.622
N7740 G1 X1216.482 Y113.531
N7745 G1 X1216.774 Y113.5
N7750 G3 X1217.338 Y113.965 I-0.021 J0.6
N7755 G1 X1217.359 Y114.056 Z15.007
N7760 G1 X1217.38 Y114.145 Z15.029
N7765 G1 X1217.399 Y114.23 Z15.065
N7770 G1 X1217.417 Y114.308 Z15.115
N7775 G1 X1217.433 Y114.378 Z15.176
N7780 G1 X1217.447 Y114.438 Z15.247
N7785 G1 X1217.458 Y114.486 Z15.328
N7790 G1 X1217.466 Y114.521 Z15.415
N7795 G1 X1217.471 Y114.542 Z15.506
N7800 G1 X1217.473 Y114.549 Z15.6
N7805 G0 Z25
N7810 G0 X831.033 Y114.028
N7815 G0 Z16.2
N7820 G1 Z15.6 F1828.8
N7825 G1 X831.039 Y114.024 Z15.506
N7830 G1 X831.058 Y114.013 Z15.415
N7835 G1 X831.089 Y113.995 Z15.328
N7840 G1 X831.131 Y113.969 Z15.247
N7845 G1 X831.184 Y113.938 Z15.176
N7850 G1 X831.245 Y113.902 Z15.115
N7855 G1 X831.314 Y113.861 Z15.065
N7860 G1 X831.389 Y113.816 Z15.029
N7865 G1 X831.468 Y113.769 Z15.007
N7870 G1 X831.548 Y113.721 Z15
N7875 G3 X832.302 Y113.5 I0.809 J1.36
N7880 G1 X833.118
N7885 G1 X833.268 Y113.507
N7890 G1 X833.433 Y113.571
N7895 G1 X833.608 Y113.656
N7900 G1 X833.811 Y113.774
N7905 G1 X834.01 Y113.913
N7910 G1 X834.229 Y114.094
N7915 G1 X834.473 Y114.331
N7920 G1 X835.104 Y115.051
N7925 G1 X835.73 Y115.776
N7930 G1 X836.477 Y116.375
N7935 G1 X837.31 Y116.847
N7940 G1 X838.197 Y117.209
N7945 G1 X839.116 Y117.48
N7950 G1 X840.052 Y117.681
N7955 G1 X840.998 Y117.828
N7960 G1 X841.95 Y117.935
N7965 G1 X842.905 Y118.011
N7970 G1 X843.861 Y118.066
N7975 G1 X844.818 Y118.106
N7980 G1 X845.775 Y118.133
N7985 G1 X846.732 Y118.153
N7990 G1 X847.69 Y118.167
N7995 G1 X848.648 Y118.177
N8000 G1 X849.605 Y118.184
N8005 G1 X850.563 Y118.189
N8010 G1 X851.521 Y118.192
N8015 G1 X853.436 Y118.196
N8020 G1 X856.309 Y118.199
N8025 G1 X865.886 Y118.2
N8030 G1 X882.167
N8035 G1 X932.925
N8040 G1 X983.683
N8045 G1 X1034.441
N8050 G1 X1085.199
N8055 G1 X1135.957
N8060 G1 X1186.715
N8065 G1 X1208.742
N8070 G1 X1209.22 Y118.199
N8075 G1 X1209.687 Y118.093
N8080 G1 X1210.561 Y117.701
N8085 G1 X1211.264 Y117.05
N8090 G1 X1211.802 Y116.258
N8095 G1 X1212.25 Y115.412
N8100 G1 X1212.692 Y114.562
N8105 G1 X1212.933 Y114.168
N8110 G1 X1213.107 Y113.941
N8115 G1 X1213.322 Y113.754
N8120 G1 X1213.571 Y113.615
N8125 G1 X1213.843 Y113.529
N8130 G1 X1214.127 Y113.5
N8135 G1 X1214.945
N8140 G3 X1215.509 Y113.965 I-0.021 J0.6
N8145 G1 X1215.53 Y114.056 Z15.007
N8150 G1 X1215.551 Y114.145 Z15.029
N8155 G1 X1215.57 Y114.23 Z15.065
N8160 G1 X1215.588 Y114.308 Z15.115
N8165 G1 X1215.604 Y114.378 Z15.176
N8170 G1 X1215.618 Y114.438 Z15.247
N8175 G1 X1215.629 Y114.486 Z15.328
N8180 G1 X1215.637 Y114.521 Z15.415
N8185 G1 X1215.642 Y114.542 Z15.506
N8190 G1 X1215.644 Y114.549 Z15.6
N8195 G0 Z25
N8200 G0 X831.849 Y114.028
N8205 G0 Z16.2
N8210 G1 Z15.6 F1828.8
N8215 G1 X831.855 Y114.024 Z15.506
N8220 G1 X831.874 Y114.013 Z15.415
N8225 G1 X831.905 Y113.995 Z15.328
N8230 G1 X831.948 Y113.969 Z15.247
N8235 G1 X832 Y113.938 Z15.176
N8240 G1 X832.062 Y113.902 Z15.115
N8245 G1 X832.131 Y113.861 Z15.065
N8250 G1 X832.205 Y113.816 Z15.029
N8255 G1 X832.284 Y113.769 Z15.007
N8260 G1 X832.365 Y113.721 Z15
N8265 G3 X833.118 Y113.5 I0.809 J1.36
N8270 G1 X834.424
N8275 G1 X834.574 Y113.507
N8280 G1 X834.803 Y113.539
N8285 G1 X835.251 Y113.638
N8290 G1 X836.167 Y113.918
N8295 G1 X837.067 Y114.243
N8300 G1 X837.975 Y114.548
N8305 G1 X838.895 Y114.814
N8310 G1 X839.827 Y115.035
N8315 G1 X840.768 Y115.214
N8320 G1 X841.715 Y115.356
N8325 G1 X842.666 Y115.466
N8330 G1 X843.62 Y115.551
N8335 G1 X844.576 Y115.615
N8340 G1 X845.532 Y115.664
N8345 G1 X846.489 Y115.7
N8350 G1 X847.447 Y115.727
N8355 G1 X848.404 Y115.747
N8360 G1 X849.362 Y115.761
N8365 G1 X850.319 Y115.772
N8370 G1 X851.277 Y115.78
N8375 G1 X852.235 Y115.785
N8380 G1 X853.192 Y115.79
N8385 G1 X855.108 Y115.795
N8390 G1 X857.981 Y115.798
N8395 G1 X864.685 Y115.8
N8400 G1 X884.796
N8405 G1 X935.554
N8410 G1 X986.312
N8415 G1 X1037.07
N8420 G1 X1087.828
N8425 G1 X1138.586
N8430 G1 X1189.344
N8435 G1 X1206.582
N8440 G1 X1207.516 Y115.584
N8445 G1 X1208.353 Y115.119
N8450 G1 X1209.096 Y114.515
N8455 G1 X1209.735 Y113.895
N8460 G1 X1209.945 Y113.727
N8465 G1 X1210.183 Y113.603
N8470 G1 X1210.441 Y113.526
N8475 G1 X1210.709 Y113.5
N8480 G1 X1214.127
N8485 G3 X1214.691 Y113.965 I-0.021 J0.6
N8490 G1 X1214.712 Y114.056 Z15.007
N8495 G1 X1214.732 Y114.145 Z15.029
N8500 G1 X1214.752 Y114.23 Z15.065
N8505 G1 X1214.77 Y114.308 Z15.115
N8510 G1 X1214.786 Y114.378 Z15.176
N8515 G1 X1214.8 Y114.438 Z15.247
N8520 G1 X1214.811 Y114.486 Z15.328
N8525 G1 X1214.819 Y114.521 Z15.415
N8530 G1 X1214.824 Y114.542 Z15.506
N8535 G1 X1214.825 Y114.549 Z15.6
N8540 G0 Z25
N8545 G0 X833.154 Y114.028
N8550 G0 Z16.2
N8555 G1 Z15.6 F1828.8
N8560 G1 X833.161 Y114.024 Z15.506
N8565 G1 X833.18 Y114.013 Z15.415
N8570 G1 X833.211 Y113.995 Z15.328
N8575 G1 X833.253 Y113.969 Z15.247
N8580 G1 X833.305 Y113.938 Z15.176
N8585 G1 X833.367 Y113.902 Z15.115
N8590 G1 X833.436 Y113.861 Z15.065
N8595 G1 X833.511 Y113.816 Z15.029
N8600 G1 X833.589 Y113.769 Z15.007
N8605 G1 X833.67 Y113.721 Z15
N8610 G3 X834.424 Y113.5 I0.809 J1.36
N8615 G1 X1210.709
N8620 G1 X1210.801 Y113.51
N8625 G1 X1210.891 Y113.535
N8630 G1 X1210.955 Y113.572 Z15.005
N8635 G1 X1211.017 Y113.608 Z15.018
N8640 G1 X1211.078 Y113.644 Z15.041
N8645 G1 X1211.128 Y113.705 Z15.079
N8650 G1 X1211.174 Y113.762 Z15.129
N8655 G1 X1211.215 Y113.812 Z15.188
N8660 G1 X1211.235 Y113.865 Z15.259
N8665 G1 X1211.251 Y113.908 Z15.337
N8670 G1 X1211.263 Y113.939 Z15.421
N8675 G1 X1211.271 Y113.958 Z15.509
N8680 G1 X1211.273 Y113.965 Z15.6
N8685 G0 Z25
N8690 G0 X828.71 Y113.97
N8695 G0 Z12.6
N8700 G1 Z12 F1828.8
N8705 G1 Z10
N8710 G3 X831.977 Y113.5 I3.801 J14.839
N8715 G1 X832.302
N8720 G1 X832.339 Y113.502
N8725 G1 X832.459 Y113.599
N8730 G1 X832.595 Y113.729
N8735 G1 X832.747 Y113.899
N8740 G1 X832.913 Y114.119
N8745 G1 X833.093 Y114.4
N8750 G1 X833.285 Y114.763
N8755 G1 X833.488 Y115.234
N8760 G1 X833.701 Y115.862
N8765 G1 X833.922 Y116.741
N8770 G1 X834.081 Y117.686
N8775 G1 X834.305 Y118.108
N8780 G1 X834.913 Y118.849
N8785 G1 X835.706 Y119.386
N8790 G1 X836.585 Y119.765
N8795 G1 X837.506 Y120.03
N8800 G1 X838.446 Y120.212
N8805 G1 X839.395 Y120.337
N8810 G1 X840.349 Y120.422
N8815 G1 X841.305 Y120.479
N8820 G1 X842.262 Y120.519
N8825 G1 X843.219 Y120.545
N8830 G1 X844.177 Y120.563
N8835 G1 X845.135 Y120.575
N8840 G1 X846.092 Y120.583
N8845 G1 X847.05 Y120.589
N8850 G1 X848.008 Y120.592
N8855 G1 X849.923 Y120.597
N8860 G1 X852.796 Y120.599
N8865 G1 X864.288 Y120.6
N8870 G1 X878.654
N8875 G1 X929.412
N8880 G1 X980.17
N8885 G1 X1030.928
N8890 G1 X1081.686
N8895 G1 X1132.443
N8900 G1 X1183.201
N8905 G1 X1212.411
N8910 G1 X1212.864 Y120.446
N8915 G1 X1213.667 Y119.923
N8920 G1 X1214.255 Y119.167
N8925 G1 X1214.674 Y118.306
N8930 G1 X1214.966 Y117.394
N8935 G1 X1215.168 Y116.458
N8940 G1 X1215.307 Y115.51
N8945 G1 X1215.381 Y114.762
N8950 G1 X1215.441 Y114.474
N8955 G1 X1215.559 Y114.205
N8960 G1 X1215.731 Y113.967
N8965 G1 X1215.949 Y113.769
N8970 G1 X1216.203 Y113.622
N8975 G1 X1216.482 Y113.531
N8980 G1 X1216.774 Y113.5
N8985 G3 X1217.338 Y113.965 I-0.021 J0.6
N8990 G1 X1217.359 Y114.056 Z10.007
N8995 G1 X1217.38 Y114.145 Z10.029
N9000 G1 X1217.399 Y114.23 Z10.065
N9005 G1 X1217.417 Y114.308 Z10.115
N9010 G1 X1217.433 Y114.378 Z10.176
N9015 G1 X1217.447 Y114.438 Z10.247
N9020 G1 X1217.458 Y114.486 Z10.328
N9025 G1 X1217.466 Y114.521 Z10.415
N9030 G1 X1217.471 Y114.542 Z10.506
N9035 G1 X1217.473 Y114.549 Z10.6
N9040 G0 Z25
N9045 G0 X831.033 Y114.028
N9050 G0 Z11.2
N9055 G1 Z10.6 F1828.8
N9060 G1 X831.039 Y114.024 Z10.506
N9065 G1 X831.058 Y114.013 Z10.415
N9070 G1 X831.089 Y113.995 Z10.328
N9075 G1 X831.131 Y113.969 Z10.247
N9080 G1 X831.184 Y113.938 Z10.176
N9085 G1 X831.245 Y113.902 Z10.115
N9090 G1 X831.314 Y113.861 Z10.065
N9095 G1 X831.389 Y113.816 Z10.029
N9100 G1 X831.468 Y113.769 Z10.007
N9105 G1 X831.548 Y113.721 Z10
N9110 G3 X832.302 Y113.5 I0.809 J1.36
N9115 G1 X833.118
N9120 G1 X833.268 Y113.507
N9125 G1 X833.433 Y113.571
N9130 G1 X833.608 Y113.656
N9135 G1 X833.811 Y113.774
N9140 G1 X834.01 Y113.913
N9145 G1 X834.229 Y114.094
N9150 G1 X834.473 Y114.331
N9155 G1 X835.104 Y115.051
N9160 G1 X835.73 Y115.776
N9165 G1 X836.477 Y116.375
N9170 G1 X837.31 Y116.847
N9175 G1 X838.197 Y117.209
N9180 G1 X839.116 Y117.48
N9185 G1 X840.052 Y117.681
N9190 G1 X840.998 Y117.828
N9195 G1 X841.95 Y117.935
N9200 G1 X842.905 Y118.011
N9205 G1 X843.861 Y118.066
N9210 G1 X844.818 Y118.106
N9215 G1 X845.775 Y118.133
N9220 G1 X846.732 Y118.153
N9225 G1 X847.69 Y118.167
N9230 G1 X848.648 Y118.177
N9235 G1 X849.605 Y118.184
N9240 G1 X850.563 Y118.189
N9245 G1 X851.521 Y118.192
N9250 G1 X853.436 Y118.196
N9255 G1 X856.309 Y118.199
N9260 G1 X865.886 Y118.2
N9265 G1 X882.167
N9270 G1 X932.925
N9275 G1 X983.683
N9280 G1 X1034.441
N9285 G1 X1085.199
N9290 G1 X1135.957
N9295 G1 X1186.715
N9300 G1 X1208.742
N9305 G1 X1209.22 Y118.199
N9310 G1 X1209.687 Y118.093
N9315 G1 X1210.561 Y117.701
N9320 G1 X1211.264 Y117.05
N9325 G1 X1211.802 Y116.258
N9330 G1 X1212.25 Y115.412
N9335 G1 X1212.692 Y114.562
N9340 G1 X1212.933 Y114.168
N9345 G1 X1213.107 Y113.941
N9350 G1 X1213.322 Y113.754
N9355 G1 X1213.571 Y113.615
N9360 G1 X1213.843 Y113.529
N9365 G1 X1214.127 Y113.5
N9370 G1 X1214.945
N9375 G3 X1215.509 Y113.965 I-0.021 J0.6
N9380 G1 X1215.53 Y114.056 Z10.007
N9385 G1 X1215.551 Y114.145 Z10.029
N9390 G1 X1215.57 Y114.23 Z10.065
N9395 G1 X1215.588 Y114.308 Z10.115
N9400 G1 X1215.604 Y114.378 Z10.176
N9405 G1 X1215.618 Y114.438 Z10.247
N9410 G1 X1215.629 Y114.486 Z10.328
N9415 G1 X1215.637 Y114.521 Z10.415
N9420 G1 X1215.642 Y114.542 Z10.506
N9425 G1 X1215.644 Y114.549 Z10.6
N9430 G0 Z25
N9435 G0 X831.849 Y114.028
N9440 G0 Z11.2
N9445 G1 Z10.6 F1828.8
N9450 G1 X831.855 Y114.024 Z10.506
N9455 G1 X831.874 Y114.013 Z10.415
N9460 G1 X831.905 Y113.995 Z10.328
N9465 G1 X831.948 Y113.969 Z10.247
N9470 G1 X832 Y113.938 Z10.176
N9475 G1 X832.062 Y113.902 Z10.115
N9480 G1 X832.131 Y113.861 Z10.065
N9485 G1 X832.205 Y113.816 Z10.029
N9490 G1 X832.284 Y113.769 Z10.007
N9495 G1 X832.365 Y113.721 Z10
N9500 G3 X833.118 Y113.5 I0.809 J1.36
N9505 G1 X834.424
N9510 G1 X834.574 Y113.507
N9515 G1 X834.803 Y113.539
N9520 G1 X835.251 Y113.638
N9525 G1 X836.167 Y113.918
N9530 G1 X837.067 Y114.243
N9535 G1 X837.975 Y114.548
N9540 G1 X838.895 Y114.814
N9545 G1 X839.827 Y115.035
N9550 G1 X840.768 Y115.214
N9555 G1 X841.715 Y115.356
N9560 G1 X842.666 Y115.466
N9565 G1 X843.62 Y115.551
N9570 G1 X844.576 Y115.615
N9575 G1 X845.532 Y115.664
N9580 G1 X846.489 Y115.7
N9585 G1 X847.447 Y115.727
N9590 G1 X848.404 Y115.747
N9595 G1 X849.362 Y115.761
N9600 G1 X850.319 Y115.772
N9605 G1 X851.277 Y115.78
N9610 G1 X852.235 Y115.785
N9615 G1 X853.192 Y115.79
N9620 G1 X855.108 Y115.795
N9625 G1 X857.981 Y115.798
N9630 G1 X864.685 Y115.8
N9635 G1 X884.796
N9640 G1 X935.554
N9645 G1 X986.312
N9650 G1 X1037.07
N9655 G1 X1087.828
N9660 G1 X1138.586
N9665 G1 X1189.344
N9670 G1 X1206.582
N9675 G1 X1207.516 Y115.584
N9680 G1 X1208.353 Y115.119
N9685 G1 X1209.096 Y114.515
N9690 G1 X1209.735 Y113.895
N9695 G1 X1209.945 Y113.727
N9700 G1 X1210.183 Y113.603
N9705 G1 X1210.441 Y113.526
N9710 G1 X1210.709 Y113.5
N9715 G1 X1214.127
N9720 G3 X1214.691 Y113.965 I-0.021 J0.6
N9725 G1 X1214.712 Y114.056 Z10.007
N9730 G1 X1214.732 Y114.145 Z10.029
N9735 G1 X1214.752 Y114.23 Z10.065
N9740 G1 X1214.77 Y114.308 Z10.115
N9745 G1 X1214.786 Y114.378 Z10.176
N9750 G1 X1214.8 Y114.438 Z10.247
N9755 G1 X1214.811 Y114.486 Z10.328
N9760 G1 X1214.819 Y114.521 Z10.415
N9765 G1 X1214.824 Y114.542 Z10.506
N9770 G1 X1214.825 Y114.549 Z10.6
N9775 G0 Z25
N9780 G0 X833.154 Y114.028
N9785 G0 Z11.2
N9790 G1 Z10.6 F1828.8
N9795 G1 X833.161 Y114.024 Z10.506
N9800 G1 X833.18 Y114.013 Z10.415
N9805 G1 X833.211 Y113.995 Z10.328
N9810 G1 X833.253 Y113.969 Z10.247
N9815 G1 X833.305 Y113.938 Z10.176
N9820 G1 X833.367 Y113.902 Z10.115
N9825 G1 X833.436 Y113.861 Z10.065
N9830 G1 X833.511 Y113.816 Z10.029
N9835 G1 X833.589 Y113.769 Z10.007
N9840 G1 X833.67 Y113.721 Z10
N9845 G3 X834.424 Y113.5 I0.809 J1.36
N9850 G1 X1210.709
N9855 G3 X1211.273 Y113.965 I-0.021 J0.6
N9860 G1 X1211.294 Y114.056 Z10.007
N9865 G1 X1211.315 Y114.145 Z10.029
N9870 G1 X1211.334 Y114.23 Z10.065
N9875 G1 X1211.352 Y114.308 Z10.115
N9880 G1 X1211.368 Y114.378 Z10.176
N9885 G1 X1211.382 Y114.438 Z10.247
N9890 G1 X1211.393 Y114.486 Z10.328
N9895 G1 X1211.401 Y114.521 Z10.415
N9900 G1 X1211.406 Y114.542 Z10.506
N9905 G1 X1211.408 Y114.549 Z10.6
N9910 G0 Z35
N9915 G0 X428.71 Y113.97
N9920 G0 Z25
N9925 G0 Z17.6
N9930 G1 Z17 F1828.8
N9935 G1 Z15
N9940 G3 X431.977 Y113.5 I3.801 J14.839
N9945 G1 X432.302
N9950 G1 X432.339 Y113.502
N9955 G1 X432.459 Y113.599
N9960 G1 X432.595 Y113.729
N9965 G1 X432.747 Y113.899
N9970 G1 X432.913 Y114.119
N9975 G1 X433.093 Y114.4
N9980 G1 X433.285 Y114.763
N9985 G1 X433.488 Y115.234
N9990 G1 X433.701 Y115.862
N9995 G1 X433.922 Y116.741
N10000 G1 X434.081 Y117.686
N10005 G1 X434.305 Y118.108
N10010 G1 X434.913 Y118.849
N10015 G1 X435.706 Y119.386
N10020 G1 X436.585 Y119.765
N10025 G1 X437.506 Y120.03
N10030 G1 X438.446 Y120.212
N10035 G1 X439.395 Y120.337
N10040 G1 X440.349 Y120.422
N10045 G1 X441.305 Y120.479
N10050 G1 X442.262 Y120.519
N10055 G1 X443.219 Y120.545
N10060 G1 X444.177 Y120.563
N10065 G1 X445.135 Y120.575
N10070 G1 X446.092 Y120.583
N10075 G1 X447.05 Y120.589
N10080 G1 X448.008 Y120.592
N10085 G1 X449.923 Y120.597
N10090 G1 X452.796 Y120.599
N10095 G1 X464.288 Y120.6
N10100 G1 X478.654
N10105 G1 X529.412
N10110 G1 X580.17
N10115 G1 X630.928
N10120 G1 X681.686
N10125 G1 X732.443
N10130 G1 X783.201
N10135 G1 X812.411
N10140 G1 X812.864 Y120.446
N10145 G1 X813.667 Y119.923
N10150 G1 X814.255 Y119.167
N10155 G1 X814.674 Y118.306
N10160 G1 X814.966 Y117.394
N10165 G1 X815.168 Y116.458
N10170 G1 X815.307 Y115.51
N10175 G1 X815.381 Y114.762
N10180 G1 X815.441 Y114.474
N10185 G1 X815.559 Y114.205
N10190 G1 X815.731 Y113.967
N10195 G1 X815.949 Y113.769
N10200 G1 X816.203 Y113.622
N10205 G1 X816.482 Y113.531
N10210 G1 X816.774 Y113.5
N10215 G3 X817.338 Y113.965 I-0.021 J0.6
N10220 G1 X817.359 Y114.056 Z15.007
N10225 G1 X817.38 Y114.145 Z15.029
N10230 G1 X817.399 Y114.23 Z15.065
N10235 G1 X817.417 Y114.308 Z15.115
N10240 G1 X817.433 Y114.378 Z15.176
N10245 G1 X817.447 Y114.438 Z15.247
N10250 G1 X817.458 Y114.486 Z15.328
N10255 G1 X817.466 Y114.521 Z15.415
N10260 G1 X817.471 Y114.542 Z15.506
N10265 G1 X817.473 Y114.549 Z15.6
N10270 G0 Z25
N10275 G0 X431.033 Y114.028
N10280 G0 Z16.2
N10285 G1 Z15.6 F1828.8
N10290 G1 X431.039 Y114.024 Z15.506
N10295 G1 X431.058 Y114.013 Z15.415
N10300 G1 X431.089 Y113.995 Z15.328
N10305 G1 X431.131 Y113.969 Z15.247
N10310 G1 X431.184 Y113.938 Z15.176
N10315 G1 X431.245 Y113.902 Z15.115
N10320 G1 X431.314 Y113.861 Z15.065
N10325 G1 X431.389 Y113.816 Z15.029
N10330 G1 X431.468 Y113.769 Z15.007
N10335 G1 X431.548 Y113.721 Z15
N10340 G3 X432.302 Y113.5 I0.809 J1.36
N10345 G1 X433.118
N10350 G1 X433.268 Y113.507
N10355 G1 X433.433 Y113.571
N10360 G1 X433.608 Y113.656
N10365 G1 X433.811 Y113.774
N10370 G1 X434.01 Y113.913
N10375 G1 X434.229 Y114.094
N10380 G1 X434.473 Y114.331
N10385 G1 X435.104 Y115.051
N10390 G1 X435.73 Y115.776
N10395 G1 X436.477 Y116.375
N10400 G1 X437.31 Y116.847
N10405 G1 X438.197 Y117.209
N10410 G1 X439.116 Y117.48
N10415 G1 X440.052 Y117.681
N10420 G1 X440.998 Y117.828
N10425 G1 X441.95 Y117.935
N10430 G1 X442.905 Y118.011
N10435 G1 X443.861 Y118.066
N10440 G1 X444.818 Y118.106
N10445 G1 X445.775 Y118.133
N10450 G1 X446.732 Y118.153
N10455 G1 X447.69 Y118.167
N10460 G1 X448.648 Y118.177
N10465 G1 X449.605 Y118.184
N10470 G1 X450.563 Y118.189
N10475 G1 X451.521 Y118.192
N10480 G1 X453.436 Y118.196
N10485 G1 X456.309 Y118.199
N10490 G1 X465.886 Y118.2
N10495 G1 X482.167
N10500 G1 X532.925
N10505 G1 X583.683
N10510 G1 X634.441
N10515 G1 X685.199
N10520 G1 X735.957
N10525 G1 X786.715
N10530 G1 X808.742
N10535 G1 X809.22 Y118.199
N10540 G1 X809.687 Y118.093
N10545 G1 X810.561 Y117.701
N10550 G1 X811.264 Y117.05
N10555 G1 X811.802 Y116.258
N10560 G1 X812.25 Y115.412
N10565 G1 X812.692 Y114.562
N10570 G1 X812.933 Y114.168
N10575 G1 X813.107 Y113.941
N10580 G1 X813.322 Y113.754
N10585 G1 X813.571 Y113.615
N10590 G1 X813.843 Y113.529
N10595 G1 X814.127 Y113.5
N10600 G1 X814.945
N10605 G3 X815.509 Y113.965 I-0.021 J0.6
N10610 G1 X815.53 Y114.056 Z15.007
N10615 G1 X815.551 Y114.145 Z15.029
N10620 G1 X815.57 Y114.23 Z15.065
N10625 G1 X815.588 Y114.308 Z15.115
N10630 G1 X815.604 Y114.378 Z15.176
N10635 G1 X815.618 Y114.438 Z15.247
N10640 G1 X815.629 Y114.486 Z15.328
N10645 G1 X815.637 Y114.521 Z15.415
N10650 G1 X815.642 Y114.542 Z15.506
N10655 G1 X815.644 Y114.549 Z15.6
N10660 G0 Z25
N10665 G0 X431.849 Y114.028
N10670 G0 Z16.2
N10675 G1 Z15.6 F1828.8
N10680 G1 X431.855 Y114.024 Z15.506
N10685 G1 X431.874 Y114.013 Z15.415
N10690 G1 X431.905 Y113.995 Z15.328
N10695 G1 X431.948 Y113.969 Z15.247
N10700 G1 X432 Y113.938 Z15.176
N10705 G1 X432.062 Y113.902 Z15.115
N10710 G1 X432.131 Y113.861 Z15.065
N10715 G1 X432.205 Y113.816 Z15.029
N10720 G1 X432.284 Y113.769 Z15.007
N10725 G1 X432.365 Y113.721 Z15
N10730 G3 X433.118 Y113.5 I0.809 J1.36
N10735 G1 X434.424
N10740 G1 X434.574 Y113.507
N10745 G1 X434.803 Y113.539
N10750 G1 X435.251 Y113.638
N10755 G1 X436.167 Y113.918
N10760 G1 X437.067 Y114.243
N10765 G1 X437.975 Y114.548
N10770 G1 X438.895 Y114.814
N10775 G1 X439.827 Y115.035
N10780 G1 X440.768 Y115.214
N10785 G1 X441.715 Y115.356
N10790 G1 X442.666 Y115.466
N10795 G1 X443.62 Y115.551
N10800 G1 X444.576 Y115.615
N10805 G1 X445.532 Y115.664
N10810 G1 X446.489 Y115.7
N10815 G1 X447.447 Y115.727
N10820 G1 X448.404 Y115.747
N10825 G1 X449.362 Y115.761
N10830 G1 X450.319 Y115.772
N10835 G1 X451.277 Y115.78
N10840 G1 X452.235 Y115.785
N10845 G1 X453.192 Y115.79
N10850 G1 X455.108 Y115.795
N10855 G1 X457.981 Y115.798
N10860 G1 X464.685 Y115.8
N10865 G1 X484.796
N10870 G1 X535.554
N10875 G1 X586.312
N10880 G1 X637.07
N10885 G1 X687.828
N10890 G1 X738.586
N10895 G1 X789.344
N10900 G1 X806.582
N10905 G1 X807.515 Y115.584
N10910 G1 X808.353 Y115.119
N10915 G1 X809.096 Y114.515
N10920 G1 X809.735 Y113.895
N10925 G1 X809.945 Y113.727
N10930 G1 X810.183 Y113.603
N10935 G1 X810.441 Y113.526
N10940 G1 X810.709 Y113.5
N10945 G1 X814.127
N10950 G3 X814.691 Y113.965 I-0.021 J0.6
N10955 G1 X814.712 Y114.056 Z15.007
N10960 G1 X814.732 Y114.145 Z15.029
N10965 G1 X814.752 Y114.23 Z15.065
N10970 G1 X814.77 Y114.308 Z15.115
N10975 G1 X814.786 Y114.378 Z15.176
N10980 G1 X814.8 Y114.438 Z15.247
N10985 G1 X814.811 Y114.486 Z15.328
N10990 G1 X814.819 Y114.521 Z15.415
N10995 G1 X814.824 Y114.542 Z15.506
N11000 G1 X814.826 Y114.549 Z15.6
N11005 G0 Z25
N11010 G0 X433.154 Y114.028
N11015 G0 Z16.2
N11020 G1 Z15.6 F1828.8
N11025 G1 X433.161 Y114.024 Z15.506
N11030 G1 X433.18 Y114.013 Z15.415
N11035 G1 X433.211 Y113.995 Z15.328
N11040 G1 X433.253 Y113.969 Z15.247
N11045 G1 X433.305 Y113.938 Z15.176
N11050 G1 X433.367 Y113.902 Z15.115
N11055 G1 X433.436 Y113.861 Z15.065
N11060 G1 X433.511 Y113.816 Z15.029
N11065 G1 X433.589 Y113.769 Z15.007
N11070 G1 X433.67 Y113.721 Z15
N11075 G3 X434.424 Y113.5 I0.809 J1.36
N11080 G1 X810.709
N11085 G1 X810.801 Y113.51
N11090 G1 X810.891 Y113.535
N11095 G1 X810.954 Y113.572 Z15.005
N11100 G1 X811.017 Y113.608 Z15.018
N11105 G1 X811.078 Y113.644 Z15.041
N11110 G1 X811.128 Y113.705 Z15.079
N11115 G1 X811.174 Y113.762 Z15.129
N11120 G1 X811.215 Y113.812 Z15.188
N11125 G1 X811.235 Y113.865 Z15.259
N11130 G1 X811.251 Y113.908 Z15.337
N11135 G1 X811.263 Y113.939 Z15.421
N11140 G1 X811.271 Y113.958 Z15.509
N11145 G1 X811.273 Y113.965 Z15.6
N11150 G0 Z25
N11155 G0 X428.71 Y113.97
N11160 G0 Z12.6
N11165 G1 Z12 F1828.8
N11170 G1 Z10
N11175 G3 X431.977 Y113.5 I3.801 J14.839
N11180 G1 X432.302
N11185 G1 X432.339 Y113.502
N11190 G1 X432.459 Y113.599
N11195 G1 X432.595 Y113.729
N11200 G1 X432.747 Y113.899
N11205 G1 X432.913 Y114.119
N11210 G1 X433.093 Y114.4
N11215 G1 X433.285 Y114.763
N11220 G1 X433.488 Y115.234
N11225 G1 X433.701 Y115.862
N11230 G1 X433.922 Y116.741
N11235 G1 X434.081 Y117.686
N11240 G1 X434.305 Y118.108
N11245 G1 X434.913 Y118.849
N11250 G1 X435.706 Y119.386
N11255 G1 X436.585 Y119.765
N11260 G1 X437.506 Y120.03
N11265 G1 X438.446 Y120.212
N11270 G1 X439.395 Y120.337
N11275 G1 X440.349 Y120.422
N11280 G1 X441.305 Y120.479
N11285 G1 X442.262 Y120.519
N11290 G1 X443.219 Y120.545
N11295 G1 X444.177 Y120.563
N11300 G1 X445.135 Y120.575
N11305 G1 X446.092 Y120.583
N11310 G1 X447.05 Y120.589
N11315 G1 X448.008 Y120.592
N11320 G1 X449.923 Y120.597
N11325 G1 X452.796 Y120.599
N11330 G1 X464.288 Y120.6
N11335 G1 X478.654
N11340 G1 X529.412
N11345 G1 X580.17
N11350 G1 X630.928
N11355 G1 X681.686
N11360 G1 X732.443
N11365 G1 X783.201
N11370 G1 X812.411
N11375 G1 X812.864 Y120.446
N11380 G1 X813.667 Y119.923
N11385 G1 X814.255 Y119.167
N11390 G1 X814.674 Y118.306
N11395 G1 X814.966 Y117.394
N11400 G1 X815.168 Y116.458
N11405 G1 X815.307 Y115.51
N11410 G1 X815.381 Y114.762
N11415 G1 X815.441 Y114.474
N11420 G1 X815.559 Y114.205
N11425 G1 X815.731 Y113.967
N11430 G1 X815.949 Y113.769
N11435 G1 X816.203 Y113.622
N11440 G1 X816.482 Y113.531
N11445 G1 X816.774 Y113.5
N11450 G3 X817.338 Y113.965 I-0.021 J0.6
N11455 G1 X817.359 Y114.056 Z10.007
N11460 G1 X817.38 Y114.145 Z10.029
N11465 G1 X817.399 Y114.23 Z10.065
N11470 G1 X817.417 Y114.308 Z10.115
N11475 G1 X817.433 Y114.378 Z10.176
N11480 G1 X817.447 Y114.438 Z10.247
N11485 G1 X817.458 Y114.486 Z10.328
N11490 G1 X817.466 Y114.521 Z10.415
N11495 G1 X817.471 Y114.542 Z10.506
N11500 G1 X817.473 Y114.549 Z10.6
N11505 G0 Z25
N11510 G0 X431.033 Y114.028
N11515 G0 Z11.2
N11520 G1 Z10.6 F1828.8
N11525 G1 X431.039 Y114.024 Z10.506
N11530 G1 X431.058 Y114.013 Z10.415
N11535 G1 X431.089 Y113.995 Z10.328
N11540 G1 X431.131 Y113.969 Z10.247
N11545 G1 X431.184 Y113.938 Z10.176
N11550 G1 X431.245 Y113.902 Z10.115
N11555 G1 X431.314 Y113.861 Z10.065
N11560 G1 X431.389 Y113.816 Z10.029
N11565 G1 X431.468 Y113.769 Z10.007
N11570 G1 X431.548 Y113.721 Z10
N11575 G3 X432.302 Y113.5 I0.809 J1.36
N11580 G1 X433.118
N11585 G1 X433.268 Y113.507
N11590 G1 X433.433 Y113.571
N11595 G1 X433.608 Y113.656
N11600 G1 X433.811 Y113.774
N11605 G1 X434.01 Y113.913
N11610 G1 X434.229 Y114.094
N11615 G1 X434.473 Y114.331
N11620 G1 X435.104 Y115.051
N11625 G1 X435.73 Y115.776
N11630 G1 X436.477 Y116.375
N11635 G1 X437.31 Y116.847
N11640 G1 X438.197 Y117.209
N11645 G1 X439.116 Y117.48
N11650 G1 X440.052 Y117.681
N11655 G1 X440.998 Y117.828
N11660 G1 X441.95 Y117.935
N11665 G1 X442.905 Y118.011
N11670 G1 X443.861 Y118.066
N11675 G1 X444.818 Y118.106
N11680 G1 X445.775 Y118.133
N11685 G1 X446.732 Y118.153
N11690 G1 X447.69 Y118.167
N11695 G1 X448.648 Y118.177
N11700 G1 X449.605 Y118.184
N11705 G1 X450.563 Y118.189
N11710 G1 X451.521 Y118.192
N11715 G1 X453.436 Y118.196
N11720 G1 X456.309 Y118.199
N11725 G1 X465.886 Y118.2
N11730 G1 X482.167
N11735 G1 X532.925
N11740 G1 X583.683
N11745 G1 X634.441
N11750 G1 X685.199
N11755 G1 X735.957
N11760 G1 X786.715
N11765 G1 X808.742
N11770 G1 X809.22 Y118.199
N11775 G1 X809.687 Y118.093
N11780 G1 X810.561 Y117.701
N11785 G1 X811.264 Y117.05
N11790 G1 X811.802 Y116.258
N11795 G1 X812.25 Y115.412
N11800 G1 X812.692 Y114.562
N11805 G1 X812.933 Y114.168
N11810 G1 X813.107 Y113.941
N11815 G1 X813.322 Y113.754
N11820 G1 X813.571 Y113.615
N11825 G1 X813.843 Y113.529
N11830 G1 X814.127 Y113.5
N11835 G1 X814.945
N11840 G3 X815.509 Y113.965 I-0.021 J0.6
N11845 G1 X815.53 Y114.056 Z10.007
N11850 G1 X815.551 Y114.145 Z10.029
N11855 G1 X815.57 Y114.23 Z10.065
N11860 G1 X815.588 Y114.308 Z10.115
N11865 G1 X815.604 Y114.378 Z10.176
N11870 G1 X815.618 Y114.438 Z10.247
N11875 G1 X815.629 Y114.486 Z10.328
N11880 G1 X815.637 Y114.521 Z10.415
N11885 G1 X815.642 Y114.542 Z10.506
N11890 G1 X815.644 Y114.549 Z10.6
N11895 G0 Z25
N11900 G0 X431.849 Y114.028
N11905 G0 Z11.2
N11910 G1 Z10.6 F1828.8
N11915 G1 X431.855 Y114.024 Z10.506
N11920 G1 X431.874 Y114.013 Z10.415
N11925 G1 X431.905 Y113.995 Z10.328
N11930 G1 X431.948 Y113.969 Z10.247
N11935 G1 X432 Y113.938 Z10.176
N11940 G1 X432.062 Y113.902 Z10.115
N11945 G1 X432.131 Y113.861 Z10.065
N11950 G1 X432.205 Y113.816 Z10.029
N11955 G1 X432.284 Y113.769 Z10.007
N11960 G1 X432.365 Y113.721 Z10
N11965 G3 X433.118 Y113.5 I0.809 J1.36
N11970 G1 X434.424
N11975 G1 X434.574 Y113.507
N11980 G1 X434.803 Y113.539
N11985 G1 X435.251 Y113.638
N11990 G1 X436.167 Y113.918
N11995 G1 X437.067 Y114.243
N12000 G1 X437.975 Y114.548
N12005 G1 X438.895 Y114.814
N12010 G1 X439.827 Y115.035
N12015 G1 X440.768 Y115.214
N12020 G1 X441.715 Y115.356
N12025 G1 X442.666 Y115.466
N12030 G1 X443.62 Y115.551
N12035 G1 X444.576 Y115.615
N12040 G1 X445.532 Y115.664
N12045 G1 X446.489 Y115.7
N12050 G1 X447.447 Y115.727
N12055 G1 X448.404 Y115.747
N12060 G1 X449.362 Y115.761
N12065 G1 X450.319 Y115.772
N12070 G1 X451.277 Y115.78
N12075 G1 X452.235 Y115.785
N12080 G1 X453.192 Y115.79
N12085 G1 X455.108 Y115.795
N12090 G1 X457.981 Y115.798
N12095 G1 X464.685 Y115.8
N12100 G1 X484.796
N12105 G1 X535.554
N12110 G1 X586.312
N12115 G1 X637.07
N12120 G1 X687.828
N12125 G1 X738.586
N12130 G1 X789.344
N12135 G1 X806.582
N12140 G1 X807.515 Y115.584
N12145 G1 X808.353 Y115.119
N12150 G1 X809.096 Y114.515
N12155 G1 X809.735 Y113.895
N12160 G1 X809.945 Y113.727
N12165 G1 X810.183 Y113.603
N12170 G1 X810.441 Y113.526
N12175 G1 X810.709 Y113.5
N12180 G1 X814.127
N12185 G3 X814.691 Y113.965 I-0.021 J0.6
N12190 G1 X814.712 Y114.056 Z10.007
N12195 G1 X814.732 Y114.145 Z10.029
N12200 G1 X814.752 Y114.23 Z10.065
N12205 G1 X814.77 Y114.308 Z10.115
N12210 G1 X814.786 Y114.378 Z10.176
N12215 G1 X814.8 Y114.438 Z10.247
N12220 G1 X814.811 Y114.486 Z10.328
N12225 G1 X814.819 Y114.521 Z10.415
N12230 G1 X814.824 Y114.542 Z10.506
N12235 G1 X814.826 Y114.549 Z10.6
N12240 G0 Z25
N12245 G0 X433.154 Y114.028
N12250 G0 Z11.2
N12255 G1 Z10.6 F1828.8
N12260 G1 X433.161 Y114.024 Z10.506
N12265 G1 X433.18 Y114.013 Z10.415
N12270 G1 X433.211 Y113.995 Z10.328
N12275 G1 X433.253 Y113.969 Z10.247
N12280 G1 X433.305 Y113.938 Z10.176
N12285 G1 X433.367 Y113.902 Z10.115
N12290 G1 X433.436 Y113.861 Z10.065
N12295 G1 X433.511 Y113.816 Z10.029
N12300 G1 X433.589 Y113.769 Z10.007
N12305 G1 X433.67 Y113.721 Z10
N12310 G3 X434.424 Y113.5 I0.809 J1.36
N12315 G1 X810.709
N12320 G3 X811.273 Y113.965 I-0.021 J0.6
N12325 G1 X811.294 Y114.056 Z10.007
N12330 G1 X811.315 Y114.145 Z10.029
N12335 G1 X811.334 Y114.23 Z10.065
N12340 G1 X811.352 Y114.308 Z10.115
N12345 G1 X811.368 Y114.378 Z10.176
N12350 G1 X811.382 Y114.438 Z10.247
N12355 G1 X811.393 Y114.486 Z10.328
N12360 G1 X811.401 Y114.521 Z10.415
N12365 G1 X811.406 Y114.542 Z10.506
N12370 G1 X811.408 Y114.549 Z10.6
N12375 G0 Z35
N12380 G0 X28.71 Y113.97
N12385 G0 Z25
N12390 G0 Z17.6
N12395 G1 Z17 F1828.8
N12400 G1 Z15
N12405 G3 X31.977 Y113.5 I3.801 J14.839
N12410 G1 X32.302
N12415 G1 X32.339 Y113.502
N12420 G1 X32.459 Y113.599
N12425 G1 X32.595 Y113.729
N12430 G1 X32.747 Y113.899
N12435 G1 X32.913 Y114.119
N12440 G1 X33.093 Y114.4
N12445 G1 X33.285 Y114.763
N12450 G1 X33.488 Y115.234
N12455 G1 X33.701 Y115.862
N12460 G1 X33.922 Y116.741
N12465 G1 X34.081 Y117.686
N12470 G1 X34.305 Y118.108
N12475 G1 X34.913 Y118.849
N12480 G1 X35.706 Y119.386
N12485 G1 X36.585 Y119.765
N12490 G1 X37.506 Y120.03
N12495 G1 X38.446 Y120.212
N12500 G1 X39.395 Y120.337
N12505 G1 X40.349 Y120.422
N12510 G1 X41.305 Y120.479
N12515 G1 X42.262 Y120.519
N12520 G1 X43.219 Y120.545
N12525 G1 X44.177 Y120.563
N12530 G1 X45.135 Y120.575
N12535 G1 X46.092 Y120.583
N12540 G1 X47.05 Y120.589
N12545 G1 X48.008 Y120.592
N12550 G1 X49.923 Y120.597
N12555 G1 X52.796 Y120.599
N12560 G1 X64.288 Y120.6
N12565 G1 X78.654
N12570 G1 X129.412
N12575 G1 X180.17
N12580 G1 X230.928
N12585 G1 X281.686
N12590 G1 X332.444
N12595 G1 X383.201
N12600 G1 X412.411
N12605 G1 X412.864 Y120.446
N12610 G1 X413.667 Y119.923
N12615 G1 X414.255 Y119.167
N12620 G1 X414.674 Y118.306
N12625 G1 X414.966 Y117.394
N12630 G1 X415.168 Y116.458
N12635 G1 X415.307 Y115.51
N12640 G1 X415.381 Y114.762
N12645 G1 X415.441 Y114.474
N12650 G1 X415.559 Y114.205
N12655 G1 X415.731 Y113.967
N12660 G1 X415.949 Y113.769
N12665 G1 X416.203 Y113.622
N12670 G1 X416.482 Y113.531
N12675 G1 X416.774 Y113.5
N12680 G3 X417.338 Y113.965 I-0.021 J0.6
N12685 G1 X417.359 Y114.056 Z15.007
N12690 G1 X417.38 Y114.145 Z15.029
N12695 G1 X417.399 Y114.23 Z15.065
N12700 G1 X417.417 Y114.308 Z15.115
N12705 G1 X417.433 Y114.378 Z15.176
N12710 G1 X417.447 Y114.438 Z15.247
N12715 G1 X417.458 Y114.486 Z15.328
N12720 G1 X417.466 Y114.521 Z15.415
N12725 G1 X417.471 Y114.542 Z15.506
N12730 G1 X417.473 Y114.549 Z15.6
N12735 G0 Z25
N12740 G0 X31.033 Y114.028
N12745 G0 Z16.2
N12750 G1 Z15.6 F1828.8
N12755 G1 X31.039 Y114.024 Z15.506
N12760 G1 X31.058 Y114.013 Z15.415
N12765 G1 X31.089 Y113.995 Z15.328
N12770 G1 X31.131 Y113.969 Z15.247
N12775 G1 X31.184 Y113.938 Z15.176
N12780 G1 X31.245 Y113.902 Z15.115
N12785 G1 X31.314 Y113.861 Z15.065
N12790 G1 X31.389 Y113.816 Z15.029
N12795 G1 X31.468 Y113.769 Z15.007
N12800 G1 X31.548 Y113.721 Z15
N12805 G3 X32.302 Y113.5 I0.809 J1.36
N12810 G1 X33.118
N12815 G1 X33.268 Y113.507
N12820 G1 X33.433 Y113.571
N12825 G1 X33.608 Y113.656
N12830 G1 X33.811 Y113.774
N12835 G1 X34.01 Y113.913
N12840 G1 X34.229 Y114.094
N12845 G1 X34.473 Y114.331
N12850 G1 X35.104 Y115.051
N12855 G1 X35.73 Y115.776
N12860 G1 X36.477 Y116.375
N12865 G1 X37.31 Y116.847
N12870 G1 X38.197 Y117.209
N12875 G1 X39.116 Y117.48
N12880 G1 X40.052 Y117.681
N12885 G1 X40.998 Y117.828
N12890 G1 X41.95 Y117.935
N12895 G1 X42.905 Y118.011
N12900 G1 X43.861 Y118.066
N12905 G1 X44.818 Y118.106
N12910 G1 X45.775 Y118.133
N12915 G1 X46.732 Y118.153
N12920 G1 X47.69 Y118.167
N12925 G1 X48.648 Y118.177
N12930 G1 X49.605 Y118.184
N12935 G1 X50.563 Y118.189
N12940 G1 X51.521 Y118.192
N12945 G1 X53.436 Y118.196
N12950 G1 X56.309 Y118.199
N12955 G1 X65.886 Y118.2
N12960 G1 X82.167
N12965 G1 X132.925
N12970 G1 X183.683
N12975 G1 X234.441
N12980 G1 X285.199
N12985 G1 X335.957
N12990 G1 X386.715
N12995 G1 X408.742
N13000 G1 X409.22 Y118.199
N13005 G1 X409.687 Y118.093
N13010 G1 X410.561 Y117.701
N13015 G1 X411.264 Y117.05
N13020 G1 X411.802 Y116.258
N13025 G1 X412.25 Y115.412
N13030 G1 X412.692 Y114.562
N13035 G1 X412.934 Y114.168
N13040 G1 X413.107 Y113.941
N13045 G1 X413.322 Y113.754
N13050 G1 X413.571 Y113.615
N13055 G1 X413.843 Y113.529
N13060 G1 X414.127 Y113.5
N13065 G1 X414.945
N13070 G3 X415.509 Y113.965 I-0.021 J0.6
N13075 G1 X415.53 Y114.056 Z15.007
N13080 G1 X415.551 Y114.145 Z15.029
N13085 G1 X415.57 Y114.23 Z15.065
N13090 G1 X415.588 Y114.308 Z15.115
N13095 G1 X415.604 Y114.378 Z15.176
N13100 G1 X415.618 Y114.438 Z15.247
N13105 G1 X415.629 Y114.486 Z15.328
N13110 G1 X415.637 Y114.521 Z15.415
N13115 G1 X415.642 Y114.542 Z15.506
N13120 G1 X415.644 Y114.549 Z15.6
N13125 G0 Z25
N13130 G0 X31.849 Y114.028
N13135 G0 Z16.2
N13140 G1 Z15.6 F1828.8
N13145 G1 X31.855 Y114.024 Z15.506
N13150 G1 X31.874 Y114.013 Z15.415
N13155 G1 X31.905 Y113.995 Z15.328
N13160 G1 X31.948 Y113.969 Z15.247
N13165 G1 X32 Y113.938 Z15.176
N13170 G1 X32.062 Y113.902 Z15.115
N13175 G1 X32.131 Y113.861 Z15.065
N13180 G1 X32.205 Y113.816 Z15.029
N13185 G1 X32.284 Y113.769 Z15.007
N13190 G1 X32.365 Y113.721 Z15
N13195 G3 X33.118 Y113.5 I0.809 J1.36
N13200 G1 X34.424
N13205 G1 X34.574 Y113.507
N13210 G1 X34.803 Y113.539
N13215 G1 X35.251 Y113.638
N13220 G1 X36.167 Y113.918
N13225 G1 X37.067 Y114.243
N13230 G1 X37.975 Y114.548
N13235 G1 X38.895 Y114.814
N13240 G1 X39.827 Y115.035
N13245 G1 X40.768 Y115.214
N13250 G1 X41.715 Y115.356
N13255 G1 X42.666 Y115.466
N13260 G1 X43.62 Y115.551
N13265 G1 X44.576 Y115.615
N13270 G1 X45.532 Y115.664
N13275 G1 X46.489 Y115.7
N13280 G1 X47.447 Y115.727
N13285 G1 X48.404 Y115.747
N13290 G1 X49.362 Y115.761
N13295 G1 X50.319 Y115.772
N13300 G1 X51.277 Y115.78
N13305 G1 X52.235 Y115.785
N13310 G1 X53.192 Y115.79
N13315 G1 X55.108 Y115.795
N13320 G1 X57.981 Y115.798
N13325 G1 X64.685 Y115.8
N13330 G1 X84.796
N13335 G1 X135.554
N13340 G1 X186.312
N13345 G1 X237.07
N13350 G1 X287.828
N13355 G1 X338.586
N13360 G1 X389.344
N13365 G1 X406.582
N13370 G1 X407.515 Y115.584
N13375 G1 X408.353 Y115.119
N13380 G1 X409.096 Y114.515
N13385 G1 X409.735 Y113.895
N13390 G1 X409.945 Y113.727
N13395 G1 X410.183 Y113.603
N13400 G1 X410.441 Y113.526
N13405 G1 X410.709 Y113.5
N13410 G1 X414.127
N13415 G3 X414.691 Y113.965 I-0.021 J0.6
N13420 G1 X414.712 Y114.056 Z15.007
N13425 G1 X414.732 Y114.145 Z15.029
N13430 G1 X414.752 Y114.23 Z15.065
N13435 G1 X414.77 Y114.308 Z15.115
N13440 G1 X414.786 Y114.378 Z15.176
N13445 G1 X414.8 Y114.438 Z15.247
N13450 G1 X414.811 Y114.486 Z15.328
N13455 G1 X414.819 Y114.521 Z15.415
N13460 G1 X414.824 Y114.542 Z15.506
N13465 G1 X414.826 Y114.549 Z15.6
N13470 G0 Z25
N13475 G0 X33.154 Y114.028
N13480 G0 Z16.2
N13485 G1 Z15.6 F1828.8
N13490 G1 X33.161 Y114.024 Z15.506
N13495 G1 X33.18 Y114.013 Z15.415
N13500 G1 X33.211 Y113.995 Z15.328
N13505 G1 X33.253 Y113.969 Z15.247
N13510 G1 X33.305 Y113.938 Z15.176
N13515 G1 X33.367 Y113.902 Z15.115
N13520 G1 X33.436 Y113.861 Z15.065
N13525 G1 X33.511 Y113.816 Z15.029
N13530 G1 X33.589 Y113.769 Z15.007
N13535 G1 X33.67 Y113.721 Z15
N13540 G3 X34.424 Y113.5 I0.809 J1.36
N13545 G1 X410.709
N13550 G1 X410.801 Y113.51
N13555 G1 X410.891 Y113.535
N13560 G1 X410.955 Y113.572 Z15.005
N13565 G1 X411.017 Y113.608 Z15.018
N13570 G1 X411.078 Y113.644 Z15.041
N13575 G1 X411.128 Y113.705 Z15.079
N13580 G1 X411.174 Y113.762 Z15.129
N13585 G1 X411.215 Y113.812 Z15.188
N13590 G1 X411.235 Y113.865 Z15.259
N13595 G1 X411.251 Y113.908 Z15.337
N13600 G1 X411.263 Y113.939 Z15.421
N13605 G1 X411.271 Y113.958 Z15.509
N13610 G1 X411.273 Y113.965 Z15.6
N13615 G0 Z25
N13620 G0 X28.71 Y113.97
N13625 G0 Z12.6
N13630 G1 Z12 F1828.8
N13635 G1 Z10
N13640 G3 X31.977 Y113.5 I3.801 J14.839
N13645 G1 X32.302
N13650 G1 X32.339 Y113.502
N13655 G1 X32.459 Y113.599
N13660 G1 X32.595 Y113.729
N13665 G1 X32.747 Y113.899
N13670 G1 X32.913 Y114.119
N13675 G1 X33.093 Y114.4
N13680 G1 X33.285 Y114.763
N13685 G1 X33.488 Y115.234
N13690 G1 X33.701 Y115.862
N13695 G1 X33.922 Y116.741
N13700 G1 X34.081 Y117.686
N13705 G1 X34.305 Y118.108
N13710 G1 X34.913 Y118.849
N13715 G1 X35.706 Y119.386
N13720 G1 X36.585 Y119.765
N13725 G1 X37.506 Y120.03
N13730 G1 X38.446 Y120.212
N13735 G1 X39.395 Y120.337
N13740 G1 X40.349 Y120.422
N13745 G1 X41.305 Y120.479
N13750 G1 X42.262 Y120.519
N13755 G1 X43.219 Y120.545
N13760 G1 X44.177 Y120.563
N13765 G1 X45.135 Y120.575
N13770 G1 X46.092 Y120.583
N13775 G1 X47.05 Y120.589
N13780 G1 X48.008 Y120.592
N13785 G1 X49.923 Y120.597
N13790 G1 X52.796 Y120.599
N13795 G1 X64.288 Y120.6
N13800 G1 X78.654
N13805 G1 X129.412
N13810 G1 X180.17
N13815 G1 X230.928
N13820 G1 X281.686
N13825 G1 X332.444
N13830 G1 X383.201
N13835 G1 X412.411
N13840 G1 X412.864 Y120.446
N13845 G1 X413.667 Y119.923
N13850 G1 X414.255 Y119.167
N13855 G1 X414.674 Y118.306
N13860 G1 X414.966 Y117.394
N13865 G1 X415.168 Y116.458
N13870 G1 X415.307 Y115.51
N13875 G1 X415.381 Y114.762
N13880 G1 X415.441 Y114.474
N13885 G1 X415.559 Y114.205
N13890 G1 X415.731 Y113.967
N13895 G1 X415.949 Y113.769
N13900 G1 X416.203 Y113.622
N13905 G1 X416.482 Y113.531
N13910 G1 X416.774 Y113.5
N13915 G3 X417.338 Y113.965 I-0.021 J0.6
N13920 G1 X417.359 Y114.056 Z10.007
N13925 G1 X417.38 Y114.145 Z10.029
N13930 G1 X417.399 Y114.23 Z10.065
N13935 G1 X417.417 Y114.308 Z10.115
N13940 G1 X417.433 Y114.378 Z10.176
N13945 G1 X417.447 Y114.438 Z10.247
N13950 G1 X417.458 Y114.486 Z10.328
N13955 G1 X417.466 Y114.521 Z10.415
N13960 G1 X417.471 Y114.542 Z10.506
N13965 G1 X417.473 Y114.549 Z10.6
N13970 G0 Z25
N13975 G0 X31.033 Y114.028
N13980 G0 Z11.2
N13985 G1 Z10.6 F1828.8
N13990 G1 X31.039 Y114.024 Z10.506
N13995 G1 X31.058 Y114.013 Z10.415
N14000 G1 X31.089 Y113.995 Z10.328
N14005 G1 X31.131 Y113.969 Z10.247
N14010 G1 X31.184 Y113.938 Z10.176
N14015 G1 X31.245 Y113.902 Z10.115
N14020 G1 X31.314 Y113.861 Z10.065
N14025 G1 X31.389 Y113.816 Z10.029
N14030 G1 X31.468 Y113.769 Z10.007
N14035 G1 X31.548 Y113.721 Z10
N14040 G3 X32.302 Y113.5 I0.809 J1.36
N14045 G1 X33.118
N14050 G1 X33.268 Y113.507
N14055 G1 X33.433 Y113.571
N14060 G1 X33.608 Y113.656
N14065 G1 X33.811 Y113.774
N14070 G1 X34.01 Y113.913
N14075 G1 X34.229 Y114.094
N14080 G1 X34.473 Y114.331
N14085 G1 X35.104 Y115.051
N14090 G1 X35.73 Y115.776
N14095 G1 X36.477 Y116.375
N14100 G1 X37.31 Y116.847
N14105 G1 X38.197 Y117.209
N14110 G1 X39.116 Y117.48
N14115 G1 X40.052 Y117.681
N14120 G1 X40.998 Y117.828
N14125 G1 X41.95 Y117.935
N14130 G1 X42.905 Y118.011
N14135 G1 X43.861 Y118.066
N14140 G1 X44.818 Y118.106
N14145 G1 X45.775 Y118.133
N14150 G1 X46.732 Y118.153
N14155 G1 X47.69 Y118.167
N14160 G1 X48.648 Y118.177
N14165 G1 X49.605 Y118.184
N14170 G1 X50.563 Y118.189
N14175 G1 X51.521 Y118.192
N14180 G1 X53.436 Y118.196
N14185 G1 X56.309 Y118.199
N14190 G1 X65.886 Y118.2
N14195 G1 X82.167
N14200 G1 X132.925
N14205 G1 X183.683
N14210 G1 X234.441
N14215 G1 X285.199
N14220 G1 X335.957
N14225 G1 X386.715
N14230 G1 X408.742
N14235 G1 X409.22 Y118.199
N14240 G1 X409.687 Y118.093
N14245 G1 X410.561 Y117.701
N14250 G1 X411.264 Y117.05
N14255 G1 X411.802 Y116.258
N14260 G1 X412.25 Y115.412
N14265 G1 X412.692 Y114.562
N14270 G1 X412.934 Y114.168
N14275 G1 X413.107 Y113.941
N14280 G1 X413.322 Y113.754
N14285 G1 X413.571 Y113.615
N14290 G1 X413.843 Y113.529
N14295 G1 X414.127 Y113.5
N14300 G1 X414.945
N14305 G3 X415.509 Y113.965 I-0.021 J0.6
N14310 G1 X415.53 Y114.056 Z10.007
N14315 G1 X415.551 Y114.145 Z10.029
N14320 G1 X415.57 Y114.23 Z10.065
N14325 G1 X415.588 Y114.308 Z10.115
N14330 G1 X415.604 Y114.378 Z10.176
N14335 G1 X415.618 Y114.438 Z10.247
N14340 G1 X415.629 Y114.486 Z10.328
N14345 G1 X415.637 Y114.521 Z10.415
N14350 G1 X415.642 Y114.542 Z10.506
N14355 G1 X415.644 Y114.549 Z10.6
N14360 G0 Z25
N14365 G0 X31.849 Y114.028
N14370 G0 Z11.2
N14375 G1 Z10.6 F1828.8
N14380 G1 X31.855 Y114.024 Z10.506
N14385 G1 X31.874 Y114.013 Z10.415
N14390 G1 X31.905 Y113.995 Z10.328
N14395 G1 X31.948 Y113.969 Z10.247
N14400 G1 X32 Y113.938 Z10.176
N14405 G1 X32.062 Y113.902 Z10.115
N14410 G1 X32.131 Y113.861 Z10.065
N14415 G1 X32.205 Y113.816 Z10.029
N14420 G1 X32.284 Y113.769 Z10.007
N14425 G1 X32.365 Y113.721 Z10
N14430 G3 X33.118 Y113.5 I0.809 J1.36
N14435 G1 X34.424
N14440 G1 X34.574 Y113.507
N14445 G1 X34.803 Y113.539
N14450 G1 X35.251 Y113.638
N14455 G1 X36.167 Y113.918
N14460 G1 X37.067 Y114.243
N14465 G1 X37.975 Y114.548
N14470 G1 X38.895 Y114.814
N14475 G1 X39.827 Y115.035
N14480 G1 X40.768 Y115.214
N14485 G1 X41.715 Y115.356
N14490 G1 X42.666 Y115.466
N14495 G1 X43.62 Y115.551
N14500 G1 X44.576 Y115.615
N14505 G1 X45.532 Y115.664
N14510 G1 X46.489 Y115.7
N14515 G1 X47.447 Y115.727
N14520 G1 X48.404 Y115.747
N14525 G1 X49.362 Y115.761
N14530 G1 X50.319 Y115.772
N14535 G1 X51.277 Y115.78
N14540 G1 X52.235 Y115.785
N14545 G1 X53.192 Y115.79
N14550 G1 X55.108 Y115.795
N14555 G1 X57.981 Y115.798
N14560 G1 X64.685 Y115.8
N14565 G1 X84.796
N14570 G1 X135.554
N14575 G1 X186.312
N14580 G1 X237.07
N14585 G1 X287.828
N14590 G1 X338.586
N14595 G1 X389.344
N14600 G1 X406.582
N14605 G1 X407.515 Y115.584
N14610 G1 X408.353 Y115.119
N14615 G1 X409.096 Y114.515
N14620 G1 X409.735 Y113.895
N14625 G1 X409.945 Y113.727
N14630 G1 X410.183 Y113.603
N14635 G1 X410.441 Y113.526
N14640 G1 X410.709 Y113.5
N14645 G1 X414.127
N14650 G3 X414.691 Y113.965 I-0.021 J0.6
N14655 G1 X414.712 Y114.056 Z10.007
N14660 G1 X414.732 Y114.145 Z10.029
N14665 G1 X414.752 Y114.23 Z10.065
N14670 G1 X414.77 Y114.308 Z10.115
N14675 G1 X414.786 Y114.378 Z10.176
N14680 G1 X414.8 Y114.438 Z10.247
N14685 G1 X414.811 Y114.486 Z10.328
N14690 G1 X414.819 Y114.521 Z10.415
N14695 G1 X414.824 Y114.542 Z10.506
N14700 G1 X414.826 Y114.549 Z10.6
N14705 G0 Z25
N14710 G0 X33.154 Y114.028
N14715 G0 Z11.2
N14720 G1 Z10.6 F1828.8
N14725 G1 X33.161 Y114.024 Z10.506
N14730 G1 X33.18 Y114.013 Z10.415
N14735 G1 X33.211 Y113.995 Z10.328
N14740 G1 X33.253 Y113.969 Z10.247
N14745 G1 X33.305 Y113.938 Z10.176
N14750 G1 X33.367 Y113.902 Z10.115
N14755 G1 X33.436 Y113.861 Z10.065
N14760 G1 X33.511 Y113.816 Z10.029
N14765 G1 X33.589 Y113.769 Z10.007
N14770 G1 X33.67 Y113.721 Z10
N14775 G3 X34.424 Y113.5 I0.809 J1.36
N14780 G1 X410.709
N14785 G3 X411.273 Y113.965 I-0.021 J0.6
N14790 G1 X411.294 Y114.056 Z10.007
N14795 G1 X411.315 Y114.145 Z10.029
N14800 G1 X411.334 Y114.23 Z10.065
N14805 G1 X411.352 Y114.308 Z10.115
N14810 G1 X411.368 Y114.378 Z10.176
N14815 G1 X411.382 Y114.438 Z10.247
N14820 G1 X411.393 Y114.486 Z10.328
N14825 G1 X411.401 Y114.521 Z10.415
N14830 G1 X411.406 Y114.542 Z10.506
N14835 G1 X411.408 Y114.549 Z10.6
N14840 G0 Z35
N14845 G0 X28.71 Y173.97
N14850 G0 Z25
N14855 G0 Z17.6
N14860 G1 Z17 F1828.8
N14865 G1 Z15
N14870 G3 X31.977 Y173.5 I3.801 J14.839
N14875 G1 X32.302
N14880 G1 X32.339 Y173.502
N14885 G1 X32.459 Y173.599
N14890 G1 X32.595 Y173.729
N14895 G1 X32.747 Y173.899
N14900 G1 X32.913 Y174.119
N14905 G1 X33.093 Y174.4
N14910 G1 X33.285 Y174.763
N14915 G1 X33.488 Y175.234
N14920 G1 X33.701 Y175.862
N14925 G1 X33.922 Y176.741
N14930 G1 X34.081 Y177.686
N14935 G1 X34.305 Y178.108
N14940 G1 X34.913 Y178.849
N14945 G1 X35.706 Y179.386
N14950 G1 X36.585 Y179.765
N14955 G1 X37.506 Y180.03
N14960 G1 X38.446 Y180.212
N14965 G1 X39.395 Y180.337
N14970 G1 X40.349 Y180.422
N14975 G1 X41.305 Y180.479
N14980 G1 X42.262 Y180.519
N14985 G1 X43.219 Y180.545
N14990 G1 X44.177 Y180.563
N14995 G1 X45.135 Y180.575
N15000 G1 X46.092 Y180.583
N15005 G1 X47.05 Y180.589
N15010 G1 X48.008 Y180.592
N15015 G1 X49.923 Y180.597
N15020 G1 X52.796 Y180.599
N15025 G1 X64.288 Y180.6
N15030 G1 X78.654
N15035 G1 X129.412
N15040 G1 X180.17
N15045 G1 X230.928
N15050 G1 X281.686
N15055 G1 X332.444
N15060 G1 X383.201
N15065 G1 X412.411
N15070 G1 X412.864 Y180.446
N15075 G1 X413.667 Y179.923
N15080 G1 X414.255 Y179.167
N15085 G1 X414.674 Y178.306
N15090 G1 X414.966 Y177.394
N15095 G1 X415.168 Y176.458
N15100 G1 X415.307 Y175.51
N15105 G1 X415.381 Y174.762
N15110 G1 X415.441 Y174.474
N15115 G1 X415.559 Y174.205
N15120 G1 X415.731 Y173.967
N15125 G1 X415.949 Y173.769
N15130 G1 X416.203 Y173.622
N15135 G1 X416.482 Y173.531
N15140 G1 X416.774 Y173.5
N15145 G3 X417.338 Y173.965 I-0.021 J0.6
N15150 G1 X417.359 Y174.056 Z15.007
N15155 G1 X417.38 Y174.145 Z15.029
N15160 G1 X417.399 Y174.23 Z15.065
N15165 G1 X417.417 Y174.308 Z15.115
N15170 G1 X417.433 Y174.378 Z15.176
N15175 G1 X417.447 Y174.438 Z15.247
N15180 G1 X417.458 Y174.486 Z15.328
N15185 G1 X417.466 Y174.521 Z15.415
N15190 G1 X417.471 Y174.542 Z15.506
N15195 G1 X417.473 Y174.549 Z15.6
N15200 G0 Z25
N15205 G0 X31.033 Y174.028
N15210 G0 Z16.2
N15215 G1 Z15.6 F1828.8
N15220 G1 X31.039 Y174.024 Z15.506
N15225 G1 X31.058 Y174.013 Z15.415
N15230 G1 X31.089 Y173.995 Z15.328
N15235 G1 X31.131 Y173.969 Z15.247
N15240 G1 X31.184 Y173.938 Z15.176
N15245 G1 X31.245 Y173.902 Z15.115
N15250 G1 X31.314 Y173.861 Z15.065
N15255 G1 X31.389 Y173.816 Z15.029
N15260 G1 X31.468 Y173.769 Z15.007
N15265 G1 X31.548 Y173.721 Z15
N15270 G3 X32.302 Y173.5 I0.809 J1.36
N15275 G1 X33.118
N15280 G1 X33.268 Y173.508
N15285 G1 X33.433 Y173.571
N15290 G1 X33.608 Y173.656
N15295 G1 X33.811 Y173.774
N15300 G1 X34.01 Y173.913
N15305 G1 X34.229 Y174.094
N15310 G1 X34.473 Y174.331
N15315 G1 X35.104 Y175.051
N15320 G1 X35.73 Y175.776
N15325 G1 X36.477 Y176.375
N15330 G1 X37.31 Y176.847
N15335 G1 X38.197 Y177.209
N15340 G1 X39.116 Y177.48
N15345 G1 X40.052 Y177.681
N15350 G1 X40.998 Y177.828
N15355 G1 X41.95 Y177.935
N15360 G1 X42.905 Y178.011
N15365 G1 X43.861 Y178.066
N15370 G1 X44.818 Y178.106
N15375 G1 X45.775 Y178.133
N15380 G1 X46.732 Y178.153
N15385 G1 X47.69 Y178.167
N15390 G1 X48.648 Y178.177
N15395 G1 X49.605 Y178.184
N15400 G1 X50.563 Y178.189
N15405 G1 X51.521 Y178.192
N15410 G1 X53.436 Y178.196
N15415 G1 X56.309 Y178.199
N15420 G1 X65.886 Y178.2
N15425 G1 X82.167
N15430 G1 X132.925
N15435 G1 X183.683
N15440 G1 X234.441
N15445 G1 X285.199
N15450 G1 X335.957
N15455 G1 X386.715
N15460 G1 X408.742
N15465 G1 X409.22 Y178.199
N15470 G1 X409.687 Y178.093
N15475 G1 X410.561 Y177.701
N15480 G1 X411.264 Y177.05
N15485 G1 X411.802 Y176.258
N15490 G1 X412.25 Y175.412
N15495 G1 X412.692 Y174.562
N15500 G1 X412.934 Y174.168
N15505 G1 X413.107 Y173.941
N15510 G1 X413.322 Y173.754
N15515 G1 X413.571 Y173.615
N15520 G1 X413.843 Y173.529
N15525 G1 X414.127 Y173.5
N15530 G1 X414.945
N15535 G3 X415.509 Y173.965 I-0.021 J0.6
N15540 G1 X415.53 Y174.056 Z15.007
N15545 G1 X415.551 Y174.145 Z15.029
N15550 G1 X415.57 Y174.23 Z15.065
N15555 G1 X415.588 Y174.308 Z15.115
N15560 G1 X415.604 Y174.378 Z15.176
N15565 G1 X415.618 Y174.438 Z15.247
N15570 G1 X415.629 Y174.486 Z15.328
N15575 G1 X415.637 Y174.521 Z15.415
N15580 G1 X415.642 Y174.542 Z15.506
N15585 G1 X415.644 Y174.549 Z15.6
N15590 G0 Z25
N15595 G0 X31.849 Y174.028
N15600 G0 Z16.2
N15605 G1 Z15.6 F1828.8
N15610 G1 X31.855 Y174.024 Z15.506
N15615 G1 X31.874 Y174.013 Z15.415
N15620 G1 X31.905 Y173.995 Z15.328
N15625 G1 X31.948 Y173.969 Z15.247
N15630 G1 X32 Y173.938 Z15.176
N15635 G1 X32.062 Y173.902 Z15.115
N15640 G1 X32.131 Y173.861 Z15.065
N15645 G1 X32.205 Y173.816 Z15.029
N15650 G1 X32.284 Y173.769 Z15.007
N15655 G1 X32.365 Y173.721 Z15
N15660 G3 X33.118 Y173.5 I0.809 J1.36
N15665 G1 X34.424
N15670 G1 X34.574 Y173.508
N15675 G1 X34.803 Y173.539
N15680 G1 X35.251 Y173.638
N15685 G1 X36.167 Y173.918
N15690 G1 X37.067 Y174.243
N15695 G1 X37.975 Y174.548
N15700 G1 X38.895 Y174.814
N15705 G1 X39.827 Y175.035
N15710 G1 X40.768 Y175.214
N15715 G1 X41.715 Y175.356
N15720 G1 X42.666 Y175.466
N15725 G1 X43.62 Y175.551
N15730 G1 X44.576 Y175.615
N15735 G1 X45.532 Y175.664
N15740 G1 X46.489 Y175.7
N15745 G1 X47.447 Y175.727
N15750 G1 X48.404 Y175.747
N15755 G1 X49.362 Y175.761
N15760 G1 X50.319 Y175.772
N15765 G1 X51.277 Y175.78
N15770 G1 X52.235 Y175.785
N15775 G1 X53.192 Y175.79
N15780 G1 X55.108 Y175.795
N15785 G1 X57.981 Y175.798
N15790 G1 X64.685 Y175.8
N15795 G1 X84.796
N15800 G1 X135.554
N15805 G1 X186.312
N15810 G1 X237.07
N15815 G1 X287.828
N15820 G1 X338.586
N15825 G1 X389.344
N15830 G1 X406.582
N15835 G1 X407.515 Y175.584
N15840 G1 X408.353 Y175.119
N15845 G1 X409.096 Y174.515
N15850 G1 X409.735 Y173.895
N15855 G1 X409.945 Y173.727
N15860 G1 X410.183 Y173.602
N15865 G1 X410.441 Y173.526
N15870 G1 X410.709 Y173.5
N15875 G1 X414.127
N15880 G3 X414.691 Y173.965 I-0.021 J0.6
N15885 G1 X414.712 Y174.056 Z15.007
N15890 G1 X414.732 Y174.145 Z15.029
N15895 G1 X414.752 Y174.23 Z15.065
N15900 G1 X414.77 Y174.308 Z15.115
N15905 G1 X414.786 Y174.378 Z15.176
N15910 G1 X414.8 Y174.438 Z15.247
N15915 G1 X414.811 Y174.486 Z15.328
N15920 G1 X414.819 Y174.521 Z15.415
N15925 G1 X414.824 Y174.542 Z15.506
N15930 G1 X414.826 Y174.549 Z15.6
N15935 G0 Z25
N15940 G0 X33.154 Y174.028
N15945 G0 Z16.2
N15950 G1 Z15.6 F1828.8
N15955 G1 X33.161 Y174.024 Z15.506
N15960 G1 X33.18 Y174.013 Z15.415
N15965 G1 X33.211 Y173.995 Z15.328
N15970 G1 X33.253 Y173.969 Z15.247
N15975 G1 X33.305 Y173.938 Z15.176
N15980 G1 X33.367 Y173.902 Z15.115
N15985 G1 X33.436 Y173.861 Z15.065
N15990 G1 X33.511 Y173.816 Z15.029
N15995 G1 X33.589 Y173.769 Z15.007
N16000 G1 X33.67 Y173.721 Z15
N16005 G3 X34.424 Y173.5 I0.809 J1.36
N16010 G1 X410.709
N16015 G1 X410.801 Y173.51
N16020 G1 X410.891 Y173.535
N16025 G1 X410.955 Y173.572 Z15.005
N16030 G1 X411.017 Y173.608 Z15.018
N16035 G1 X411.078 Y173.644 Z15.041
N16040 G1 X411.128 Y173.705 Z15.079
N16045 G1 X411.174 Y173.762 Z15.129
N16050 G1 X411.215 Y173.812 Z15.188
N16055 G1 X411.235 Y173.865 Z15.259
N16060 G1 X411.251 Y173.908 Z15.337
N16065 G1 X411.263 Y173.939 Z15.421
N16070 G1 X411.271 Y173.958 Z15.509
N16075 G1 X411.273 Y173.965 Z15.6
N16080 G0 Z25
N16085 G0 X28.71 Y173.97
N16090 G0 Z12.6
N16095 G1 Z12 F1828.8
N16100 G1 Z10
N16105 G3 X31.977 Y173.5 I3.801 J14.839
N16110 G1 X32.302
N16115 G1 X32.339 Y173.502
N16120 G1 X32.459 Y173.599
N16125 G1 X32.595 Y173.729
N16130 G1 X32.747 Y173.899
N16135 G1 X32.913 Y174.119
N16140 G1 X33.093 Y174.4
N16145 G1 X33.285 Y174.763
N16150 G1 X33.488 Y175.234
N16155 G1 X33.701 Y175.862
N16160 G1 X33.922 Y176.741
N16165 G1 X34.081 Y177.686
N16170 G1 X34.305 Y178.108
N16175 G1 X34.913 Y178.849
N16180 G1 X35.706 Y179.386
N16185 G1 X36.585 Y179.765
N16190 G1 X37.506 Y180.03
N16195 G1 X38.446 Y180.212
N16200 G1 X39.395 Y180.337
N16205 G1 X40.349 Y180.422
N16210 G1 X41.305 Y180.479
N16215 G1 X42.262 Y180.519
N16220 G1 X43.219 Y180.545
N16225 G1 X44.177 Y180.563
N16230 G1 X45.135 Y180.575
N16235 G1 X46.092 Y180.583
N16240 G1 X47.05 Y180.589
N16245 G1 X48.008 Y180.592
N16250 G1 X49.923 Y180.597
N16255 G1 X52.796 Y180.599
N16260 G1 X64.288 Y180.6
N16265 G1 X78.654
N16270 G1 X129.412
N16275 G1 X180.17
N16280 G1 X230.928
N16285 G1 X281.686
N16290 G1 X332.444
N16295 G1 X383.201
N16300 G1 X412.411
N16305 G1 X412.864 Y180.446
N16310 G1 X413.667 Y179.923
N16315 G1 X414.255 Y179.167
N16320 G1 X414.674 Y178.306
N16325 G1 X414.966 Y177.394
N16330 G1 X415.168 Y176.458
N16335 G1 X415.307 Y175.51
N16340 G1 X415.381 Y174.762
N16345 G1 X415.441 Y174.474
N16350 G1 X415.559 Y174.205
N16355 G1 X415.731 Y173.967
N16360 G1 X415.949 Y173.769
N16365 G1 X416.203 Y173.622
N16370 G1 X416.482 Y173.531
N16375 G1 X416.774 Y173.5
N16380 G3 X417.338 Y173.965 I-0.021 J0.6
N16385 G1 X417.359 Y174.056 Z10.007
N16390 G1 X417.38 Y174.145 Z10.029
N16395 G1 X417.399 Y174.23 Z10.065
N16400 G1 X417.417 Y174.308 Z10.115
N16405 G1 X417.433 Y174.378 Z10.176
N16410 G1 X417.447 Y174.438 Z10.247
N16415 G1 X417.458 Y174.486 Z10.328
N16420 G1 X417.466 Y174.521 Z10.415
N16425 G1 X417.471 Y174.542 Z10.506
N16430 G1 X417.473 Y174.549 Z10.6
N16435 G0 Z25
N16440 G0 X31.033 Y174.028
N16445 G0 Z11.2
N16450 G1 Z10.6 F1828.8
N16455 G1 X31.039 Y174.024 Z10.506
N16460 G1 X31.058 Y174.013 Z10.415
N16465 G1 X31.089 Y173.995 Z10.328
N16470 G1 X31.131 Y173.969 Z10.247
N16475 G1 X31.184 Y173.938 Z10.176
N16480 G1 X31.245 Y173.902 Z10.115
N16485 G1 X31.314 Y173.861 Z10.065
N16490 G1 X31.389 Y173.816 Z10.029
N16495 G1 X31.468 Y173.769 Z10.007
N16500 G1 X31.548 Y173.721 Z10
N16505 G3 X32.302 Y173.5 I0.809 J1.36
N16510 G1 X33.118
N16515 G1 X33.268 Y173.508
N16520 G1 X33.433 Y173.571
N16525 G1 X33.608 Y173.656
N16530 G1 X33.811 Y173.774
N16535 G1 X34.01 Y173.913
N16540 G1 X34.229 Y174.094
N16545 G1 X34.473 Y174.331
N16550 G1 X35.104 Y175.051
N16555 G1 X35.73 Y175.776
N16560 G1 X36.477 Y176.375
N16565 G1 X37.31 Y176.847
N16570 G1 X38.197 Y177.209
N16575 G1 X39.116 Y177.48
N16580 G1 X40.052 Y177.681
N16585 G1 X40.998 Y177.828
N16590 G1 X41.95 Y177.935
N16595 G1 X42.905 Y178.011
N16600 G1 X43.861 Y178.066
N16605 G1 X44.818 Y178.106
N16610 G1 X45.775 Y178.133
N16615 G1 X46.732 Y178.153
N16620 G1 X47.69 Y178.167
N16625 G1 X48.648 Y178.177
N16630 G1 X49.605 Y178.184
N16635 G1 X50.563 Y178.189
N16640 G1 X51.521 Y178.192
N16645 G1 X53.436 Y178.196
N16650 G1 X56.309 Y178.199
N16655 G1 X65.886 Y178.2
N16660 G1 X82.167
N16665 G1 X132.925
N16670 G1 X183.683
N16675 G1 X234.441
N16680 G1 X285.199
N16685 G1 X335.957
N16690 G1 X386.715
N16695 G1 X408.742
N16700 G1 X409.22 Y178.199
N16705 G1 X409.687 Y178.093
N16710 G1 X410.561 Y177.701
N16715 G1 X411.264 Y177.05
N16720 G1 X411.802 Y176.258
N16725 G1 X412.25 Y175.412
N16730 G1 X412.692 Y174.562
N16735 G1 X412.934 Y174.168
N16740 G1 X413.107 Y173.941
N16745 G1 X413.322 Y173.754
N16750 G1 X413.571 Y173.615
N16755 G1 X413.843 Y173.529
N16760 G1 X414.127 Y173.5
N16765 G1 X414.945
N16770 G3 X415.509 Y173.965 I-0.021 J0.6
N16775 G1 X415.53 Y174.056 Z10.007
N16780 G1 X415.551 Y174.145 Z10.029
N16785 G1 X415.57 Y174.23 Z10.065
N16790 G1 X415.588 Y174.308 Z10.115
N16795 G1 X415.604 Y174.378 Z10.176
N16800 G1 X415.618 Y174.438 Z10.247
N16805 G1 X415.629 Y174.486 Z10.328
N16810 G1 X415.637 Y174.521 Z10.415
N16815 G1 X415.642 Y174.542 Z10.506
N16820 G1 X415.644 Y174.549 Z10.6
N16825 G0 Z25
N16830 G0 X31.849 Y174.028
N16835 G0 Z11.2
N16840 G1 Z10.6 F1828.8
N16845 G1 X31.855 Y174.024 Z10.506
N16850 G1 X31.874 Y174.013 Z10.415
N16855 G1 X31.905 Y173.995 Z10.328
N16860 G1 X31.948 Y173.969 Z10.247
N16865 G1 X32 Y173.938 Z10.176
N16870 G1 X32.062 Y173.902 Z10.115
N16875 G1 X32.131 Y173.861 Z10.065
N16880 G1 X32.205 Y173.816 Z10.029
N16885 G1 X32.284 Y173.769 Z10.007
N16890 G1 X32.365 Y173.721 Z10
N16895 G3 X33.118 Y173.5 I0.809 J1.36
N16900 G1 X34.424
N16905 G1 X34.574 Y173.508
N16910 G1 X34.803 Y173.539
N16915 G1 X35.251 Y173.638
N16920 G1 X36.167 Y173.918
N16925 G1 X37.067 Y174.243
N16930 G1 X37.975 Y174.548
N16935 G1 X38.895 Y174.814
N16940 G1 X39.827 Y175.035
N16945 G1 X40.768 Y175.214
N16950 G1 X41.715 Y175.356
N16955 G1 X42.666 Y175.466
N16960 G1 X43.62 Y175.551
N16965 G1 X44.576 Y175.615
N16970 G1 X45.532 Y175.664
N16975 G1 X46.489 Y175.7
N16980 G1 X47.447 Y175.727
N16985 G1 X48.404 Y175.747
N16990 G1 X49.362 Y175.761
N16995 G1 X50.319 Y175.772
N17000 G1 X51.277 Y175.78
N17005 G1 X52.235 Y175.785
N17010 G1 X53.192 Y175.79
N17015 G1 X55.108 Y175.795
N17020 G1 X57.981 Y175.798
N17025 G1 X64.685 Y175.8
N17030 G1 X84.796
N17035 G1 X135.554
N17040 G1 X186.312
N17045 G1 X237.07
N17050 G1 X287.828
N17055 G1 X338.586
N17060 G1 X389.344
N17065 G1 X406.582
N17070 G1 X407.515 Y175.584
N17075 G1 X408.353 Y175.119
N17080 G1 X409.096 Y174.515
N17085 G1 X409.735 Y173.895
N17090 G1 X409.945 Y173.727
N17095 G1 X410.183 Y173.602
N17100 G1 X410.441 Y173.526
N17105 G1 X410.709 Y173.5
N17110 G1 X414.127
N17115 G3 X414.691 Y173.965 I-0.021 J0.6
N17120 G1 X414.712 Y174.056 Z10.007
N17125 G1 X414.732 Y174.145 Z10.029
N17130 G1 X414.752 Y174.23 Z10.065
N17135 G1 X414.77 Y174.308 Z10.115
N17140 G1 X414.786 Y174.378 Z10.176
N17145 G1 X414.8 Y174.438 Z10.247
N17150 G1 X414.811 Y174.486 Z10.328
N17155 G1 X414.819 Y174.521 Z10.415
N17160 G1 X414.824 Y174.542 Z10.506
N17165 G1 X414.826 Y174.549 Z10.6
N17170 G0 Z25
N17175 G0 X33.154 Y174.028
N17180 G0 Z11.2
N17185 G1 Z10.6 F1828.8
N17190 G1 X33.161 Y174.024 Z10.506
N17195 G1 X33.18 Y174.013 Z10.415
N17200 G1 X33.211 Y173.995 Z10.328
N17205 G1 X33.253 Y173.969 Z10.247
N17210 G1 X33.305 Y173.938 Z10.176
N17215 G1 X33.367 Y173.902 Z10.115
N17220 G1 X33.436 Y173.861 Z10.065
N17225 G1 X33.511 Y173.816 Z10.029
N17230 G1 X33.589 Y173.769 Z10.007
N17235 G1 X33.67 Y173.721 Z10
N17240 G3 X34.424 Y173.5 I0.809 J1.36
N17245 G1 X410.709
N17250 G3 X411.273 Y173.965 I-0.021 J0.6
N17255 G1 X411.294 Y174.056 Z10.007
N17260 G1 X411.315 Y174.145 Z10.029
N17265 G1 X411.334 Y174.23 Z10.065
N17270 G1 X411.352 Y174.308 Z10.115
N17275 G1 X411.368 Y174.378 Z10.176
N17280 G1 X411.382 Y174.438 Z10.247
N17285 G1 X411.393 Y174.486 Z10.328
N17290 G1 X411.401 Y174.521 Z10.415
N17295 G1 X411.406 Y174.542 Z10.506
N17300 G1 X411.408 Y174.549 Z10.6
N17305 G0 Z35
N17310 G0 X428.71 Y173.97
N17315 G0 Z25
N17320 G0 Z17.6
N17325 G1 Z17 F1828.8
N17330 G1 Z15
N17335 G3 X431.977 Y173.5 I3.801 J14.839
N17340 G1 X432.302
N17345 G1 X432.339 Y173.502
N17350 G1 X432.459 Y173.599
N17355 G1 X432.595 Y173.729
N17360 G1 X432.747 Y173.899
N17365 G1 X432.913 Y174.119
N17370 G1 X433.093 Y174.4
N17375 G1 X433.285 Y174.763
N17380 G1 X433.488 Y175.234
N17385 G1 X433.701 Y175.862
N17390 G1 X433.922 Y176.741
N17395 G1 X434.081 Y177.686
N17400 G1 X434.305 Y178.108
N17405 G1 X434.913 Y178.849
N17410 G1 X435.706 Y179.386
N17415 G1 X436.585 Y179.765
N17420 G1 X437.506 Y180.03
N17425 G1 X438.446 Y180.212
N17430 G1 X439.395 Y180.337
N17435 G1 X440.349 Y180.422
N17440 G1 X441.305 Y180.479
N17445 G1 X442.262 Y180.519
N17450 G1 X443.219 Y180.545
N17455 G1 X444.177 Y180.563
N17460 G1 X445.135 Y180.575
N17465 G1 X446.092 Y180.583
N17470 G1 X447.05 Y180.589
N17475 G1 X448.008 Y180.592
N17480 G1 X449.923 Y180.597
N17485 G1 X452.796 Y180.599
N17490 G1 X464.288 Y180.6
N17495 G1 X478.654
N17500 G1 X529.412
N17505 G1 X580.17
N17510 G1 X630.928
N17515 G1 X681.686
N17520 G1 X732.443
N17525 G1 X783.201
N17530 G1 X812.411
N17535 G1 X812.864 Y180.446
N17540 G1 X813.667 Y179.923
N17545 G1 X814.255 Y179.167
N17550 G1 X814.674 Y178.306
N17555 G1 X814.966 Y177.394
N17560 G1 X815.168 Y176.458
N17565 G1 X815.307 Y175.51
N17570 G1 X815.381 Y174.762
N17575 G1 X815.441 Y174.474
N17580 G1 X815.559 Y174.205
N17585 G1 X815.731 Y173.967
N17590 G1 X815.949 Y173.769
N17595 G1 X816.203 Y173.622
N17600 G1 X816.482 Y173.531
N17605 G1 X816.774 Y173.5
N17610 G3 X817.338 Y173.965 I-0.021 J0.6
N17615 G1 X817.359 Y174.056 Z15.007
N17620 G1 X817.38 Y174.145 Z15.029
N17625 G1 X817.399 Y174.23 Z15.065
N17630 G1 X817.417 Y174.308 Z15.115
N17635 G1 X817.433 Y174.378 Z15.176
N17640 G1 X817.447 Y174.438 Z15.247
N17645 G1 X817.458 Y174.486 Z15.328
N17650 G1 X817.466 Y174.521 Z15.415
N17655 G1 X817.471 Y174.542 Z15.506
N17660 G1 X817.473 Y174.549 Z15.6
N17665 G0 Z25
N17670 G0 X431.033 Y174.028
N17675 G0 Z16.2
N17680 G1 Z15.6 F1828.8
N17685 G1 X431.039 Y174.024 Z15.506
N17690 G1 X431.058 Y174.013 Z15.415
N17695 G1 X431.089 Y173.995 Z15.328
N17700 G1 X431.131 Y173.969 Z15.247
N17705 G1 X431.184 Y173.938 Z15.176
N17710 G1 X431.245 Y173.902 Z15.115
N17715 G1 X431.314 Y173.861 Z15.065
N17720 G1 X431.389 Y173.816 Z15.029
N17725 G1 X431.468 Y173.769 Z15.007
N17730 G1 X431.548 Y173.721 Z15
N17735 G3 X432.302 Y173.5 I0.809 J1.36
N17740 G1 X433.118
N17745 G1 X433.268 Y173.508
N17750 G1 X433.433 Y173.571
N17755 G1 X433.608 Y173.656
N17760 G1 X433.811 Y173.774
N17765 G1 X434.01 Y173.913
N17770 G1 X434.229 Y174.094
N17775 G1 X434.473 Y174.331
N17780 G1 X435.104 Y175.051
N17785 G1 X435.73 Y175.776
N17790 G1 X436.477 Y176.375
N17795 G1 X437.31 Y176.847
N17800 G1 X438.197 Y177.209
N17805 G1 X439.116 Y177.48
N17810 G1 X440.052 Y177.681
N17815 G1 X440.998 Y177.828
N17820 G1 X441.95 Y177.935
N17825 G1 X442.905 Y178.011
N17830 G1 X443.861 Y178.066
N17835 G1 X444.818 Y178.106
N17840 G1 X445.775 Y178.133
N17845 G1 X446.732 Y178.153
N17850 G1 X447.69 Y178.167
N17855 G1 X448.648 Y178.177
N17860 G1 X449.605 Y178.184
N17865 G1 X450.563 Y178.189
N17870 G1 X451.521 Y178.192
N17875 G1 X453.436 Y178.196
N17880 G1 X456.309 Y178.199
N17885 G1 X465.886 Y178.2
N17890 G1 X482.167
N17895 G1 X532.925
N17900 G1 X583.683
N17905 G1 X634.441
N17910 G1 X685.199
N17915 G1 X735.957
N17920 G1 X786.715
N17925 G1 X808.742
N17930 G1 X809.22 Y178.199
N17935 G1 X809.687 Y178.093
N17940 G1 X810.561 Y177.701
N17945 G1 X811.264 Y177.05
N17950 G1 X811.802 Y176.258
N17955 G1 X812.25 Y175.412
N17960 G1 X812.692 Y174.562
N17965 G1 X812.933 Y174.168
N17970 G1 X813.107 Y173.941
N17975 G1 X813.322 Y173.754
N17980 G1 X813.571 Y173.615
N17985 G1 X813.843 Y173.529
N17990 G1 X814.127 Y173.5
N17995 G1 X814.945
N18000 G3 X815.509 Y173.965 I-0.021 J0.6
N18005 G1 X815.53 Y174.056 Z15.007
N18010 G1 X815.551 Y174.145 Z15.029
N18015 G1 X815.57 Y174.23 Z15.065
N18020 G1 X815.588 Y174.308 Z15.115
N18025 G1 X815.604 Y174.378 Z15.176
N18030 G1 X815.618 Y174.438 Z15.247
N18035 G1 X815.629 Y174.486 Z15.328
N18040 G1 X815.637 Y174.521 Z15.415
N18045 G1 X815.642 Y174.542 Z15.506
N18050 G1 X815.644 Y174.549 Z15.6
N18055 G0 Z25
N18060 G0 X431.849 Y174.028
N18065 G0 Z16.2
N18070 G1 Z15.6 F1828.8
N18075 G1 X431.855 Y174.024 Z15.506
N18080 G1 X431.874 Y174.013 Z15.415
N18085 G1 X431.905 Y173.995 Z15.328
N18090 G1 X431.948 Y173.969 Z15.247
N18095 G1 X432 Y173.938 Z15.176
